<?xml version="1.0" encoding="UTF-8"?>
<map version="1.10" tiledversion="1.12.1" orientation="orthogonal" renderorder="left-up" width="300" height="18" tilewidth="16" tileheight="16" infinite="0" nextlayerid="5" nextobjectid="5">
 <tileset firstgid="1" source="../Assets/Tilesets/Map 4 Tiles.tsx"/>
 <tileset firstgid="541" source="../Assets/Tilesets/Tiles.tsx"/>
 <layer id="3" name="Background" width="300" height="18">
  <data encoding="csv">
419,420,421,420,421,417,418,421,418,419,419,420,421,420,419,420,421,421,419,420,419,417,418,419,421,418,419,420,420,421,417,420,420,417,419,420,420,417,420,418,420,417,418,420,417,418,417,417,417,420,421,417,417,418,419,417,420,417,418,419,418,420,421,420,419,419,417,421,421,419,418,421,420,419,420,419,419,420,421,418,419,417,417,417,421,421,421,419,420,421,417,417,418,420,421,421,419,419,419,420,417,420,420,420,419,421,421,420,421,421,417,421,419,419,419,418,421,418,420,421,418,417,417,421,417,417,419,421,417,420,417,420,419,419,417,418,420,419,417,418,420,419,420,419,421,417,421,417,417,419,417,421,421,420,421,418,421,419,421,421,421,417,419,419,420,418,421,419,420,421,419,421,419,419,420,418,419,417,417,419,421,421,417,417,417,419,418,421,421,418,420,420,420,418,418,419,421,418,420,421,419,421,421,418,417,421,417,420,420,417,421,420,417,417,420,421,421,418,420,419,420,421,417,417,420,420,421,417,418,417,417,420,417,420,417,421,420,419,417,418,421,417,421,418,419,421,421,419,420,421,418,417,418,419,417,420,418,417,421,421,417,419,419,418,420,420,420,417,421,420,420,421,418,419,420,417,418,419,417,419,417,421,420,417,417,419,421,417,418,421,420,418,417,419,418,420,419,420,420,418,
418,420,418,421,418,418,420,419,418,418,420,419,418,418,421,421,419,420,418,420,418,421,421,418,419,418,417,417,417,420,418,417,420,417,418,421,418,421,419,421,421,418,418,419,421,421,418,418,417,417,417,421,417,420,421,420,419,417,417,421,417,418,418,417,419,421,417,420,420,418,421,417,417,420,420,421,420,420,421,417,421,419,420,419,419,420,417,420,420,417,418,418,420,417,421,419,418,421,421,420,417,417,417,418,420,419,421,421,421,417,420,419,417,421,417,420,418,417,421,420,417,419,418,419,417,418,417,420,417,420,419,418,417,417,419,419,421,419,418,421,418,419,418,419,417,419,418,417,419,419,418,421,417,420,421,419,420,421,421,418,420,421,419,419,418,419,421,417,421,421,421,418,418,418,420,417,418,420,418,420,421,420,419,418,421,421,420,417,419,421,420,420,420,417,419,421,417,421,421,417,418,421,419,419,419,419,417,417,420,417,421,421,421,417,421,418,419,417,420,418,417,418,421,420,419,417,421,418,419,420,421,421,420,417,417,419,420,420,417,420,418,420,420,419,419,420,420,418,419,420,421,418,420,418,420,421,417,417,421,417,418,417,418,421,418,419,421,420,419,420,419,418,417,418,418,418,417,421,420,417,418,417,418,421,417,418,420,420,419,419,419,418,420,421,418,421,420,417,419,421,
417,419,420,418,418,420,420,419,421,419,419,418,418,421,418,418,418,419,420,417,417,417,417,419,417,419,419,420,419,420,418,420,418,417,419,420,420,419,419,419,421,418,419,421,418,419,421,419,421,419,420,419,418,421,417,420,420,419,417,419,419,420,420,417,419,420,418,419,421,418,418,420,421,420,418,418,418,417,421,419,417,420,421,420,418,417,417,420,419,419,419,417,417,417,417,417,417,418,417,421,419,419,421,417,418,421,421,418,420,421,420,419,419,418,421,419,417,420,421,417,420,418,417,421,419,419,417,421,420,419,417,419,421,419,420,419,420,417,420,417,420,418,420,419,419,421,419,419,418,418,421,418,420,421,421,419,417,419,419,418,418,418,421,419,417,419,418,417,417,420,418,421,417,418,420,419,418,418,420,418,419,420,420,418,419,421,417,417,417,420,421,417,417,417,417,418,421,418,419,421,420,420,419,417,417,419,417,421,421,420,420,417,419,418,418,418,419,419,417,421,420,421,421,417,417,420,419,420,419,421,418,417,421,421,417,418,421,419,418,419,418,419,421,421,420,417,421,420,418,421,418,419,420,417,417,418,417,418,419,420,419,420,421,419,420,421,420,417,420,417,418,421,419,420,418,418,419,420,418,417,420,418,421,421,419,417,417,419,417,420,419,421,420,417,417,417,420,420,421,420,
420,420,420,418,420,418,417,419,418,417,421,421,418,420,420,421,421,417,417,421,420,417,417,419,417,417,418,420,421,421,418,419,421,420,417,417,421,419,418,421,418,419,421,420,420,421,419,419,420,419,419,421,417,420,419,418,419,420,421,419,417,417,418,419,420,420,421,418,420,419,420,419,419,420,421,417,417,418,421,417,421,418,418,418,419,417,417,417,418,418,417,419,419,418,418,419,420,418,417,421,417,419,421,420,421,421,420,418,420,419,421,420,419,418,419,420,420,418,418,421,419,421,420,419,421,417,420,420,417,421,418,421,418,418,421,420,418,418,421,421,417,420,419,421,421,420,419,420,420,419,418,421,418,420,420,418,418,421,420,420,418,419,421,419,418,418,418,419,419,421,418,421,420,417,420,419,417,421,421,418,417,417,421,421,419,420,420,417,420,418,419,417,420,420,417,419,420,420,421,418,418,419,420,418,421,419,418,421,419,419,420,419,420,418,419,420,420,420,421,417,421,420,418,418,418,419,420,420,417,417,417,417,418,417,417,419,420,419,420,421,420,420,419,421,420,417,420,420,420,418,417,420,418,417,420,418,417,421,418,420,419,418,420,419,419,417,418,417,417,417,417,420,420,421,419,418,419,419,418,420,417,421,417,418,420,417,418,417,421,420,418,421,421,419,419,417,417,419,418,418,
419,419,420,419,420,420,417,420,420,417,418,417,421,421,420,419,421,419,418,418,417,419,420,417,417,419,419,419,421,420,417,421,418,420,419,417,417,419,417,419,421,418,418,417,421,417,420,418,419,421,421,417,418,421,418,418,417,421,419,419,418,418,419,417,420,418,418,419,418,417,421,419,418,420,418,418,420,417,419,417,417,417,419,420,418,420,420,419,417,417,420,421,417,417,418,421,418,421,421,421,418,417,417,419,419,417,420,420,419,419,419,421,421,419,418,421,417,419,419,419,421,420,417,417,419,421,420,421,420,419,417,418,419,421,418,417,421,418,417,421,418,418,418,419,420,420,420,417,420,421,421,418,420,420,418,419,419,418,419,419,419,417,417,418,420,420,420,420,420,419,421,417,417,418,420,417,417,417,420,421,417,417,419,421,419,418,421,420,419,417,419,420,419,417,419,420,417,418,421,418,417,419,420,417,417,421,421,418,418,421,418,419,421,421,418,417,420,418,420,420,421,418,418,419,418,421,417,418,418,420,420,420,417,417,420,417,419,419,421,418,419,420,418,419,418,419,421,421,417,419,419,418,420,419,418,417,420,421,418,419,417,418,419,420,418,419,419,421,420,418,419,419,419,418,418,419,419,421,420,420,419,421,418,418,419,420,421,421,418,417,419,418,418,417,420,419,421,421,421,421,
418,420,420,419,421,417,419,419,419,418,420,420,421,418,421,420,417,418,418,417,417,419,418,420,421,420,417,418,419,417,417,421,417,420,420,421,418,421,420,420,421,419,417,418,418,418,419,417,418,418,418,419,417,418,417,421,420,419,418,421,421,419,420,419,421,417,417,419,417,417,418,418,417,421,418,419,421,418,421,419,421,417,419,418,419,420,418,421,417,417,421,418,420,420,418,418,421,418,421,419,420,420,417,418,420,417,420,421,418,417,418,421,421,421,417,418,417,418,418,421,417,419,417,418,419,419,417,418,417,418,417,421,419,418,419,421,420,420,417,417,418,420,421,420,420,417,418,420,419,419,419,417,421,418,417,420,417,418,420,421,421,419,420,421,419,419,419,417,421,421,420,418,420,417,419,421,420,420,419,419,417,419,421,420,421,419,417,420,420,421,420,418,417,417,421,419,417,420,419,417,419,418,421,421,417,419,418,419,420,418,421,420,420,420,420,420,419,421,421,420,418,419,420,420,419,420,421,418,419,420,417,417,421,419,419,418,417,419,421,417,417,421,419,417,419,420,417,417,417,421,420,418,420,419,419,419,421,419,417,420,421,421,418,417,421,419,419,418,419,420,421,421,417,420,421,421,417,417,419,418,420,418,419,420,418,418,418,421,419,418,421,420,421,421,421,419,419,420,421,419,
417,418,418,420,421,418,419,420,420,419,421,418,417,420,418,418,421,418,420,417,418,420,421,419,418,417,417,418,419,417,421,420,421,420,417,421,418,417,421,417,420,418,420,419,421,418,420,421,420,418,418,417,417,421,417,419,421,420,420,418,419,420,417,420,418,418,419,419,417,421,420,420,421,417,420,421,420,420,421,417,420,417,417,417,418,420,420,421,421,418,420,418,421,420,417,418,421,418,420,419,420,418,419,417,419,420,417,421,419,420,419,419,419,421,418,418,417,418,417,417,417,420,419,417,419,418,417,421,418,420,417,418,418,417,419,417,420,421,418,418,419,418,418,420,419,417,419,417,420,417,420,417,418,421,421,421,417,420,421,417,419,420,419,418,418,418,420,419,421,419,417,418,418,417,421,421,418,417,417,418,420,420,418,420,421,420,417,421,417,417,420,421,417,418,419,419,420,417,418,421,417,421,421,420,420,421,421,418,421,417,418,417,418,419,421,419,417,420,418,421,419,419,421,418,418,421,417,418,421,418,420,421,419,420,419,420,421,419,418,419,421,421,417,419,421,419,421,419,419,419,417,419,417,419,418,418,419,419,420,419,419,419,421,417,420,421,418,417,417,421,417,417,417,418,418,418,421,418,421,417,418,418,418,420,418,420,417,417,420,421,418,419,421,419,419,421,421,418,418,421,
421,419,417,417,419,420,419,420,420,420,417,418,421,417,417,417,420,420,417,418,421,418,419,417,417,421,419,417,421,420,417,417,421,419,419,421,420,417,417,419,419,419,420,418,418,417,417,420,418,420,417,420,417,420,421,418,417,418,419,420,417,421,421,417,421,420,420,421,420,418,420,419,418,417,418,421,421,417,421,421,420,420,418,417,417,417,421,421,419,420,421,421,420,419,421,417,419,419,418,421,420,418,418,418,420,420,417,418,419,417,420,420,420,421,419,417,418,421,419,421,421,421,421,419,421,421,417,419,421,418,419,421,417,421,417,420,418,421,420,420,420,421,419,420,420,419,417,418,420,420,417,419,419,419,417,419,421,419,419,417,420,420,418,417,419,417,417,421,418,420,419,418,421,421,417,421,420,419,417,421,420,418,421,420,421,419,420,420,421,419,418,421,417,417,420,420,417,419,420,418,419,417,419,417,420,420,418,420,420,420,420,419,417,418,421,419,420,421,419,420,418,417,417,420,418,419,419,420,421,418,420,417,417,421,420,420,420,421,419,418,421,417,418,419,417,420,417,421,419,420,418,417,420,421,421,421,417,418,418,418,420,418,418,421,419,420,417,421,420,418,419,420,421,421,421,417,418,419,421,418,421,420,417,418,421,418,418,419,421,417,420,417,419,420,420,420,418,417,421,421,
420,418,419,419,421,421,417,419,419,421,419,421,419,419,417,417,421,421,420,421,418,421,418,418,418,417,417,417,418,418,419,420,421,419,421,421,419,420,421,417,417,419,420,418,421,419,420,418,420,417,420,418,421,419,418,421,419,421,421,417,418,420,419,421,417,421,417,420,418,417,421,419,418,419,421,419,418,418,418,417,418,420,418,417,418,421,417,417,421,421,419,421,419,418,421,419,421,417,421,418,421,417,419,418,417,417,418,419,418,419,420,421,421,418,417,417,420,420,421,421,420,417,421,418,418,417,417,421,419,419,418,419,419,421,421,419,418,417,420,420,420,421,421,418,421,421,417,418,419,421,420,421,420,417,419,417,420,417,417,419,420,421,419,420,420,421,418,418,419,420,420,417,420,419,419,417,418,421,418,420,421,418,419,421,417,420,420,418,417,418,419,420,419,421,417,419,421,417,417,418,421,417,421,418,417,421,418,421,421,418,420,420,418,419,421,421,421,418,421,420,420,419,420,420,419,420,421,420,418,419,420,418,418,420,418,419,421,418,417,418,421,420,419,418,420,417,419,421,419,419,418,417,418,419,421,421,420,419,417,420,419,421,421,419,417,420,418,420,419,420,417,418,421,417,418,420,417,419,419,421,417,419,417,417,418,417,417,417,417,421,419,418,421,417,421,420,421,421,417,419,
417,417,421,419,420,417,421,421,421,420,417,419,421,417,417,417,420,420,419,417,420,417,421,419,420,417,418,421,419,421,418,418,419,418,420,417,417,420,421,417,418,418,421,417,421,421,421,418,418,417,417,418,419,421,418,421,421,421,418,419,419,419,420,417,420,420,418,419,418,417,417,418,421,421,420,419,417,421,417,421,417,421,420,421,417,419,417,418,419,417,417,421,420,420,419,417,417,421,420,420,420,417,420,418,420,419,417,417,419,417,419,419,420,421,419,421,418,421,420,421,420,419,417,418,420,420,419,419,418,420,417,419,420,419,421,419,421,418,419,420,421,421,421,419,417,419,419,417,421,421,420,421,418,419,421,421,417,419,420,420,419,421,420,420,418,421,421,421,418,419,419,421,420,420,421,420,418,421,419,420,418,420,421,419,419,419,419,419,417,418,421,420,421,417,419,418,421,421,420,419,419,417,417,418,421,417,421,419,419,420,420,420,417,420,420,421,421,417,417,420,417,418,417,419,417,418,417,420,420,420,421,417,421,417,421,419,420,420,418,421,417,421,420,421,420,417,421,419,420,418,418,417,417,417,419,421,421,420,420,420,419,420,418,419,418,420,417,418,418,419,418,417,419,421,418,418,420,418,418,419,421,421,420,418,417,419,419,420,418,417,420,421,417,418,420,419,420,421,421,418,
417,419,418,417,418,419,419,421,419,417,417,418,419,418,418,417,420,420,418,418,417,420,418,418,419,421,417,418,419,418,421,419,421,420,419,417,418,419,418,420,419,420,417,419,419,419,419,419,418,417,420,419,421,421,420,419,418,420,418,419,417,418,421,418,417,419,418,420,418,420,421,417,420,417,421,418,421,420,420,418,417,417,420,419,418,419,417,418,418,418,417,421,420,417,417,419,419,417,420,419,418,417,417,418,418,420,421,421,418,419,417,417,421,419,420,420,419,418,418,417,419,420,420,418,418,418,417,421,418,421,419,420,418,420,418,421,420,418,417,418,418,418,421,417,417,418,417,419,421,419,421,419,417,421,419,419,420,420,421,417,418,418,418,421,418,420,420,421,419,421,419,418,420,421,417,418,417,419,417,419,419,421,418,418,421,419,421,417,421,419,420,419,419,417,420,419,420,421,418,418,417,417,417,421,418,418,418,418,421,421,421,421,417,419,419,418,420,418,418,419,419,417,421,419,420,417,419,421,419,421,421,419,421,421,417,417,418,418,419,421,420,419,418,421,417,417,419,421,420,419,419,421,419,420,420,418,417,419,418,417,421,420,418,421,421,418,418,421,419,421,417,420,418,418,421,417,418,418,419,420,419,420,421,417,421,420,421,420,417,419,420,417,420,418,417,418,419,420,417,420,
417,420,420,419,417,420,420,417,417,418,420,420,418,420,420,419,419,417,419,418,419,421,421,421,420,418,418,419,418,421,419,417,420,419,420,419,420,418,421,420,417,419,421,419,419,420,420,418,418,417,417,418,417,419,421,418,419,420,418,419,417,418,417,418,421,421,420,420,420,417,418,418,420,419,419,421,419,418,418,421,418,420,421,420,418,420,417,420,421,421,418,418,418,420,421,421,417,421,419,418,419,417,417,420,419,419,417,417,417,421,417,418,419,417,421,421,418,421,418,419,420,417,421,419,420,418,421,417,418,421,421,418,417,421,420,417,419,419,418,419,420,418,418,418,420,417,421,421,417,421,418,418,419,417,418,418,420,418,417,420,421,418,417,417,419,417,421,419,421,419,418,420,420,419,417,420,419,418,421,420,421,420,420,421,420,419,419,417,417,420,417,419,419,419,418,419,419,418,418,419,421,418,417,418,421,420,418,418,421,418,417,419,421,419,421,421,421,417,418,419,419,420,420,421,421,419,419,421,420,418,419,421,421,420,417,420,419,420,419,420,418,418,420,419,419,417,419,417,417,418,418,419,418,419,420,417,421,420,418,420,418,417,419,420,419,419,420,418,420,419,419,421,419,417,420,417,417,419,420,418,418,418,419,420,421,421,417,418,420,419,420,421,420,420,421,418,420,417,420,417,
421,418,417,420,421,420,418,421,420,421,417,417,417,421,417,418,417,420,420,419,418,421,417,417,419,420,419,421,420,421,417,419,418,421,418,421,418,421,419,420,420,420,417,421,417,420,419,419,419,419,419,419,420,421,420,419,420,417,418,420,420,419,418,417,419,419,418,419,417,421,419,417,418,417,419,421,419,420,421,417,420,418,419,418,418,420,420,419,417,417,417,421,421,421,421,419,419,419,417,421,417,421,420,421,421,418,418,420,420,418,421,418,420,420,417,419,417,417,420,418,421,418,420,417,421,418,421,417,417,417,420,417,418,417,417,417,421,421,419,418,418,421,421,420,418,418,418,418,417,418,419,421,419,420,418,419,417,420,418,421,421,419,417,420,420,418,418,419,420,419,418,418,417,417,421,418,417,421,421,418,420,417,419,417,418,421,418,419,418,421,420,419,420,418,419,420,421,421,418,420,418,419,418,420,418,418,418,420,420,417,420,420,417,421,420,417,419,418,421,421,418,421,421,421,420,420,420,421,421,421,420,421,417,421,417,417,417,418,420,421,418,421,420,419,417,421,420,418,421,418,419,419,421,421,419,417,419,420,417,417,417,420,421,420,421,420,420,419,418,419,419,417,418,417,419,418,418,421,417,420,418,418,421,417,421,417,417,419,420,419,419,421,421,417,417,418,421,421,417,417,
417,418,419,420,420,419,420,418,417,418,421,418,420,417,418,420,420,417,419,420,418,417,418,420,417,417,421,420,420,420,418,420,420,419,419,418,419,421,419,417,421,421,417,421,420,417,420,420,418,419,419,418,420,421,418,421,420,418,418,421,417,418,417,419,418,420,419,417,417,421,420,421,419,419,420,421,418,420,420,419,417,417,419,421,420,421,420,417,418,417,421,419,421,417,420,418,417,419,420,417,420,418,417,418,418,418,417,420,419,417,420,417,420,419,418,420,418,421,420,417,421,421,418,419,417,418,417,419,420,420,421,420,420,421,421,418,418,421,421,418,419,417,421,421,420,418,417,420,420,417,419,419,417,418,419,419,421,421,418,419,417,420,421,421,420,419,419,421,418,420,418,421,421,420,419,418,421,421,417,420,420,421,421,417,420,420,417,417,418,418,417,419,421,420,417,418,417,421,421,420,417,418,420,418,418,419,419,417,419,420,420,417,420,418,418,420,419,418,418,417,419,418,417,419,417,418,421,418,419,419,418,419,418,419,418,421,419,418,419,420,420,417,419,420,419,418,419,420,418,421,419,420,417,419,421,418,421,420,421,418,417,419,419,417,417,421,418,418,417,420,419,420,419,421,417,420,421,419,417,419,417,420,420,419,420,417,421,418,420,421,418,419,421,420,418,418,418,418,420,417,
421,421,419,418,419,420,417,417,417,419,421,419,417,421,421,419,420,418,417,418,421,419,417,417,421,420,421,420,419,420,417,418,417,418,419,417,418,417,418,417,418,419,418,417,417,420,420,417,421,421,420,420,418,417,421,420,417,417,417,419,417,421,418,421,418,417,418,418,421,421,420,421,420,417,417,421,420,420,421,421,421,419,419,419,418,420,417,420,417,417,419,421,420,417,418,420,421,420,418,417,420,421,417,419,417,420,419,417,417,419,421,418,420,421,418,417,417,417,420,418,419,420,417,417,421,421,419,421,418,418,420,419,417,418,418,419,420,421,418,420,420,418,417,421,421,417,418,421,417,421,420,418,419,419,419,421,421,421,417,421,417,421,420,421,418,420,420,417,419,418,420,419,418,419,420,420,418,417,420,419,417,421,419,419,417,420,420,421,418,421,418,420,419,421,419,421,420,417,417,421,419,420,417,420,420,421,421,420,418,419,418,417,419,421,420,420,418,418,417,421,420,420,420,420,421,418,419,420,418,417,419,419,417,418,418,417,417,421,419,421,418,418,421,420,420,417,420,417,419,421,418,420,417,419,421,418,420,420,417,421,417,417,418,421,419,418,417,417,417,418,419,419,417,418,419,419,419,418,417,420,421,417,417,418,419,417,420,418,420,418,420,420,419,420,421,420,421,418,420,418,
420,421,417,421,421,418,421,420,417,420,418,418,418,419,417,417,421,417,417,418,417,418,420,418,417,419,420,421,421,417,419,421,420,421,417,419,420,420,420,419,420,417,417,419,417,418,418,420,421,418,418,417,420,418,418,420,417,419,419,420,419,420,418,418,421,420,421,421,418,420,421,417,419,420,420,418,419,420,421,420,421,417,419,417,421,417,419,421,419,417,419,417,420,421,420,417,421,421,418,420,417,420,419,419,417,418,420,420,420,417,419,417,417,418,418,419,420,417,421,420,420,417,421,418,421,419,419,418,417,417,417,420,419,420,420,420,421,421,417,419,419,421,421,420,419,418,417,418,417,421,421,417,421,418,420,420,418,421,419,417,417,421,419,420,417,421,420,420,418,417,421,421,417,419,418,417,417,419,421,417,420,420,420,418,420,417,418,421,419,417,421,417,417,419,418,420,421,421,417,421,418,420,418,421,419,421,417,417,420,420,419,420,420,417,421,421,417,421,419,421,419,420,418,418,417,418,421,417,418,417,417,420,420,417,417,417,419,419,421,417,419,421,419,419,420,417,420,417,419,421,419,419,420,418,418,419,420,418,417,418,419,419,420,420,419,417,419,420,418,420,421,420,418,418,421,419,421,417,420,420,418,418,421,419,417,418,418,417,420,419,420,417,417,421,418,417,418,418,420,418,
417,420,419,419,418,417,421,419,421,418,421,418,419,421,418,418,421,419,421,421,417,418,420,419,421,417,417,417,420,418,419,417,420,421,420,421,419,419,418,420,420,417,419,419,421,421,419,421,420,421,421,421,421,420,417,418,419,419,417,417,418,417,419,421,417,417,417,420,418,418,418,417,418,421,417,418,420,417,420,418,420,421,421,419,417,417,418,421,418,421,418,419,417,417,417,417,421,420,420,419,419,420,417,420,419,419,421,421,420,417,417,418,420,421,417,417,421,417,418,417,419,419,418,419,420,417,418,417,421,418,421,418,418,421,420,421,419,419,417,420,421,417,421,420,420,421,421,419,421,419,420,419,421,420,419,421,417,420,419,418,419,417,417,418,419,421,420,418,418,418,419,421,420,420,421,419,419,417,420,419,417,417,421,420,418,418,418,418,419,419,420,419,420,420,421,420,420,418,419,421,417,417,420,419,419,418,419,417,418,418,419,421,419,420,420,418,417,419,419,421,418,418,417,418,418,421,419,420,419,417,419,417,417,417,418,420,420,417,420,417,419,420,420,421,417,417,418,419,420,419,417,419,417,417,418,420,419,417,417,421,419,420,419,420,421,421,421,421,418,419,418,420,417,417,420,418,418,420,421,419,421,417,418,418,417,419,420,417,418,421,421,421,420,421,420,419,417,421,419,420,
421,417,417,418,421,421,417,419,417,418,421,417,417,417,417,419,417,419,421,421,418,419,417,421,418,419,419,420,420,419,417,420,419,417,421,418,419,420,418,421,420,421,417,419,418,419,421,421,421,419,421,417,419,418,420,421,420,420,421,419,419,418,418,419,417,420,420,420,419,418,417,421,417,421,419,418,419,418,417,421,418,418,421,417,417,421,420,417,421,420,420,417,419,419,419,417,417,420,418,418,421,418,417,420,417,421,421,419,421,420,420,418,418,418,419,421,417,420,420,420,420,419,419,421,420,421,417,421,418,418,421,417,419,419,417,420,418,421,417,418,420,418,418,421,417,421,419,418,419,418,419,418,417,418,421,418,420,420,419,417,420,420,421,421,417,417,417,419,420,418,417,421,419,421,417,419,417,421,418,418,418,417,419,417,419,417,418,418,419,420,420,420,418,418,417,420,417,420,417,419,418,417,419,419,419,420,420,421,418,420,421,420,417,421,418,417,419,420,421,421,421,419,419,421,418,419,420,421,417,417,420,417,419,421,420,419,421,417,420,418,417,419,421,417,418,417,418,421,419,418,419,420,417,420,420,421,421,420,421,421,419,421,420,417,418,421,419,421,419,418,420,417,420,419,418,421,417,421,417,420,419,418,417,417,418,417,421,421,420,417,419,421,420,421,417,417,421,421,418,421
</data>
 </layer>
 <layer id="1" name="Tile Layer 1" width="300" height="18">
  <data encoding="csv">
76,77,76,77,78,76,75,75,78,77,76,77,77,76,75,78,77,75,77,75,77,75,76,78,77,77,75,78,76,75,76,76,78,78,77,78,75,76,76,75,76,75,75,78,77,77,77,78,76,77,78,75,76,78,76,77,76,77,76,75,76,76,76,76,77,78,75,76,76,75,76,78,76,77,76,76,78,75,77,77,78,76,77,78,78,78,78,75,75,75,76,78,76,75,76,76,76,78,75,75,75,76,75,78,77,78,75,76,75,78,78,76,76,75,78,75,78,76,75,77,78,77,77,77,76,75,78,77,75,76,77,77,77,77,75,76,75,78,77,78,76,75,76,77,77,75,75,78,75,78,78,77,75,77,77,78,75,78,77,76,75,77,77,76,78,77,75,76,75,77,76,77,75,76,77,78,77,77,78,76,78,78,78,77,78,77,76,78,75,77,77,76,77,75,78,76,78,75,75,75,78,78,76,75,76,75,75,75,76,75,77,77,75,78,78,78,77,77,78,76,75,77,75,78,75,77,77,76,75,75,77,77,76,75,76,77,78,77,78,78,77,75,78,76,78,78,76,76,76,78,78,75,76,78,77,76,75,75,78,75,76,78,75,77,78,78,75,78,77,76,76,75,77,77,75,75,77,76,76,75,77,77,75,76,78,75,77,75,78,78,78,76,78,78,78,75,77,78,75,76,
150,149,150,149,148,150,147,150,150,150,147,147,148,148,149,147,150,148,147,149,147,148,149,147,148,148,149,149,147,147,148,147,148,150,148,147,149,148,149,150,149,149,147,149,148,149,150,149,148,150,150,149,148,149,147,150,150,148,147,150,148,149,147,147,149,150,149,150,147,148,150,147,149,147,149,150,150,147,148,150,147,149,149,150,148,150,149,148,148,149,149,149,147,150,148,147,148,149,150,149,148,148,149,148,149,147,150,147,150,150,149,148,150,147,149,150,148,150,148,149,148,148,147,149,148,150,148,147,148,148,149,150,149,150,147,150,150,150,150,147,148,150,149,149,149,148,150,150,147,148,149,147,148,150,148,147,150,148,150,147,148,147,150,148,149,149,148,148,149,149,150,149,148,148,149,150,149,150,147,150,147,150,147,148,149,148,147,148,150,148,149,149,150,147,147,147,150,148,148,147,147,147,150,147,147,150,150,148,148,148,149,148,148,148,148,149,149,147,147,149,149,149,149,147,147,150,150,148,147,148,148,148,148,147,148,148,148,150,148,150,150,147,148,149,148,147,150,147,148,150,150,147,149,148,149,147,148,148,148,149,148,150,147,147,147,150,150,147,149,150,148,149,149,150,147,147,149,147,147,148,147,150,150,149,148,149,149,150,150,148,150,147,150,150,150,147,147,149,147,150,
0,0,0,0,0,0,0,0,0,0,0,0,0,75,76,77,0,0,0,373,0,0,0,0,1610613491,78,75,77,0,0,0,0,0,0,0,0,0,0,0,0,0,0,0,0,0,0,0,0,0,1610613491,77,78,78,0,0,0,0,0,0,0,0,0,77,77,77,77,77,0,0,0,0,0,77,76,75,3221226226,3221226229,3221226227,3221226226,0,0,0,0,0,0,0,0,0,0,0,0,0,0,0,0,0,0,0,0,0,0,0,0,75,76,76,0,0,0,373,0,0,0,0,0,0,0,0,0,0,0,77,75,76,0,0,0,0,0,0,0,0,0,0,0,0,0,0,0,0,0,0,0,0,0,0,0,0,0,0,0,0,0,0,0,0,0,0,0,0,0,0,0,0,0,0,0,0,0,0,0,0,77,75,75,0,0,0,0,0,75,76,75,0,0,0,0,0,0,0,0,0,0,0,0,0,0,0,0,1610613492,76,78,77,0,0,0,0,0,0,0,0,0,3221226227,3221226225,3221226224,3221226225,0,0,0,0,0,0,0,0,0,0,0,0,0,0,0,0,0,0,0,0,0,0,0,0,0,0,0,0,0,0,0,0,0,0,0,0,0,0,0,0,0,0,0,0,0,0,0,0,0,0,0,0,77,77,78,0,0,0,0,0,0,0,0,0,0,0,0,0,0,0,0,0,0,0,0,0,0,0,0,0,0,0,0,0,
0,0,0,0,0,0,0,0,0,0,0,0,0,148,149,150,0,0,0,409,0,0,0,0,1610613492,148,76,75,0,0,0,0,0,0,0,0,0,0,0,0,0,0,0,0,0,0,0,0,0,1610613490,147,76,149,0,0,0,0,0,0,0,0,0,3221226227,3221226228,3221226226,3221226228,3221226227,0,0,0,0,0,147,76,78,0,0,0,0,0,0,0,0,0,0,0,0,0,0,0,0,0,0,0,0,0,0,0,0,0,0,0,0,76,76,76,0,0,0,409,0,0,0,0,0,0,0,0,0,0,0,773,774,775,0,0,0,0,0,0,0,0,0,0,0,0,0,0,0,0,0,0,0,0,0,0,0,0,0,0,0,0,0,0,0,0,0,0,0,0,0,0,0,0,0,0,0,0,0,0,0,0,77,77,76,0,0,0,0,0,77,76,77,0,0,0,0,0,0,0,0,0,0,0,0,0,0,0,0,1610613488,76,75,78,0,0,0,0,0,0,0,0,0,0,0,0,0,0,0,0,0,0,0,0,0,0,0,0,0,0,0,0,0,0,0,0,0,0,0,0,0,0,0,0,0,0,0,0,0,0,0,0,0,0,0,0,0,0,0,0,0,0,0,0,0,0,0,0,0,76,78,77,0,0,0,0,0,0,0,0,0,0,0,0,0,0,0,0,0,0,0,0,0,0,0,0,0,0,0,0,0,
0,0,0,0,0,0,0,0,0,0,0,0,0,773,774,775,0,0,0,0,0,0,0,0,1610613490,77,77,442,0,0,0,0,0,0,0,0,0,0,0,0,0,0,0,0,0,0,0,0,0,1610613489,77,78,78,0,0,0,0,0,0,0,0,0,0,0,0,0,0,0,0,0,0,0,77,77,76,0,0,0,0,0,0,0,0,0,0,0,0,0,0,0,0,0,0,0,0,0,0,0,0,0,0,0,0,78,77,76,0,0,0,0,0,0,0,0,0,0,0,0,0,0,0,0,0,0,0,0,0,0,0,0,0,0,0,0,0,0,0,0,0,0,0,0,0,0,0,0,0,0,0,0,0,0,0,0,0,0,0,0,0,0,0,0,0,0,0,0,0,0,0,0,0,0,773,774,775,0,0,0,0,0,75,77,76,0,0,0,0,0,0,0,0,0,0,0,0,0,0,0,0,1610613490,76,77,76,0,0,0,0,0,0,0,0,0,0,0,0,0,0,0,0,0,0,0,0,0,0,0,0,0,0,0,0,0,0,0,0,0,0,0,0,0,0,0,0,0,0,0,0,0,0,0,0,0,0,0,0,0,0,0,0,0,0,0,0,0,0,0,0,0,773,774,775,0,0,0,0,0,0,0,0,0,0,0,0,0,0,0,0,0,0,0,0,0,0,0,0,0,0,0,0,0,
0,0,0,0,0,0,0,0,0,0,0,0,0,0,0,0,0,0,0,0,0,0,0,0,1610613490,150,150,77,0,0,0,0,0,0,0,0,0,0,0,0,0,0,0,0,0,0,0,0,0,1610613489,75,149,77,0,0,0,0,0,0,0,0,0,0,0,0,0,0,0,0,0,0,0,148,78,77,0,0,0,0,0,0,0,0,0,0,0,0,0,0,0,0,0,0,0,0,0,0,0,0,0,0,0,0,78,76,77,0,0,0,0,0,0,0,0,0,0,0,0,0,0,0,0,0,0,0,0,0,0,0,0,0,0,0,0,0,0,0,0,0,0,0,0,0,0,0,0,0,0,0,0,0,0,0,0,0,0,0,0,0,0,0,0,0,0,0,0,0,0,0,0,0,0,0,0,0,0,0,0,0,0,76,78,76,0,0,0,0,78,77,0,0,0,0,78,76,76,0,0,0,1610613491,78,76,78,0,0,0,0,0,0,0,77,78,0,0,0,0,0,0,0,0,0,0,0,0,0,0,0,0,0,0,0,0,0,0,0,0,0,0,0,0,0,0,0,0,0,0,0,0,0,0,0,0,0,0,0,0,0,0,0,0,0,0,0,0,0,0,0,0,0,0,0,0,0,0,0,0,0,0,0,1610613490,77,78,0,0,0,0,0,0,0,0,0,0,0,0,0,0,0,0,0,0,
0,0,0,0,0,0,0,0,0,0,0,0,0,0,0,0,0,0,0,0,0,0,0,0,1610613492,78,442,77,0,0,0,0,0,0,0,0,0,0,0,0,0,0,0,0,0,0,0,0,0,1610613492,147,76,75,0,0,0,0,0,0,0,0,0,0,0,0,0,0,0,0,0,0,0,76,149,75,82,84,84,86,76,78,0,0,0,0,0,0,0,0,0,0,0,0,0,0,0,0,0,0,0,0,0,0,77,75,78,0,0,0,0,0,0,0,0,0,0,0,0,77,77,0,0,0,0,0,78,76,0,0,0,0,0,0,0,0,0,0,0,0,0,0,0,0,0,0,0,0,0,0,0,0,0,0,0,0,0,0,0,0,0,0,0,0,0,0,0,0,0,0,0,0,0,0,0,0,0,0,0,0,0,75,76,76,0,0,0,0,77,78,0,0,0,0,78,148,149,0,0,0,1610613492,78,75,75,0,0,0,0,0,0,0,75,75,0,0,0,0,77,78,0,0,0,0,0,0,0,0,0,0,0,0,0,0,0,0,0,0,0,0,0,0,0,0,0,0,0,0,0,0,1610613490,75,82,86,75,2684355315,0,0,0,0,0,0,0,0,0,0,0,0,0,0,0,0,0,0,0,0,0,0,0,0,0,1610613492,76,76,0,0,0,0,0,0,0,0,0,1610613490,150,147,0,0,0,0,0,0,
0,0,0,0,0,0,0,0,0,0,0,0,0,0,0,0,0,0,0,0,0,0,0,0,1610613490,148,75,150,0,0,0,0,0,0,0,0,0,0,0,0,754,754,755,756,0,0,0,0,0,1610613491,76,76,150,0,0,0,0,0,0,0,0,0,0,0,0,0,0,0,0,0,0,0,77,77,77,0,0,0,0,149,147,0,0,0,0,0,0,0,0,0,0,0,0,0,0,3221226247,3221226246,3221226245,0,0,0,0,0,0,0,0,0,0,0,0,0,0,0,0,0,0,0,0,78,77,0,0,0,0,0,77,77,0,0,0,0,0,0,0,0,0,0,0,0,0,0,0,0,0,0,0,0,0,0,0,1610613491,76,77,0,0,0,0,0,0,1610613489,75,75,2684355315,0,0,0,0,0,0,77,75,0,0,0,0,0,0,0,0,0,77,75,76,0,0,0,0,0,0,0,755,755,0,78,150,150,2684355314,0,0,1610613488,77,76,77,0,0,77,75,2684355315,0,0,0,0,0,0,0,0,75,75,0,0,0,0,0,0,0,0,0,0,0,0,0,0,0,0,0,0,0,0,0,77,75,0,0,0,0,0,0,0,1610613491,76,0,0,78,2684355314,0,0,0,0,0,0,0,0,0,0,0,75,75,0,0,0,0,0,76,77,0,0,0,0,0,1610613491,78,77,0,0,0,0,0,0,0,0,0,1610613491,150,150,0,0,0,0,0,0,
0,0,0,0,0,0,0,0,0,0,0,0,0,0,0,0,0,0,0,0,0,0,0,0,1610613492,75,75,148,0,0,0,0,0,0,0,0,1610613490,75,77,0,148,148,149,147,0,77,76,0,0,1610613491,150,78,75,0,0,0,0,0,0,1610613489,77,77,0,0,0,0,0,75,77,0,0,0,3221226225,3221226227,3221226228,0,0,0,0,77,78,0,0,0,0,1610613489,76,2684355316,0,0,0,1610613490,77,77,0,149,78,148,0,148,75,0,0,0,0,0,0,0,0,0,0,0,0,0,0,0,0,0,373,0,0,0,0,0,0,0,373,0,0,0,0,0,0,0,0,0,0,0,0,0,0,0,0,0,0,0,0,0,0,0,1610613490,77,76,0,0,0,0,0,0,1610613489,77,76,2684355317,0,0,0,0,0,0,77,78,0,0,0,0,0,75,78,0,0,78,76,78,0,0,0,0,0,0,0,147,148,0,150,75,149,2684355317,0,0,1610613488,76,78,76,0,0,78,77,0,0,0,0,0,0,0,0,0,0,0,0,0,150,78,76,0,0,0,0,0,0,0,0,0,0,0,0,0,0,0,0,78,77,0,0,0,0,0,0,0,1610613490,78,0,0,76,2684355314,0,0,0,0,0,1610613492,77,75,2684355316,0,0,78,78,0,0,0,0,0,77,78,0,0,0,0,0,1610613490,76,75,0,0,0,0,0,0,0,0,0,1610613491,149,148,0,0,0,0,0,0,
0,0,0,0,0,0,0,0,0,148,149,150,0,0,0,0,0,147,147,148,0,0,0,0,0,773,774,775,0,0,0,0,0,0,0,0,1610613490,76,75,0,148,147,150,147,0,76,75,0,0,1610613490,77,149,150,0,0,0,0,0,0,1610613493,77,77,0,0,0,0,1610613491,77,76,0,0,0,0,0,0,0,245,246,0,76,148,0,0,0,0,1610613489,77,2684355313,0,0,0,1610613491,76,76,0,78,147,78,0,75,75,0,0,0,0,0,0,0,0,0,0,0,0,755,0,0,755,0,409,0,0,0,0,0,0,0,409,0,0,0,0,0,0,0,1610613493,78,78,77,2684355314,0,0,0,0,0,0,0,0,0,0,0,0,0,0,0,0,0,0,0,0,1610613493,77,76,2684355312,0,0,0,0,0,0,0,0,0,0,0,0,0,75,78,0,0,77,77,76,0,78,78,0,0,0,0,0,0,0,148,77,150,2684355314,0,0,1610613493,75,78,76,0,0,0,0,0,0,0,0,0,0,0,0,0,0,0,0,0,78,75,148,0,0,0,0,0,0,0,0,0,0,0,0,0,0,0,0,0,373,0,0,0,0,0,0,0,1610613491,77,0,0,77,2684355315,0,0,0,0,0,1610613490,78,78,2684355316,0,0,0,0,0,0,0,0,0,0,0,0,0,76,75,75,0,0,0,0,0,0,0,0,0,0,0,0,1610613490,147,150,0,0,0,0,0,0,
0,0,0,0,0,0,0,0,0,148,149,149,0,0,0,0,0,149,148,147,0,0,0,0,0,0,0,0,0,0,0,0,0,0,0,0,0,0,0,0,0,0,0,0,0,0,0,0,0,0,773,774,775,0,0,0,0,0,0,0,0,0,0,0,0,0,0,0,0,0,0,0,0,0,0,0,281,282,0,76,78,0,0,0,0,1610613490,78,2684355315,0,0,0,0,0,0,0,0,0,0,0,0,0,0,0,0,0,0,0,0,0,0,1610613491,442,75,442,77,442,75,0,0,0,0,3221226247,3221226246,3221226245,0,0,0,0,0,755,0,0,0,0,1610613492,149,77,150,2684355314,0,0,0,0,0,0,1610613489,78,76,0,0,0,0,0,0,0,0,76,75,0,0,0,0,0,0,77,78,0,0,0,0,0,0,0,0,0,0,0,0,0,0,75,77,75,0,75,77,0,0,0,0,0,0,0,76,75,78,2684355313,0,0,1610613493,77,76,76,0,0,0,0,0,0,0,0,0,0,0,0,0,0,0,0,0,78,150,75,0,0,0,0,0,0,0,0,0,0,0,0,76,75,0,0,0,409,0,0,0,0,78,77,0,1610613492,78,0,0,78,2684355314,0,0,0,0,0,1610613490,75,78,2684355314,0,0,0,0,0,0,0,0,0,0,0,0,0,77,75,76,0,0,0,0,75,76,0,0,0,0,75,78,0,0,0,0,222,219,219,222,221,
219,220,221,222,221,0,0,0,0,149,148,148,0,0,0,0,0,147,150,148,0,0,0,0,0,0,0,0,0,0,0,1610613490,78,77,0,0,0,0,0,0,0,0,0,0,0,0,0,0,0,0,0,0,0,0,0,1610613489,77,77,0,0,0,0,0,0,0,0,0,0,0,0,0,0,0,0,0,0,150,76,76,78,148,0,0,78,75,0,0,0,75,76,0,0,0,0,0,0,0,0,0,0,0,0,0,150,150,148,0,0,0,0,1610613491,75,442,442,442,75,442,0,0,0,0,147,148,149,0,0,0,0,0,75,75,75,0,0,1610613491,77,76,150,2684355314,0,0,0,0,0,0,1610613492,77,77,0,0,0,0,0,0,0,0,75,75,0,0,0,0,0,0,77,77,0,0,0,0,0,0,0,0,0,0,0,0,0,0,0,0,0,0,0,0,0,0,0,0,0,0,0,78,76,76,2684355317,0,0,0,75,78,77,0,0,0,0,0,0,76,75,0,0,0,0,0,0,0,0,0,147,78,75,0,0,0,0,0,0,0,0,0,0,0,0,77,77,0,0,0,0,0,0,0,0,78,78,0,1610613491,76,0,0,75,2684355315,0,0,0,0,0,1610613490,77,78,2684355314,0,0,0,0,0,0,0,0,0,0,0,0,0,0,0,0,0,0,0,0,77,77,0,0,0,0,75,75,0,0,0,0,150,148,147,148,147,
147,148,150,147,149,0,0,0,0,0,0,0,0,0,0,0,0,0,0,0,0,0,0,0,0,0,0,0,0,0,0,1610613491,75,77,0,0,0,0,0,0,0,0,0,0,0,0,0,0,0,0,0,0,0,0,0,1610613490,77,77,0,0,0,0,0,0,0,0,0,0,0,0,0,0,0,0,0,0,76,150,78,149,150,0,0,76,75,0,0,0,77,76,0,0,0,0,0,0,0,0,0,0,0,0,0,148,148,149,0,0,0,0,0,0,0,0,0,0,0,0,0,0,0,0,0,0,0,0,0,0,0,76,77,76,0,0,1610613490,76,149,75,2684355314,0,0,0,0,0,0,0,0,0,0,0,0,0,0,0,0,0,0,0,0,0,0,0,0,0,0,0,0,0,0,0,0,0,0,0,0,0,0,0,0,0,0,0,0,0,0,0,0,0,0,0,0,0,0,75,76,75,2684355314,0,0,0,0,0,0,0,0,0,0,0,0,76,78,0,0,0,0,0,0,0,0,0,77,75,77,0,0,0,0,0,0,0,0,0,0,0,0,0,0,0,0,0,0,0,0,0,0,0,0,0,1610613491,78,0,0,76,2684355315,0,0,77,76,78,0,0,0,0,0,0,0,0,0,0,0,0,0,0,0,0,0,0,0,0,0,0,0,0,0,0,0,0,0,0,0,0,0,0,0,0,147,149,149,149,147,
147,150,150,148,149,0,0,0,0,0,0,0,0,0,0,0,0,0,0,0,0,0,0,0,0,0,370,0,0,0,0,0,0,0,0,0,0,0,0,0,0,0,0,0,0,0,0,0,0,0,0,0,0,0,0,0,0,0,0,0,0,0,0,0,0,0,0,0,0,0,0,0,82,84,86,0,0,0,0,0,0,0,0,0,0,0,0,0,0,0,0,0,0,0,0,0,0,0,0,0,0,0,0,148,148,148,0,0,75,75,0,0,0,0,0,0,0,0,0,0,0,0,0,0,0,0,0,0,0,0,0,0,0,0,1610613492,77,78,77,2684355315,0,0,77,75,0,0,0,0,0,0,0,0,0,0,0,0,0,0,0,0,0,0,0,0,0,0,0,0,0,0,0,0,0,0,0,0,0,0,0,0,0,0,0,0,0,0,0,0,78,76,0,0,0,0,77,77,150,2684355313,0,0,0,0,0,0,0,0,75,76,0,0,0,0,0,0,0,0,0,0,0,0,0,76,77,77,0,755,0,0,754,756,754,756,0,0,754,0,0,0,0,0,0,0,0,0,0,0,0,0,0,1610613490,78,0,0,75,2684355315,0,0,75,76,78,0,0,0,0,0,0,0,0,0,0,0,0,0,0,0,0,0,0,0,0,0,0,0,0,0,0,0,0,0,0,0,0,0,0,0,0,148,147,149,149,149,
147,147,148,150,149,0,0,0,0,0,0,0,0,0,0,0,0,0,0,0,0,0,0,0,82,84,84,84,86,0,0,0,0,0,0,0,0,0,0,0,0,0,0,0,0,0,0,0,0,0,0,0,0,0,0,0,0,0,0,0,0,0,0,0,0,0,0,0,0,0,0,0,0,0,0,0,0,0,0,0,0,0,0,0,0,0,0,0,0,0,0,0,0,0,0,0,0,0,0,0,0,0,0,148,148,149,0,0,76,442,0,0,0,0,0,0,0,0,0,0,0,0,0,0,0,0,0,0,0,0,0,0,0,0,1610613493,77,149,75,2684355317,0,0,75,78,0,0,0,0,0,0,0,0,0,0,0,0,0,0,0,0,0,0,0,0,0,0,0,0,0,0,0,0,0,0,0,0,0,0,0,0,0,82,84,86,0,0,0,0,75,75,0,0,0,0,147,75,77,2684355317,0,0,0,0,0,0,0,0,75,78,0,0,0,0,0,0,0,0,0,0,0,0,0,75,149,76,0,76,76,77,75,76,76,77,76,76,77,0,0,0,0,0,0,0,0,0,0,0,0,0,0,0,0,0,0,0,0,0,0,0,0,0,0,0,0,0,0,0,0,0,0,0,0,0,0,0,0,0,0,0,0,0,0,0,0,0,0,0,0,0,0,0,0,0,0,0,0,0,147,149,147,149,147,
149,148,150,150,147,0,0,0,0,0,0,0,0,0,0,0,0,0,0,0,0,0,0,0,0,0,0,0,0,0,0,0,0,0,0,0,0,0,0,0,0,0,0,0,0,0,0,0,0,82,84,84,84,86,0,0,0,0,0,0,0,0,0,0,0,0,0,0,0,0,0,0,0,0,0,0,0,0,0,0,0,0,0,0,0,0,0,0,0,0,0,0,0,0,0,0,0,0,0,0,0,0,0,148,147,147,0,0,0,0,0,0,0,0,0,0,0,0,0,0,0,0,0,0,0,0,0,0,0,0,0,0,0,0,1610613491,78,77,147,2684355315,0,0,0,0,0,0,0,0,0,0,0,0,0,0,0,0,0,0,0,0,0,0,0,0,0,0,0,0,0,0,0,0,0,0,0,0,0,0,0,0,0,0,0,0,0,0,0,0,0,0,0,0,0,0,76,75,78,2684355313,0,0,0,0,0,0,0,0,0,0,0,0,0,0,0,0,0,0,0,0,0,0,0,150,78,147,0,78,77,77,78,78,78,75,78,76,78,0,0,0,0,0,0,0,0,0,0,0,0,0,0,0,0,0,0,0,0,0,0,0,0,0,0,0,0,0,0,0,0,0,0,0,0,0,0,0,0,0,0,0,0,0,0,0,0,0,0,0,0,0,0,0,0,0,0,0,0,0,147,149,148,147,147,
147,148,150,147,147,0,0,0,0,0,0,0,0,0,0,0,0,0,0,0,0,0,0,0,0,0,0,0,0,0,0,0,0,0,0,0,0,0,0,0,0,0,0,0,0,0,0,0,0,0,0,0,0,0,0,0,0,0,0,0,0,0,0,0,0,0,0,0,0,0,0,0,0,0,0,0,0,0,0,0,0,0,0,0,0,0,0,0,0,0,0,0,0,0,0,0,0,0,0,0,0,0,0,149,149,148,0,0,0,0,0,0,0,0,0,0,0,0,0,0,0,0,0,0,0,0,0,0,0,0,0,0,0,0,1610613491,75,150,149,2684355314,0,0,0,0,0,0,0,0,0,0,0,0,0,0,0,0,0,0,0,0,0,0,0,0,0,0,0,0,0,0,0,0,0,0,0,0,0,0,0,0,0,0,0,0,0,0,0,0,0,0,0,0,0,0,76,148,147,2684355315,0,0,0,82,84,86,0,0,0,0,0,0,0,0,0,0,0,0,0,0,0,0,0,75,78,77,0,0,0,0,0,0,0,0,0,0,0,0,0,0,0,0,0,0,0,0,0,0,0,0,0,0,0,82,84,84,84,86,0,0,0,0,0,0,0,0,0,0,0,0,0,0,0,0,0,0,0,0,0,0,0,0,0,0,0,0,0,0,0,0,0,0,0,0,0,0,0,0,148,148,147,149,148,
147,149,147,148,147,752,752,753,754,755,756,757,756,755,755,752,757,756,757,756,754,753,755,756,755,752,754,752,756,757,757,754,755,752,754,754,756,754,754,752,756,754,756,754,753,754,752,756,757,756,756,755,756,752,752,757,756,756,755,755,755,756,757,752,752,757,756,753,755,752,754,755,753,755,755,754,752,753,752,752,754,754,753,752,755,752,754,754,754,752,757,756,754,757,752,753,757,753,757,753,756,756,754,147,148,147,755,755,754,752,756,753,755,753,757,756,752,754,757,755,753,753,755,757,753,753,753,756,752,757,752,752,752,752,757,78,77,78,752,754,752,755,753,754,755,753,755,755,757,752,753,757,752,752,756,753,752,757,753,755,753,757,755,752,757,756,752,757,752,753,754,757,757,752,752,755,756,755,756,754,753,752,757,752,752,754,756,753,756,755,754,755,755,76,75,76,752,752,752,754,753,752,752,756,753,756,756,757,752,756,753,756,757,754,756,753,755,754,755,752,78,77,149,754,756,756,752,755,753,753,752,756,756,753,757,753,754,757,754,757,756,756,754,756,756,757,757,757,754,753,754,755,753,757,752,756,752,756,755,756,756,752,752,753,753,755,753,754,755,754,753,752,753,757,757,754,753,755,752,756,756,752,754,754,756,756,756,754,753,753,756,752,755,754,757,147,148,148,148,149
</data>
 </layer>
 <objectgroup id="4" name="spawn and goal">
  <object id="1" name="spawn" x="17" y="130" width="16" height="32"/>
  <object id="2" name="goal" x="4756" y="123" width="32" height="32"/>
 </objectgroup>
</map>
