<?xml version="1.0" encoding="UTF-8"?>
<map version="1.10" tiledversion="1.12.1" orientation="orthogonal" renderorder="left-up" width="300" height="18" tilewidth="16" tileheight="16" infinite="0" nextlayerid="9" nextobjectid="9">
 <tileset firstgid="1" source="../Assets/Tilesets/Tiles.tsx"/>
 <layer id="2" name="Background" width="300" height="18">
  <data encoding="csv">
24,25,24,25,24,25,84,85,86,87,88,84,85,86,87,88,84,85,86,87,88,84,85,86,87,88,84,85,86,87,84,85,86,87,88,87,88,84,85,86,87,88,84,85,86,87,88,84,85,86,87,88,84,85,86,87,88,84,85,86,87,88,84,85,86,87,88,84,85,86,87,88,84,85,86,87,88,84,85,86,87,88,84,85,86,87,88,84,85,86,87,88,84,85,86,87,88,84,85,86,87,88,84,85,86,87,88,84,85,86,87,88,84,85,86,87,88,84,85,86,87,88,84,85,86,87,88,84,85,86,87,88,84,85,86,87,88,84,85,86,87,88,84,85,86,87,88,84,85,18,18,18,18,18,18,18,18,18,18,18,18,18,18,18,18,18,18,18,18,18,18,18,18,18,18,18,18,18,18,18,18,18,18,18,18,18,18,18,18,18,18,18,18,18,18,18,18,18,18,18,18,18,18,18,18,18,18,18,18,18,18,18,18,18,18,18,18,18,18,18,18,18,18,18,18,18,18,18,18,18,18,18,18,18,18,18,18,18,18,18,18,18,18,18,18,18,18,18,18,18,18,18,18,18,18,18,18,18,18,18,18,18,18,18,18,18,18,18,18,18,18,18,18,18,18,18,18,18,18,18,18,18,18,18,18,18,18,18,18,18,18,18,18,18,18,18,18,18,18,19,
39,40,39,40,39,40,84,85,86,87,88,84,85,86,87,88,84,85,86,87,84,85,86,87,88,84,99,100,101,102,99,100,101,102,103,102,103,99,100,101,102,103,99,100,101,102,103,99,100,101,102,103,99,100,101,102,103,99,100,101,102,103,99,100,101,102,103,99,100,101,102,103,99,100,101,102,103,99,100,101,102,103,99,100,101,102,103,99,100,101,102,103,99,100,101,102,103,99,100,101,102,103,99,100,101,102,103,99,100,101,102,103,99,100,101,102,103,99,100,101,102,103,99,100,101,102,103,99,100,101,102,103,99,100,101,102,103,99,100,101,102,103,99,100,101,102,103,99,33,33,33,33,33,33,33,33,33,33,33,33,33,33,33,33,33,33,33,33,33,33,33,33,33,33,33,33,33,33,33,33,33,33,33,33,33,33,33,33,33,33,33,33,33,33,33,33,33,33,33,33,33,33,33,33,33,33,33,33,33,33,33,33,33,33,33,33,33,33,33,33,33,33,33,33,33,33,33,33,33,33,33,33,33,33,33,33,33,33,33,33,33,33,33,33,33,33,33,33,33,33,33,33,33,33,33,33,33,33,33,33,33,33,33,33,33,33,33,33,33,33,33,33,33,33,33,33,33,33,33,33,33,33,33,33,33,33,33,33,33,33,33,33,33,33,33,33,33,33,33,34,
54,55,54,55,54,55,99,100,101,102,103,99,100,101,102,103,99,100,101,102,99,100,101,102,103,99,114,115,116,117,114,115,116,117,118,117,118,114,115,116,117,118,114,115,116,117,118,114,115,116,117,118,114,115,116,117,118,114,115,116,117,118,114,115,116,117,118,114,115,116,117,118,114,115,116,117,118,114,115,116,117,118,114,115,116,117,118,114,115,116,117,118,114,115,116,117,118,114,115,116,117,118,114,115,116,117,118,114,115,116,117,118,114,115,116,117,118,114,115,116,117,118,114,115,116,117,118,114,115,116,117,118,114,115,116,117,118,114,115,116,117,118,114,115,116,117,118,114,47,47,47,47,47,47,47,47,47,47,47,47,47,47,47,47,47,47,47,47,47,47,47,47,47,47,47,47,47,47,47,47,47,47,47,47,47,47,47,47,47,47,47,47,47,47,47,47,47,47,47,47,47,47,47,47,47,47,47,47,47,47,47,47,47,47,47,47,47,47,47,47,47,47,47,47,47,47,47,47,47,47,47,47,47,47,47,47,47,47,47,47,47,47,47,47,47,47,47,47,47,47,47,47,47,47,47,47,47,47,47,47,47,47,47,47,47,47,47,47,47,47,47,47,47,47,47,47,47,47,47,47,47,47,47,47,47,47,47,47,47,47,47,47,47,47,47,47,47,47,47,49,
69,70,69,70,69,70,114,115,116,117,118,114,115,116,117,118,114,115,116,117,114,115,116,117,118,114,115,116,117,118,114,115,116,117,118,87,88,84,85,86,87,88,84,85,86,87,88,84,85,86,87,88,84,85,86,87,88,84,85,86,87,88,84,85,86,87,88,84,85,86,87,88,84,85,86,87,88,84,85,86,87,88,84,85,86,87,88,84,85,86,87,88,84,85,86,87,26,27,28,86,87,88,84,85,86,87,88,84,85,86,87,88,84,85,86,87,88,84,85,86,87,88,84,85,86,87,88,84,85,86,87,88,84,85,86,87,26,27,28,86,87,88,84,85,86,87,88,84,85,86,99,70,70,24,69,40,40,84,54,39,39,85,54,39,85,54,55,54,39,25,40,24,100,85,99,100,70,115,85,40,70,100,115,114,24,39,24,100,25,24,25,55,55,115,54,85,85,54,114,100,24,25,70,85,39,114,114,115,54,54,40,70,114,84,55,114,55,40,39,39,40,25,115,24,69,40,85,24,69,24,69,84,115,54,70,54,114,114,85,70,115,115,24,114,100,85,54,55,55,25,99,25,114,115,70,40,24,100,100,55,115,85,39,55,55,25,39,24,55,25,25,115,54,54,99,99,115,114,25,24,54,114,99,115,25,70,39,84,99,24,70,114,25,70,115,69,100,24,100,100,
84,26,27,28,84,85,26,27,28,28,28,26,27,28,28,28,26,27,28,28,28,26,27,28,101,102,26,27,28,101,102,26,27,28,101,102,26,27,28,101,102,26,27,28,101,102,26,27,28,101,102,26,27,28,101,102,26,27,28,101,102,26,27,28,101,102,26,27,28,101,102,26,27,28,101,102,26,27,28,101,102,26,27,28,101,102,26,27,28,101,102,26,27,28,101,102,26,27,28,101,102,26,27,28,101,102,26,27,28,101,102,26,27,28,101,102,26,27,28,101,102,26,27,28,101,102,26,27,28,101,102,26,27,28,101,102,26,27,28,101,102,26,27,28,101,102,26,27,28,101,25,26,27,28,115,25,24,25,26,27,28,85,39,25,25,26,27,28,39,69,85,25,26,27,28,85,114,100,25,26,27,28,115,70,114,25,26,27,28,54,55,69,25,26,27,28,54,69,115,25,26,27,28,25,99,24,25,26,27,28,54,70,24,25,26,27,28,25,114,25,25,26,27,28,39,39,114,25,26,27,28,25,54,114,25,26,27,28,85,100,99,25,26,27,28,24,40,84,25,26,27,28,24,84,85,25,26,27,28,40,54,55,25,26,27,28,70,39,69,25,26,27,28,99,54,24,25,26,27,28,114,100,99,25,26,27,28,85,85,25,25,26,27,28,24,84,85,25,26,27,
99,41,42,43,99,100,41,42,43,43,43,41,42,43,43,43,41,42,43,43,43,41,42,43,116,117,41,42,43,116,117,41,42,43,116,117,41,42,43,116,117,41,42,43,116,117,41,42,43,116,117,41,42,43,116,117,41,42,43,116,117,41,42,43,116,117,41,42,43,116,117,41,42,43,116,117,41,42,43,116,117,41,42,43,116,117,41,42,43,116,117,41,42,43,116,117,41,42,43,116,117,41,42,43,116,117,41,42,43,116,117,41,42,43,116,117,41,42,43,116,117,41,42,43,116,117,41,42,43,116,117,41,42,43,116,117,41,42,43,116,117,41,42,43,116,117,41,42,43,116,40,41,42,43,69,54,54,40,41,42,43,84,114,54,40,41,42,43,115,55,99,40,41,42,43,54,85,115,40,41,42,43,99,24,99,40,41,42,43,84,55,54,40,41,42,43,114,100,40,40,41,42,43,84,115,99,40,41,42,43,99,24,55,40,41,42,43,99,114,69,40,41,42,43,115,39,39,40,41,42,43,100,54,114,40,41,42,43,85,99,39,40,41,42,43,99,85,85,40,41,42,43,85,85,84,40,41,42,43,70,114,84,40,41,42,43,70,70,115,40,41,42,43,115,85,115,40,41,42,43,115,100,114,40,41,42,43,84,115,70,40,41,42,43,54,70,69,40,41,42,
114,56,57,58,114,115,56,57,58,58,58,56,57,58,58,58,56,57,58,58,58,56,57,58,86,87,56,57,58,86,87,56,57,58,86,87,56,57,58,86,87,56,57,58,86,87,56,57,58,86,87,56,57,58,86,87,56,57,58,86,87,56,57,58,86,87,56,57,58,86,87,56,57,58,86,87,56,57,58,86,87,56,57,58,86,87,56,57,58,86,87,56,57,58,86,87,56,57,58,86,87,56,57,58,86,87,56,57,58,86,87,56,57,58,86,87,56,57,58,86,87,56,57,58,86,87,56,57,58,86,87,56,57,58,86,87,56,57,58,86,87,56,57,58,86,87,56,57,58,86,55,56,57,58,85,99,24,55,56,57,58,85,70,84,55,56,57,58,69,39,99,55,56,57,58,100,24,54,55,56,57,58,85,40,40,55,56,57,58,70,84,24,55,56,57,58,70,69,85,55,56,57,58,54,69,54,55,56,57,58,39,40,115,55,56,57,58,40,115,114,55,56,57,58,25,114,70,55,56,57,58,70,114,70,55,56,57,58,69,40,115,55,56,57,58,115,54,99,55,56,57,58,99,69,70,55,56,57,58,85,100,69,55,56,57,58,55,55,69,55,56,57,58,69,115,84,55,56,57,58,70,70,99,55,56,57,58,69,84,115,55,56,57,58,39,54,69,55,56,57,
24,71,72,73,24,25,71,72,73,73,73,71,72,73,73,73,71,72,73,73,73,71,72,73,101,102,71,72,73,101,102,71,72,73,101,102,71,72,73,101,102,71,72,73,101,102,71,72,73,101,102,71,72,73,101,102,71,72,73,101,102,71,72,73,101,102,71,72,73,101,102,71,72,73,101,102,71,72,73,101,102,71,72,73,101,102,71,72,73,101,102,71,72,73,101,102,71,72,73,101,102,71,72,73,101,102,71,72,73,101,102,71,72,73,101,102,71,72,73,101,102,71,72,73,101,102,71,72,73,101,102,71,72,73,101,102,71,72,73,101,102,71,72,73,101,102,71,72,73,101,70,71,72,73,99,100,39,70,71,72,73,54,25,85,70,71,72,73,39,100,40,70,71,72,73,99,69,40,70,71,72,73,39,69,69,70,71,72,73,69,69,24,70,71,72,73,70,84,70,70,71,72,73,99,70,115,70,71,72,73,114,54,39,70,71,72,73,25,39,115,70,71,72,73,85,84,70,70,71,72,73,84,100,85,70,71,72,73,25,39,99,70,71,72,73,40,84,99,70,71,72,73,70,40,55,70,71,72,73,85,25,99,70,71,72,73,85,54,69,70,71,72,73,69,55,69,70,71,72,73,84,100,40,70,71,72,73,39,70,114,70,71,72,73,100,40,40,70,71,72,
39,86,87,88,39,40,86,87,88,28,28,86,87,88,28,28,86,87,88,28,28,86,87,88,116,117,86,87,88,116,117,86,87,88,116,117,86,87,88,116,117,86,87,88,116,117,86,87,88,116,117,86,87,88,116,117,86,87,88,116,117,86,87,88,116,117,86,87,88,116,117,86,87,88,116,117,86,87,88,116,117,86,87,88,116,117,86,87,88,116,117,86,87,88,116,117,86,87,88,116,117,86,87,88,116,117,86,87,88,116,117,86,87,88,116,117,86,87,88,116,117,86,87,88,116,117,86,87,88,116,117,86,87,88,116,117,86,87,88,116,117,86,87,88,116,117,86,87,88,116,85,86,87,88,39,25,115,85,86,87,88,54,69,55,85,86,87,88,70,70,54,85,86,87,88,70,100,114,85,86,87,88,84,84,39,85,86,87,88,69,54,115,85,86,87,88,25,40,100,85,86,87,88,24,99,114,85,86,87,88,69,39,70,85,86,87,88,40,115,69,85,86,87,88,70,114,99,85,86,87,88,99,54,100,85,86,87,88,40,25,100,85,86,87,88,84,24,55,85,86,87,88,40,40,69,85,86,87,88,69,70,69,85,86,87,88,84,39,40,85,86,87,88,85,84,84,85,86,87,88,114,39,24,85,86,87,88,85,85,25,85,86,87,88,114,85,40,85,86,87,
54,101,102,103,54,55,101,102,103,43,43,101,102,103,43,43,101,102,103,43,43,101,102,103,86,87,101,102,103,86,87,101,102,103,86,87,101,102,103,86,87,101,102,103,86,87,101,102,103,86,87,101,102,103,86,87,101,102,103,86,87,101,102,103,86,87,101,102,103,86,87,101,102,103,86,87,101,102,103,86,87,101,102,103,86,87,101,102,103,86,87,101,102,103,86,87,101,102,103,86,87,101,102,103,86,87,101,102,103,86,87,101,102,103,86,87,101,102,103,86,87,101,102,103,86,87,101,102,103,86,87,101,102,103,86,87,101,102,103,86,87,101,102,103,86,87,101,102,103,86,115,84,99,84,24,69,40,100,114,70,54,114,84,99,24,54,24,24,40,84,69,40,69,99,115,115,85,99,99,69,39,54,39,100,99,69,54,99,25,99,85,100,40,115,115,54,99,54,114,69,55,99,114,55,85,100,25,115,54,70,54,69,69,40,69,54,115,54,85,24,24,54,70,100,85,70,39,85,69,54,39,24,99,55,25,25,84,69,55,70,85,100,99,69,40,84,55,84,84,99,55,114,55,25,99,54,70,25,70,100,25,100,84,69,84,99,24,84,115,40,85,85,70,24,99,99,84,39,69,84,69,25,40,39,54,100,55,85,85,99,54,25,24,40,85,99,24,114,114,40,
69,116,117,118,69,70,116,117,118,58,58,116,117,118,58,58,116,117,118,58,58,116,117,118,101,102,116,117,118,101,102,116,117,118,101,102,116,117,118,101,102,116,117,118,101,102,116,117,118,101,102,116,117,118,101,102,116,117,118,101,102,116,117,118,101,102,116,117,118,101,102,116,117,118,101,102,116,117,118,101,102,116,117,118,101,102,116,117,118,101,102,116,117,118,101,102,116,117,118,101,102,116,117,118,101,102,116,117,118,101,102,116,117,118,101,102,116,117,118,101,102,116,117,118,101,102,116,117,118,101,102,116,117,118,101,102,116,117,118,101,102,116,117,118,101,102,116,117,118,101,84,24,69,25,99,70,115,85,24,55,84,25,69,25,39,99,84,115,100,55,99,115,55,40,85,39,25,40,85,69,69,84,100,24,25,114,55,115,24,114,54,99,69,115,24,115,70,39,69,100,70,70,54,85,25,115,70,84,69,85,100,55,25,54,84,24,70,99,99,70,69,100,85,24,85,70,100,54,84,40,55,39,85,84,114,39,39,84,69,40,84,99,39,40,70,114,85,70,84,25,39,69,39,39,84,115,69,25,25,69,84,55,24,40,114,100,99,54,55,85,54,70,39,85,55,85,70,55,55,114,54,115,54,100,54,25,115,115,24,25,99,85,100,25,85,69,99,115,24,25,
24,25,24,25,24,25,24,25,84,85,86,87,88,84,85,86,87,84,85,86,87,88,114,115,116,117,118,114,115,116,117,118,114,115,116,117,118,114,115,116,117,118,114,115,116,117,118,114,115,116,117,118,114,115,116,117,118,114,115,116,117,118,114,115,116,117,118,114,115,116,117,118,114,115,116,117,118,114,115,116,117,118,114,115,116,117,118,114,115,116,117,118,114,115,116,117,118,114,115,116,117,118,114,115,116,117,118,114,115,116,117,118,114,115,116,117,118,114,115,116,117,118,114,115,116,117,118,114,115,116,117,118,114,115,116,117,118,114,115,116,117,118,114,115,116,117,118,114,115,116,70,100,100,40,54,115,55,39,40,40,69,70,100,24,54,55,55,40,70,115,70,85,24,70,24,70,55,39,99,115,39,70,54,99,69,115,54,115,84,40,100,84,40,84,99,114,115,115,39,25,84,99,85,25,85,100,114,69,25,25,115,85,100,40,55,114,69,25,25,24,40,99,114,24,70,100,54,54,25,100,100,114,54,85,25,54,70,54,55,24,99,39,114,25,24,115,69,100,85,114,39,100,100,25,25,54,55,55,115,99,40,69,115,39,54,55,39,40,99,55,70,39,69,24,99,55,54,99,115,24,85,84,85,115,70,40,84,70,55,70,40,84,85,85,39,85,99,39,115,40,
39,40,39,40,39,40,39,40,99,100,101,102,103,99,100,101,102,99,100,101,102,103,84,85,86,87,88,84,85,86,87,88,84,85,86,87,88,84,85,86,87,88,84,85,86,87,88,84,85,86,87,88,84,85,86,87,88,84,85,86,87,88,84,85,86,87,88,84,85,86,87,88,84,85,86,87,88,84,85,86,87,88,84,85,86,87,88,84,85,86,87,88,84,85,86,87,88,84,85,86,87,88,84,85,86,87,88,84,85,86,87,88,84,85,86,87,88,84,85,86,87,88,84,85,86,87,88,84,85,86,87,88,84,85,86,87,88,84,85,86,87,88,84,85,86,87,88,84,85,86,99,85,84,99,70,100,85,70,115,70,70,39,84,69,69,69,55,99,54,24,70,39,39,54,40,114,84,114,24,55,99,55,99,24,39,84,114,70,25,99,40,69,39,40,40,115,24,24,115,85,54,99,40,40,54,84,55,115,39,100,54,114,39,55,114,85,54,40,24,40,25,100,70,55,39,100,54,115,24,114,40,115,54,55,54,40,24,114,69,25,24,70,99,54,85,25,99,55,70,55,55,85,55,39,99,84,84,99,39,100,70,25,40,115,70,54,70,55,85,39,99,114,114,99,24,100,85,40,70,69,115,24,114,39,54,40,100,70,84,115,70,54,84,25,100,115,84,55,40,54,
54,55,54,55,54,55,54,55,114,115,116,117,118,84,85,86,87,114,115,116,117,118,99,100,101,102,103,99,100,101,102,103,99,100,101,102,103,99,100,101,102,103,99,100,101,102,103,99,100,101,102,103,99,100,101,102,103,99,100,101,102,103,99,100,101,102,103,99,100,101,102,103,99,100,101,102,103,99,100,101,102,103,99,100,101,102,103,99,100,101,102,103,99,100,101,102,103,99,100,101,102,103,99,100,101,102,103,99,100,101,102,103,99,100,101,102,103,99,100,101,102,103,99,100,101,102,103,99,100,101,102,103,99,100,101,102,103,99,100,101,102,103,99,100,101,102,103,99,100,101,25,40,115,69,69,24,39,84,114,24,115,85,99,54,100,55,25,70,54,115,70,99,24,114,100,85,40,70,39,24,69,24,100,115,24,85,55,39,40,115,40,39,114,84,39,24,55,84,39,54,100,55,114,115,100,70,39,84,85,39,39,39,40,69,114,70,84,85,55,55,115,99,115,55,54,85,70,85,85,40,100,115,40,24,39,54,85,84,24,25,100,84,99,55,40,25,24,99,115,70,55,39,55,85,25,39,84,55,25,54,69,40,70,84,99,55,39,55,99,69,115,85,100,70,99,70,24,54,99,85,54,115,55,84,70,40,114,100,84,39,55,114,70,115,84,25,114,99,25,85,
69,70,69,70,69,70,69,70,84,85,86,87,88,99,100,101,102,84,85,86,87,88,114,115,116,117,118,114,115,116,117,118,114,115,116,117,118,114,115,116,117,118,114,115,116,117,118,114,115,116,117,118,114,115,116,117,118,114,115,116,117,118,114,115,116,117,118,114,115,116,117,118,114,115,116,117,118,114,115,116,117,118,114,115,116,117,118,114,115,116,117,118,114,115,116,117,118,114,115,116,117,118,114,115,116,117,118,114,115,116,117,118,114,115,116,117,118,114,115,116,117,118,114,115,116,117,118,114,115,116,117,118,114,115,116,117,118,114,115,116,117,118,114,115,116,117,118,114,115,116,39,85,40,115,69,40,99,39,115,115,100,55,40,70,100,25,25,84,115,55,69,55,40,70,54,100,54,84,54,99,69,25,40,69,55,39,69,54,55,40,24,69,55,115,84,54,54,40,69,114,69,24,99,100,55,39,115,100,25,100,69,39,84,69,114,69,69,40,100,55,39,55,115,40,84,25,115,70,39,100,85,115,115,99,85,39,70,85,39,55,85,39,39,85,100,55,55,70,25,69,69,24,99,100,69,55,55,114,25,70,100,25,114,85,100,114,69,115,55,54,70,40,114,25,25,85,99,114,69,70,25,69,85,25,99,55,84,70,54,40,25,100,39,54,99,99,54,25,99,84,
84,85,84,85,84,85,84,85,84,85,86,87,88,84,85,86,87,84,85,86,87,88,84,85,86,87,88,84,85,86,87,88,84,85,86,87,88,84,85,86,87,88,84,85,86,87,88,84,85,86,87,88,84,85,86,87,88,84,85,86,87,88,84,85,86,87,88,84,85,86,87,88,84,85,86,87,88,84,85,86,87,88,84,85,86,87,88,84,85,86,87,88,84,85,86,87,88,84,85,86,87,88,84,85,86,87,88,84,85,86,87,88,84,85,86,87,88,84,85,86,87,88,84,85,86,87,88,84,85,86,87,88,84,85,86,87,88,84,85,86,87,88,84,85,86,87,88,84,85,86,39,24,114,40,70,70,70,69,115,115,115,55,70,54,24,54,39,69,85,54,84,40,70,114,99,70,84,39,25,40,55,40,100,84,99,39,85,24,24,70,40,54,55,54,70,115,24,100,55,69,99,114,115,24,114,115,39,114,100,25,69,85,40,24,55,70,85,84,70,55,115,55,99,39,85,69,99,54,84,85,70,55,70,85,40,39,25,25,100,39,115,99,100,54,40,115,25,40,39,24,100,55,39,55,100,85,55,40,85,55,100,99,70,54,39,84,55,55,69,39,70,114,24,100,24,100,24,99,115,84,85,69,114,24,70,55,99,40,40,84,85,55,114,115,55,39,55,100,99,70,
99,100,99,100,99,100,99,100,99,100,101,102,103,99,100,101,102,99,100,101,102,103,99,100,101,102,103,99,100,101,102,103,99,100,101,102,103,99,100,101,102,103,99,100,101,102,103,99,100,101,102,103,99,100,101,102,103,99,100,101,102,103,99,100,101,102,103,99,100,101,102,103,99,100,101,102,103,99,100,101,102,103,99,100,101,102,103,99,100,101,102,103,99,100,101,102,103,99,100,101,102,103,99,100,101,102,103,99,100,101,102,103,99,100,101,102,103,99,100,101,102,103,99,100,101,102,103,99,100,101,102,103,99,100,101,102,103,99,100,101,102,103,99,100,101,102,103,99,100,101,84,100,99,70,40,55,39,84,55,69,69,69,84,100,24,114,24,115,69,84,40,114,55,39,99,114,115,115,54,40,85,115,40,115,69,54,24,54,24,24,85,115,39,25,40,25,114,84,24,115,84,69,99,24,69,115,99,69,69,25,69,114,70,39,84,114,99,84,39,99,54,40,100,40,55,24,70,70,69,100,99,55,85,55,85,39,114,69,85,24,70,70,99,99,85,84,40,40,99,114,84,55,85,69,40,100,69,25,39,55,115,24,99,54,40,99,24,39,70,40,40,99,100,54,55,85,40,39,54,39,84,54,24,40,54,85,24,69,114,40,55,100,70,24,25,54,39,84,40,54,
114,115,114,115,114,115,114,115,114,115,116,117,118,114,115,116,117,114,115,116,117,118,114,115,116,117,118,114,115,116,117,118,114,115,116,117,118,114,115,116,117,118,114,115,116,117,118,114,115,116,117,118,114,115,116,117,118,114,115,116,117,118,114,115,116,117,118,114,115,116,117,118,114,115,116,117,118,114,115,116,117,118,114,115,116,117,118,114,115,116,117,118,114,115,116,117,118,114,115,116,117,118,114,115,116,117,118,114,115,116,117,118,114,115,116,117,118,114,115,116,117,118,114,115,116,117,118,114,115,116,117,118,114,115,116,117,118,114,115,116,117,118,114,115,116,117,118,114,115,116,55,69,39,115,24,99,84,115,70,54,99,69,84,55,115,85,69,40,99,114,25,115,40,100,54,25,39,99,55,40,69,99,69,70,54,114,114,114,115,24,84,114,54,25,99,54,114,114,114,69,55,55,84,40,40,54,84,55,84,40,54,99,84,100,70,25,99,40,24,115,115,114,100,70,115,25,100,69,39,99,85,99,69,99,99,69,40,24,69,99,24,99,39,40,69,100,40,55,115,70,24,25,114,40,54,84,100,84,39,55,85,39,114,99,114,39,39,70,39,70,85,115,25,40,40,25,54,99,55,24,114,85,40,24,70,54,99,114,24,99,55,84,84,115,55,24,115,100,99,115
</data>
 </layer>
 <layer id="3" name="Walkable Tiles" width="300" height="18">
  <data encoding="csv">
19,19,19,19,19,19,19,19,19,19,19,19,19,19,19,19,19,19,19,19,19,19,19,19,19,19,19,19,19,19,19,19,19,19,19,19,19,19,19,19,19,19,19,19,19,19,19,19,19,19,19,19,19,19,19,19,19,19,19,19,19,19,19,19,19,19,19,19,19,19,19,19,19,19,19,19,19,19,19,19,19,19,19,19,19,19,19,19,19,19,19,19,19,19,19,19,19,19,19,19,19,19,19,19,19,19,19,19,19,19,19,19,19,19,19,19,19,19,19,19,19,19,19,19,19,19,19,19,19,19,19,19,19,19,19,19,19,19,19,19,19,19,19,19,19,19,19,19,19,19,0,0,0,0,0,0,0,0,0,0,0,0,0,0,0,0,0,0,0,0,0,0,0,0,0,0,0,0,0,0,0,0,0,0,0,0,0,0,0,0,0,0,0,0,0,0,0,0,0,0,0,0,0,0,0,0,0,0,0,0,0,0,0,0,0,0,0,0,0,0,0,0,0,0,0,0,0,0,0,0,0,0,0,0,0,0,0,0,0,0,0,0,0,0,0,0,0,0,0,0,0,0,0,0,0,0,0,0,0,0,0,0,0,0,0,0,0,0,0,0,0,0,0,0,0,0,0,0,0,0,0,0,0,0,0,0,0,0,0,0,0,0,0,0,0,0,0,0,0,0,
32,33,33,33,33,33,33,33,33,33,33,33,33,33,33,33,33,33,33,33,33,33,33,33,33,33,33,33,33,33,33,33,33,33,33,33,33,33,33,33,33,33,33,33,33,33,33,33,33,33,33,33,33,33,33,33,33,33,33,33,33,33,33,33,33,33,33,33,33,33,33,33,33,33,33,33,33,33,33,33,33,33,33,33,33,33,33,33,33,33,33,33,33,33,33,33,33,33,33,33,33,33,33,33,33,33,33,33,33,33,33,33,33,33,33,33,33,33,33,33,33,33,33,33,33,33,33,33,33,33,33,33,33,33,33,33,33,33,33,33,33,33,33,33,33,33,33,33,33,0,0,0,0,0,0,0,0,0,0,0,0,0,0,0,0,0,0,0,0,0,0,0,0,0,0,0,0,0,0,0,0,0,0,0,0,0,0,0,0,0,0,0,0,0,0,0,0,0,0,0,0,0,0,0,0,0,0,0,0,0,0,0,0,0,0,0,0,0,0,0,0,0,0,0,0,0,0,0,0,0,0,0,0,0,0,0,0,0,0,0,0,0,0,0,0,0,0,0,0,0,0,0,0,0,0,0,0,0,0,0,0,0,0,0,0,0,0,0,0,0,0,0,0,0,0,0,0,0,0,0,0,0,0,0,0,0,0,0,0,0,0,0,0,0,0,0,0,0,0,0,
48,47,47,47,47,47,47,47,47,47,47,47,47,47,47,47,47,47,47,47,47,47,47,47,47,47,47,47,47,47,47,47,47,47,47,47,47,47,47,47,47,47,47,47,47,47,47,47,47,47,47,47,47,47,47,47,47,47,47,47,47,47,47,47,47,47,47,47,47,47,47,47,47,47,47,47,47,47,47,47,47,47,47,47,47,47,47,47,47,47,47,47,47,47,47,47,47,47,47,47,47,47,47,47,47,47,47,47,47,47,47,47,47,47,47,47,47,47,47,47,47,47,47,47,47,47,47,47,47,47,47,47,47,47,47,47,47,47,47,47,47,47,47,47,47,47,47,47,47,49,0,0,0,0,0,0,0,0,0,0,0,0,0,0,0,0,0,0,0,0,0,0,0,0,0,0,0,0,0,0,0,0,0,0,0,0,0,0,0,0,0,0,0,0,0,0,0,0,0,0,0,0,0,0,0,0,0,0,0,0,0,0,0,0,0,0,0,0,0,0,0,0,0,0,33,0,0,0,0,0,0,0,0,0,0,0,0,0,0,0,0,33,0,0,0,0,0,0,0,0,0,0,0,0,0,0,0,33,0,0,0,0,0,0,0,0,0,0,0,0,0,0,0,0,33,0,0,0,0,0,0,0,0,0,0,0,0,0,0,0,0,0,0,0,0,0,0,0,0,0,
0,0,0,0,0,0,0,0,0,0,0,0,0,0,0,0,0,17,18,19,0,0,0,0,17,18,19,17,18,19,18,18,18,0,0,0,0,0,0,0,0,17,18,19,17,18,18,18,19,0,0,0,0,0,0,0,0,0,17,18,19,17,18,17,18,0,0,0,0,0,17,18,19,0,0,0,0,0,0,0,17,18,19,18,18,18,0,0,0,0,0,0,0,0,17,18,19,0,0,0,0,0,0,0,0,0,0,0,0,0,0,0,0,0,17,18,19,0,0,0,0,0,0,0,0,32,33,33,33,34,0,0,0,0,0,0,0,0,0,0,0,0,0,0,0,0,0,0,0,0,0,0,0,0,0,0,0,0,0,0,0,17,18,19,0,0,0,0,0,0,0,0,0,0,0,0,0,0,0,0,17,18,19,0,0,0,0,0,0,0,0,0,0,0,0,0,0,0,0,17,18,19,0,0,0,0,0,0,0,0,0,0,0,0,0,0,0,0,0,0,0,0,0,32,33,34,0,0,0,0,0,0,0,0,0,0,0,0,0,0,32,33,34,0,0,0,0,0,0,0,0,0,0,0,0,1610612952,32,33,34,0,0,0,0,0,0,0,0,0,0,0,0,0,0,32,33,34,0,0,0,0,0,0,0,0,0,0,0,0,0,0,0,0,0,0,0,0,0,0,0,0,
0,0,0,0,0,0,0,0,0,0,0,0,0,0,0,0,0,32,33,34,0,0,0,0,32,33,34,32,33,34,18,18,18,0,0,0,0,0,0,0,0,32,33,34,32,93,93,93,34,0,0,0,0,0,0,0,0,0,32,33,34,32,33,33,34,0,0,0,0,0,32,33,34,0,0,0,0,0,0,0,32,33,34,0,0,0,0,0,0,0,0,0,0,0,32,33,34,0,0,0,0,0,0,0,0,0,0,0,0,0,0,0,0,0,32,33,34,0,0,0,0,0,0,0,0,48,47,47,47,49,0,0,0,0,0,0,0,0,0,0,0,0,0,0,0,0,0,0,0,0,0,0,0,0,0,0,0,0,0,0,0,32,33,34,0,0,0,0,0,0,0,0,0,0,0,0,0,0,0,0,32,33,34,0,0,0,0,0,0,0,0,0,0,0,0,0,0,0,0,32,33,34,0,0,0,0,0,0,0,0,0,0,0,0,0,0,0,0,0,0,0,0,0,32,33,34,0,0,0,0,0,0,0,0,0,0,0,0,0,0,32,33,34,0,0,0,0,0,0,0,0,0,0,0,0,1610612951,32,33,34,0,0,0,0,0,0,0,0,0,0,0,0,0,0,32,33,34,0,0,0,0,0,0,0,0,0,0,0,0,0,0,0,0,0,0,0,0,0,0,0,0,
0,0,0,0,0,0,0,0,0,0,0,0,0,0,0,0,0,32,33,34,0,0,0,0,48,47,49,48,47,49,0,0,0,0,0,0,0,0,0,0,0,32,33,34,32,93,93,93,34,0,0,0,0,0,0,0,0,0,32,33,34,32,33,34,19,0,0,0,0,0,32,33,34,0,0,0,0,0,0,0,48,47,49,0,0,0,0,0,0,0,0,0,0,0,32,33,34,0,0,0,0,0,0,0,0,0,0,0,0,0,0,0,0,0,32,33,34,0,0,0,0,0,0,0,0,3221225685,3221225684,3221225685,3221225685,3221225684,0,0,0,0,0,0,0,0,0,0,0,0,0,0,0,0,0,0,0,0,0,0,0,0,0,0,0,0,0,0,0,32,33,34,0,0,0,0,0,0,0,0,0,0,0,0,0,0,0,0,32,33,34,0,0,0,0,0,0,0,0,0,0,0,0,0,0,0,0,32,33,34,0,0,0,0,0,0,0,0,0,0,0,0,0,0,0,0,0,0,0,0,0,32,33,34,0,0,0,0,0,0,0,0,0,0,0,0,0,0,48,47,49,0,0,0,0,0,0,0,0,0,0,0,0,1610612952,32,33,34,0,0,0,0,0,0,0,0,0,0,0,0,0,0,32,33,34,0,0,0,0,0,0,0,0,0,0,0,0,0,0,0,0,0,0,0,0,0,0,0,0,
0,0,0,0,0,0,0,0,0,0,0,0,0,0,0,0,0,32,33,34,0,0,0,0,0,0,0,0,0,0,0,0,0,0,0,0,0,0,0,0,0,32,33,34,48,47,47,47,49,0,0,0,0,0,0,0,0,0,32,33,34,48,47,49,0,0,0,0,0,0,32,33,34,0,0,0,0,0,0,0,0,0,0,0,0,0,0,0,0,0,0,0,0,0,32,33,34,0,0,0,0,0,0,0,0,0,0,77,78,79,0,0,0,0,32,33,34,0,0,0,0,0,0,0,0,0,0,0,0,0,0,0,0,0,0,0,0,0,0,0,0,0,0,0,0,0,0,0,0,0,0,0,0,0,0,0,0,0,0,0,0,32,33,34,0,0,0,0,0,0,0,0,0,0,0,0,0,0,0,0,32,33,34,0,0,0,0,77,79,0,0,0,0,0,0,0,0,0,0,32,33,18,18,18,18,19,0,0,0,77,78,79,0,0,0,0,0,0,0,0,0,0,0,32,33,34,0,0,0,0,0,1610612951,77,79,0,0,0,0,0,0,233,234,235,0,0,0,0,0,0,0,0,0,0,0,0,1610612951,32,33,34,0,0,0,0,0,0,0,0,0,0,0,0,0,0,32,33,34,0,0,0,0,0,0,0,0,0,0,0,0,0,0,0,0,0,0,0,0,0,0,0,0,
0,0,0,0,0,0,0,0,0,0,0,0,0,0,0,0,0,32,33,34,0,0,0,0,0,0,0,0,0,0,0,0,0,0,0,0,0,0,0,0,0,32,33,34,0,0,0,0,0,0,0,0,77,78,79,0,0,0,32,33,34,0,0,0,0,0,0,0,0,0,32,33,34,0,0,0,0,0,0,0,0,0,0,0,0,0,0,0,0,0,0,0,0,0,32,33,34,0,0,0,0,0,0,0,0,0,0,92,93,94,0,0,0,0,32,33,34,0,0,0,0,0,0,0,0,0,0,0,0,0,0,0,0,0,0,77,78,79,0,0,0,0,0,0,0,0,0,0,0,0,0,0,0,0,0,0,0,0,0,0,0,32,33,34,0,0,0,0,0,0,1610612949,77,78,79,0,0,0,0,0,0,32,33,34,0,0,0,0,107,109,0,0,0,77,78,79,0,0,0,0,32,33,33,33,33,33,34,0,0,0,92,93,94,0,0,0,0,0,0,0,0,0,0,0,48,47,49,0,0,0,0,0,1610612950,107,109,0,0,0,0,0,0,0,0,0,0,0,0,0,0,0,77,78,79,0,0,0,1610612950,32,33,34,0,0,0,0,0,0,0,0,77,79,0,0,0,0,32,33,34,0,0,0,0,0,0,0,0,0,0,0,0,0,1610612953,77,79,0,0,0,0,0,0,0,0,
0,0,0,0,0,0,0,0,0,0,0,0,0,0,0,0,0,32,33,34,0,0,0,0,0,0,0,0,0,0,0,0,0,0,0,0,0,0,0,0,0,32,33,34,0,0,0,0,0,152,153,154,92,93,94,0,0,0,48,47,49,0,0,0,0,0,0,0,0,0,32,33,34,0,0,0,0,0,0,0,0,0,0,0,0,0,0,77,78,79,0,0,0,0,48,47,49,0,0,0,0,0,0,0,0,0,0,92,93,94,0,0,0,0,48,47,49,0,0,0,0,0,0,0,0,0,0,0,0,0,0,0,0,0,0,92,93,94,0,0,0,0,0,0,0,0,191,191,0,0,0,0,0,0,0,0,0,0,0,0,0,48,47,49,0,0,0,0,0,0,1610612951,92,93,94,0,0,0,0,0,0,32,33,34,77,79,0,0,0,0,0,0,0,92,93,94,0,0,0,0,32,33,47,48,47,47,49,137,138,139,92,93,94,0,0,0,0,0,0,0,0,0,0,0,0,0,0,0,0,0,0,0,0,0,0,0,0,0,0,0,0,0,0,0,0,0,0,0,0,1610612952,92,93,94,2684354773,0,0,1610612949,48,47,49,0,0,0,0,0,0,0,0,107,109,0,0,0,0,32,33,34,0,0,0,0,0,0,0,0,0,0,0,0,0,1610612953,107,109,0,0,0,0,0,0,0,0,
0,0,0,0,0,0,0,0,0,0,77,78,78,0,0,0,0,48,47,49,0,0,0,0,0,0,0,0,0,0,0,0,0,0,77,78,79,0,0,0,0,32,33,34,0,0,0,0,0,0,0,0,92,93,94,0,0,0,0,0,0,0,0,0,0,0,0,0,0,0,32,33,34,0,0,77,78,79,0,0,0,0,0,0,0,0,0,92,93,94,0,0,0,0,0,0,0,0,0,0,0,0,0,0,0,0,0,92,93,94,0,0,0,0,3221225689,3221225688,3221225688,0,0,0,0,0,77,79,0,0,0,0,0,0,0,0,0,0,0,92,93,94,0,0,0,0,0,0,77,78,78,78,78,79,0,0,0,0,0,0,0,0,0,0,0,0,0,0,0,0,0,0,0,0,1610612950,107,108,109,0,0,0,0,0,0,32,33,34,107,109,0,0,0,0,0,0,0,92,93,94,0,0,0,0,48,47,49,0,0,0,0,0,0,0,92,93,94,0,0,0,0,0,0,1610612951,77,79,0,0,0,0,0,0,0,0,0,0,0,0,0,0,0,0,0,0,0,0,0,0,0,0,0,0,0,1610612951,92,93,94,2684354774,0,0,0,0,0,0,0,0,0,77,79,0,0,0,0,0,0,0,0,0,32,33,34,0,0,0,0,0,0,0,0,1610612951,77,79,0,0,0,0,0,0,0,77,78,78,78,78,79,
0,0,0,0,0,0,0,0,0,0,92,93,94,0,0,0,0,0,0,0,0,0,0,0,0,0,0,0,0,0,0,0,0,0,92,93,94,0,0,0,0,32,33,34,0,0,0,0,0,0,0,0,92,93,94,0,0,0,0,0,0,0,0,0,0,0,0,0,0,0,32,33,34,0,0,92,93,94,0,0,0,0,0,0,0,0,0,107,108,109,0,0,0,0,0,0,0,0,0,0,0,0,0,0,0,0,0,92,93,94,0,0,0,0,0,0,0,0,0,0,0,0,107,109,0,0,0,0,0,0,0,0,0,0,0,92,93,94,0,0,0,0,0,0,92,93,93,93,93,94,0,0,0,0,0,0,0,0,0,0,0,0,0,0,0,0,0,0,0,0,0,0,0,0,0,0,0,0,0,0,32,33,34,0,0,0,0,0,0,0,0,0,92,93,94,0,0,0,0,3221225687,3221225687,3221225686,0,0,0,0,0,0,0,92,93,94,0,0,0,0,0,0,1610612950,107,109,0,0,0,0,0,0,0,77,79,0,0,0,0,0,0,0,0,0,0,0,0,0,0,0,0,0,0,1610612950,92,93,94,2684354775,0,0,0,0,0,0,0,0,0,107,109,0,0,0,0,0,0,0,0,0,32,33,34,0,0,0,0,0,0,0,0,1610612950,107,109,0,0,0,0,0,0,0,92,93,93,93,93,94,
0,0,0,0,0,0,0,0,0,0,92,93,94,0,0,0,0,0,0,0,0,0,0,0,0,77,79,0,0,0,0,0,0,0,92,93,94,0,0,0,0,48,47,49,0,0,0,0,0,0,0,0,92,93,94,0,0,0,0,0,0,0,0,0,0,77,78,79,0,0,48,47,49,152,154,92,93,94,0,0,0,0,0,0,0,0,0,0,0,0,0,0,0,0,0,0,0,0,0,0,1610612950,77,79,0,0,0,0,92,93,94,0,0,0,0,0,0,0,0,0,0,0,0,0,0,0,0,0,0,0,0,0,0,0,0,0,92,93,94,0,0,0,0,0,0,92,93,93,93,93,94,0,0,0,0,0,0,0,0,0,0,0,0,0,0,0,0,1610612949,77,78,79,0,0,0,0,0,77,78,79,0,0,48,47,49,0,0,0,0,0,0,0,0,0,92,93,94,0,0,0,0,0,0,0,0,0,0,0,0,0,0,92,93,94,0,0,0,0,0,0,0,0,0,0,0,0,0,0,0,1610612951,107,109,0,0,0,0,0,0,77,79,0,0,0,0,0,0,1610612949,77,79,0,1610612949,92,93,94,2684354776,0,0,0,0,0,0,0,0,0,0,0,0,0,0,0,0,0,0,0,0,48,47,49,0,0,0,0,0,0,0,0,0,0,0,0,0,0,0,0,0,0,92,93,93,93,93,94,
77,78,78,78,78,79,0,0,0,0,92,93,94,0,0,0,0,0,0,0,0,0,0,0,0,107,109,0,0,0,0,0,0,0,92,93,94,0,0,0,0,0,0,0,0,0,0,0,0,0,0,0,92,93,94,0,0,0,0,0,0,0,0,0,0,92,93,94,0,0,0,0,0,0,0,92,93,94,0,0,77,78,79,0,0,0,0,0,0,0,0,0,0,139,77,78,79,0,0,0,1610612950,107,109,0,0,0,0,92,93,94,0,0,0,0,0,0,0,0,0,0,0,0,0,0,0,0,0,0,0,1610612974,77,78,79,0,0,92,93,94,0,0,0,0,0,0,92,93,93,93,93,94,0,0,0,0,233,234,235,0,0,0,0,77,78,79,0,0,1610612952,92,93,94,0,0,0,0,0,92,93,94,0,0,0,0,0,0,0,0,77,79,0,0,0,0,92,93,94,0,0,0,0,0,0,0,0,0,0,1610612952,77,78,79,77,93,94,0,0,0,0,0,0,0,0,0,0,0,77,78,79,0,0,0,0,0,0,0,0,0,0,107,109,0,0,0,0,0,0,1610612948,107,109,0,1610612952,92,93,94,2684354773,0,0,0,0,0,0,0,0,0,0,0,0,0,0,0,0,0,0,0,0,0,0,0,0,0,0,1610612953,77,79,0,0,0,0,0,0,0,0,0,0,0,0,92,93,93,93,93,94,
92,93,93,93,93,94,0,0,0,0,92,93,94,0,0,0,0,0,0,0,0,0,0,0,0,0,0,0,0,0,0,0,0,0,92,93,94,0,0,0,0,0,0,0,0,0,0,0,0,77,78,78,78,93,94,0,0,0,77,78,79,0,0,0,0,107,108,109,0,0,0,0,0,0,0,92,93,94,0,0,92,93,94,0,0,0,0,0,0,0,0,0,0,0,92,93,94,0,0,0,0,0,0,0,0,0,0,92,93,94,0,0,0,0,0,0,0,0,215,216,0,0,0,0,0,0,0,0,0,1610612973,92,93,94,0,0,92,93,94,0,0,0,0,0,0,92,93,93,93,93,94,0,0,0,0,0,0,0,0,0,0,1610612951,92,93,94,0,0,1610612951,107,108,109,0,0,0,0,0,107,108,109,0,0,0,0,0,0,0,0,107,109,0,0,0,0,92,93,94,0,0,0,0,0,0,0,0,0,0,1610612951,92,93,93,93,93,94,0,0,77,79,0,0,0,0,0,0,0,92,93,94,0,0,0,0,0,0,0,0,0,0,0,0,0,0,0,0,0,0,0,0,0,0,1610612952,92,93,94,2684354773,0,77,78,78,78,78,78,79,0,0,0,0,0,0,0,0,0,0,0,0,0,0,0,0,0,0,1610612953,107,109,0,0,0,0,0,0,0,0,0,0,0,0,92,93,93,93,93,94,
92,93,93,93,93,94,0,0,0,0,92,93,94,0,0,0,0,0,0,0,0,0,0,0,0,0,0,0,0,0,0,0,0,0,92,93,94,0,0,0,0,0,0,0,0,0,0,0,0,92,93,93,93,93,94,0,0,0,92,93,94,0,0,0,0,0,0,0,0,0,0,0,0,0,0,92,93,94,0,0,107,108,109,0,0,0,0,0,0,0,0,0,0,0,92,93,94,0,0,0,0,0,0,0,0,0,0,92,93,94,0,0,77,78,78,78,78,78,78,79,0,0,0,0,0,0,0,0,0,1610612972,107,108,109,0,0,92,93,94,0,0,0,0,0,0,92,93,93,93,93,94,0,0,0,0,0,0,0,0,0,0,1610612950,92,93,94,0,0,0,0,0,0,0,0,0,0,0,0,0,0,0,0,0,0,0,0,0,0,0,0,0,0,0,0,92,93,94,0,0,0,0,0,0,0,0,0,0,1610612950,107,108,108,108,108,109,0,0,107,109,0,0,0,0,0,0,0,92,93,94,0,0,0,0,0,0,0,0,0,0,0,0,0,0,0,0,0,0,0,0,0,0,1610612951,92,93,94,2684354774,0,92,93,93,93,93,93,94,0,0,0,0,0,0,0,0,0,0,0,0,0,0,0,0,0,0,0,0,0,0,0,0,0,0,0,0,0,0,0,0,0,92,93,93,93,93,94,
92,93,93,93,93,94,0,0,0,0,92,93,94,0,0,137,138,138,138,138,139,0,0,0,0,0,0,0,0,0,0,0,0,0,92,93,94,0,0,0,0,0,0,0,0,0,0,0,0,107,108,108,108,108,109,0,0,0,107,108,109,0,0,0,0,0,0,0,0,0,0,0,0,0,0,92,93,94,0,0,0,0,0,0,0,0,0,0,0,0,0,0,0,0,92,93,94,0,0,0,0,0,0,0,0,0,0,92,93,94,0,0,92,93,93,93,93,93,93,94,0,0,0,0,0,0,0,0,0,0,0,0,0,0,0,92,93,94,0,0,0,0,0,0,92,93,93,93,93,94,0,0,0,0,0,0,0,0,0,0,1610612951,92,93,94,0,0,0,0,0,0,0,0,0,0,0,0,0,0,0,0,137,138,139,0,0,0,0,0,0,0,0,0,92,93,94,0,0,0,0,0,0,0,0,0,0,0,0,0,0,0,0,0,0,0,0,0,0,0,0,0,0,0,0,92,93,94,0,0,0,0,0,0,0,0,0,0,0,0,0,0,0,0,0,0,0,0,0,0,1610612950,92,93,94,2684354775,0,107,108,108,108,108,108,109,0,0,0,0,0,0,0,0,0,0,0,0,0,0,0,0,0,0,0,0,0,0,0,0,0,0,0,0,0,0,0,0,0,92,93,93,93,93,94,
92,93,93,93,93,94,0,0,0,0,92,93,94,0,0,0,0,0,0,0,0,0,0,0,0,0,0,0,0,0,0,0,0,0,92,93,94,0,0,152,153,153,153,153,154,0,0,0,0,0,0,0,0,0,0,0,0,0,0,0,0,0,0,0,0,0,0,0,0,152,153,153,153,153,154,92,93,94,0,0,0,0,0,0,0,0,0,0,0,0,0,0,0,0,92,93,94,0,0,0,0,0,0,0,0,0,0,92,93,94,0,0,107,108,108,108,108,108,108,109,0,0,0,0,0,0,0,0,0,0,0,0,0,0,0,92,93,94,0,0,0,0,0,0,92,93,93,93,93,94,0,0,0,0,0,0,0,0,0,0,1610612950,92,93,94,0,0,0,0,0,0,0,0,0,0,0,0,0,0,0,0,0,0,0,0,0,0,0,0,0,0,0,0,92,93,94,0,77,78,79,0,0,0,77,78,79,0,0,0,0,0,0,0,0,0,0,0,0,0,0,0,0,0,0,92,93,94,0,0,0,0,0,0,0,0,0,0,0,0,0,0,0,0,0,0,0,0,0,0,1610612949,92,93,94,2684354776,0,0,0,0,0,0,0,0,0,0,0,0,0,0,0,0,0,0,137,138,138,138,138,138,138,0,0,0,0,0,0,0,0,0,0,0,0,0,0,0,0,92,93,93,93,93,94,
107,108,108,108,108,109,0,0,0,0,107,108,109,0,0,0,0,0,0,0,0,0,0,0,0,0,0,0,0,0,0,0,0,0,107,108,109,0,0,0,0,0,0,0,0,0,0,0,0,0,0,0,0,0,0,0,0,0,0,0,0,0,0,0,0,0,0,0,0,0,0,0,0,0,0,107,108,109,0,0,0,0,0,0,0,0,0,0,0,0,0,0,0,0,107,108,109,0,0,0,0,0,0,0,0,0,0,107,108,109,0,0,0,0,0,0,0,0,0,0,0,0,0,0,0,0,0,0,0,0,0,0,0,0,0,107,108,109,0,0,0,0,0,0,107,108,108,108,108,109,215,216,214,216,216,217,215,213,214,214,213,107,108,109,214,214,214,213,213,216,217,215,216,214,215,213,217,213,214,216,215,216,216,213,214,214,214,215,214,213,215,214,107,108,109,216,214,216,214,217,216,214,214,215,217,215,215,214,214,217,214,217,217,217,216,215,214,214,214,217,214,215,216,107,108,109,216,216,213,216,217,216,216,213,217,215,217,215,213,215,217,215,213,214,214,214,214,217,214,107,108,109,215,215,213,216,214,215,215,215,215,213,213,214,216,213,213,216,213,214,214,214,216,214,213,214,214,217,213,217,213,216,213,213,215,215,217,213,216,216,217,215,217,216,107,108,108,108,108,109
</data>
 </layer>
 <layer id="4" name="Deadly Tiles" width="300" height="18">
  <data encoding="csv">
0,0,0,0,0,0,0,0,0,0,0,0,0,0,0,0,0,0,0,0,0,0,0,0,0,0,0,0,0,0,0,0,0,0,0,0,0,0,0,0,0,0,0,0,0,0,0,0,0,0,0,0,0,0,0,0,0,0,0,0,0,0,0,0,0,0,0,0,0,0,0,0,0,0,0,0,0,0,0,0,0,0,0,0,0,0,0,0,0,0,0,0,0,0,0,0,0,0,0,0,0,0,0,0,0,0,0,0,0,0,0,0,0,0,0,0,0,0,0,0,0,0,0,0,0,0,0,0,0,0,0,0,0,0,0,0,0,0,0,0,0,0,0,0,0,0,0,0,0,0,0,0,0,0,0,0,0,0,0,0,0,0,0,0,0,0,0,0,0,0,0,0,0,0,0,0,0,0,0,0,0,0,0,0,0,0,0,0,0,0,0,0,0,0,0,0,0,0,0,0,0,0,0,0,0,0,0,0,0,0,0,0,0,0,0,0,0,0,0,0,0,0,0,0,0,0,0,0,0,0,0,0,0,0,0,0,0,0,0,0,0,0,0,0,0,0,0,0,0,0,0,0,0,0,0,0,0,0,0,0,0,0,0,0,0,0,0,0,0,0,0,0,0,0,0,0,0,0,0,0,0,0,0,0,0,0,0,0,0,0,0,0,0,0,0,0,0,0,0,0,
0,0,0,0,0,0,0,0,0,0,0,0,0,0,0,0,0,0,0,0,0,0,0,0,0,0,0,0,0,0,0,0,0,0,0,0,0,0,0,0,0,0,0,0,0,0,0,0,0,0,0,0,0,0,0,0,0,0,0,0,0,0,0,0,0,0,0,0,0,0,0,0,0,0,0,0,0,0,0,0,0,0,0,0,0,0,0,0,0,0,0,0,0,0,0,0,0,0,0,0,0,0,0,0,0,0,0,0,0,0,0,0,0,0,0,0,0,0,0,0,0,0,0,0,0,0,0,0,0,0,0,0,0,0,0,0,0,0,0,0,0,0,0,0,0,0,0,0,0,0,0,0,0,0,0,0,0,0,0,0,0,0,0,0,0,0,0,0,0,0,0,0,0,0,0,0,0,0,0,0,0,0,0,0,0,0,0,0,0,0,0,0,0,0,0,0,0,0,0,0,0,0,0,0,0,0,0,0,0,0,0,0,0,0,0,0,0,0,0,0,0,0,0,0,0,0,0,0,0,0,0,0,0,0,0,0,0,0,0,0,0,0,0,0,0,0,0,0,0,0,0,0,0,0,0,0,0,0,0,0,0,0,0,0,0,0,0,0,0,0,0,0,0,0,0,0,0,0,0,0,0,0,0,0,0,0,0,0,0,0,0,0,0,0,0,0,0,0,0,0,
0,0,0,0,0,0,0,0,0,0,0,0,0,0,0,0,0,0,0,0,0,0,0,0,0,0,0,0,0,0,0,0,0,0,0,0,0,0,0,0,0,0,0,0,0,0,0,0,0,0,0,0,0,0,0,0,0,0,0,0,0,0,0,0,0,0,0,0,0,0,0,0,0,0,0,0,0,0,0,0,0,0,0,0,0,0,0,0,0,0,0,0,0,0,0,0,0,0,0,0,0,0,0,0,0,0,0,0,0,0,0,0,0,0,0,0,0,0,0,0,0,0,0,0,0,0,0,0,0,0,0,0,0,0,0,0,0,0,0,0,0,0,0,0,0,0,0,0,0,0,0,0,0,0,0,0,0,0,0,0,0,0,0,0,0,0,0,0,0,0,0,0,0,0,0,0,0,0,0,0,0,0,0,0,0,0,0,0,0,0,0,0,0,0,0,0,0,0,0,0,0,0,0,0,0,0,0,0,0,0,0,0,0,0,0,0,0,0,0,0,0,0,0,0,0,0,0,0,0,0,0,0,0,0,0,0,0,0,0,0,0,0,0,0,0,0,0,0,0,0,0,0,0,0,0,0,0,0,0,0,0,0,0,0,0,0,0,0,0,0,0,0,0,0,0,0,0,0,0,0,0,0,0,0,0,0,0,0,0,0,0,0,0,0,0,0,0,0,0,0,
0,0,0,0,0,0,0,0,0,0,0,0,0,0,0,0,0,0,0,0,0,0,0,0,0,0,0,0,0,0,0,0,0,0,0,0,0,0,0,0,0,0,0,0,0,0,0,0,0,0,0,0,0,0,0,0,0,0,0,0,0,0,0,0,0,0,0,0,0,0,0,0,0,0,0,0,0,0,0,0,0,0,0,0,0,0,0,0,0,0,0,0,0,0,0,0,0,0,0,0,0,0,0,0,0,0,0,0,0,0,0,0,0,0,0,0,0,0,0,0,0,0,0,0,0,0,0,0,0,0,0,0,0,0,0,0,0,0,0,0,0,0,0,0,0,0,0,0,0,0,0,0,0,0,17,18,19,0,0,0,0,0,0,0,0,0,0,0,0,0,0,0,0,0,0,0,0,0,0,0,0,0,0,0,0,0,0,0,0,0,0,0,0,0,0,0,0,0,1610612952,0,0,0,0,0,0,0,0,0,0,0,0,0,0,0,0,0,0,0,0,0,0,0,0,0,0,0,0,0,0,0,0,0,0,0,0,0,0,0,0,0,0,0,0,0,0,0,0,0,0,0,0,0,0,0,0,0,0,0,0,0,0,0,0,0,0,0,0,0,0,0,0,0,0,0,0,0,0,0,0,0,0,0,0,0,0,0,0,0,0,0,0,0,0,0,0,0,0,0,0,0,
0,0,0,0,0,0,0,0,0,0,0,0,0,0,0,0,0,0,0,0,0,0,0,0,0,0,0,0,0,0,0,0,0,0,0,0,0,0,0,0,0,0,0,0,0,0,0,0,0,0,0,0,0,0,0,0,0,0,0,0,0,0,0,0,0,0,0,0,0,0,0,0,0,0,0,0,0,0,0,0,0,0,0,3221225688,3221225687,3221225686,0,0,0,0,0,0,0,0,0,0,0,0,0,0,0,0,0,0,0,0,0,0,0,0,0,0,0,0,0,0,0,0,0,0,0,0,0,0,0,0,0,0,0,0,0,0,0,0,0,0,0,0,0,0,0,0,0,0,0,0,0,0,0,0,0,0,0,0,32,33,34,0,0,0,0,0,0,0,0,0,0,0,0,0,0,0,0,0,0,0,0,0,0,0,0,0,0,0,0,0,0,0,0,0,0,0,0,0,0,0,0,0,1610612951,0,0,0,0,0,0,0,0,0,0,0,0,0,0,0,0,0,0,0,0,0,0,0,0,0,0,0,0,0,0,0,0,0,0,0,0,0,0,0,0,0,0,0,0,0,0,0,0,0,0,0,0,0,0,0,0,0,0,0,0,0,0,0,0,0,0,0,0,0,0,0,0,0,0,0,0,0,0,0,0,0,0,0,0,0,0,0,0,0,0,0,0,0,0,0,0,0,0,0,0,0,
0,0,0,0,0,0,0,0,0,0,0,0,0,0,0,0,0,0,0,0,0,0,0,0,0,0,0,0,0,0,233,234,235,0,0,0,0,0,0,0,0,0,0,0,0,0,0,0,0,0,0,0,0,0,0,0,0,0,0,0,0,0,0,0,0,0,0,0,0,0,0,0,0,0,0,0,0,0,0,0,0,0,0,0,0,0,0,0,0,0,0,0,0,0,0,0,0,0,0,0,0,0,0,0,0,0,0,0,0,0,0,0,0,0,0,0,0,0,0,0,0,0,0,0,0,0,0,0,0,0,0,0,0,0,0,0,0,0,0,0,0,0,0,0,0,0,0,0,0,0,0,0,0,0,32,33,34,0,0,0,0,0,0,0,0,0,0,0,0,0,0,0,0,0,0,0,0,0,0,0,0,0,0,0,0,0,0,0,0,0,0,0,0,0,0,0,0,0,1610612950,0,0,0,0,0,0,0,0,0,0,0,0,0,0,0,0,0,0,0,0,0,0,0,0,0,0,0,0,0,0,0,0,0,0,0,0,0,0,0,0,0,0,0,0,0,0,0,0,0,0,0,0,0,0,0,0,0,0,0,0,0,0,0,0,0,0,0,0,0,0,0,0,0,0,0,0,0,0,0,0,0,0,0,0,0,0,0,0,0,0,0,0,0,0,0,0,0,0,0,0,0,
0,0,0,0,0,0,0,0,0,0,0,0,0,0,0,0,0,0,0,0,0,0,0,0,3221225688,3221225687,3221225686,3221225685,3221225688,3221225687,0,0,0,0,0,0,0,0,0,0,0,0,0,0,0,0,0,0,0,0,0,0,0,0,0,0,0,0,0,0,0,0,0,0,0,0,0,0,0,0,0,0,0,0,0,0,0,0,0,0,233,234,235,0,0,0,0,0,0,0,0,0,0,0,0,0,0,0,0,0,0,0,0,0,0,0,0,0,0,0,2684354774,0,0,0,0,0,0,0,0,0,0,0,0,0,0,0,0,0,0,0,0,0,0,0,0,0,0,0,0,0,0,0,0,0,0,0,0,0,0,0,0,0,0,0,32,33,34,0,0,0,0,0,0,0,0,0,0,0,0,0,0,0,0,0,0,0,0,0,0,0,0,0,0,0,0,0,0,0,0,0,0,0,0,0,0,0,0,0,1610612951,0,0,0,0,0,0,0,0,0,0,0,0,0,0,0,0,0,0,0,0,0,0,0,0,0,0,0,0,0,0,0,0,0,0,0,0,0,0,0,0,0,0,0,0,0,0,0,0,0,0,0,0,0,0,0,0,0,0,0,0,0,0,0,0,0,0,0,0,0,0,0,0,0,0,0,0,0,0,0,0,0,0,0,0,0,0,0,0,0,0,0,0,0,0,0,0,0,0,0,0,0,
0,0,0,0,0,0,0,0,0,0,0,0,0,0,0,0,2684354793,0,0,0,1610612971,0,0,0,0,0,0,0,0,0,0,0,0,0,0,0,0,0,0,0,0,0,0,0,3221225689,3221225689,3221225688,3221225687,3221225686,0,0,0,0,0,0,0,0,0,0,0,0,233,234,235,0,0,0,0,0,0,0,0,0,0,0,0,0,0,0,0,0,0,0,0,0,0,0,0,0,0,0,0,0,0,0,0,0,0,0,0,0,0,0,0,0,0,1610612950,0,0,0,2684354775,0,0,0,0,0,0,0,0,0,0,0,0,0,0,0,0,0,0,0,0,0,0,0,0,0,0,0,0,0,0,0,0,0,0,0,0,0,0,0,0,0,0,0,32,33,34,0,0,0,0,0,0,0,0,0,0,0,0,0,0,0,0,0,0,0,0,0,0,0,0,0,0,0,0,0,0,0,0,0,0,0,0,0,0,0,0,0,1610612950,0,0,0,0,0,0,0,0,0,0,0,0,0,0,0,0,0,0,0,0,0,0,0,0,0,0,0,0,0,0,0,0,0,0,0,0,0,0,0,0,0,0,0,0,0,0,0,0,0,0,0,0,0,0,0,0,0,0,0,0,0,0,0,0,0,0,0,0,0,0,0,0,0,0,0,0,0,0,0,0,0,0,0,0,0,0,0,0,0,0,0,0,0,0,0,0,0,0,0,0,0,
0,0,0,0,0,0,0,0,0,0,0,0,0,0,0,0,2684354794,0,0,0,1610612970,0,0,0,0,0,0,0,0,0,0,0,0,0,0,0,0,0,0,0,1610612953,0,0,0,2684354774,0,0,0,0,0,0,0,0,0,0,0,0,0,0,0,0,0,0,0,0,0,0,0,0,0,0,0,0,0,0,0,0,0,0,0,0,0,0,0,0,0,0,0,0,0,2684354772,0,0,0,0,0,0,0,0,0,0,0,0,0,0,0,1610612951,0,0,0,2684354775,0,0,0,0,0,0,0,0,0,0,0,0,0,0,0,0,0,0,0,0,0,0,0,0,0,0,0,0,0,0,0,0,0,0,0,0,0,0,0,0,0,0,0,32,33,34,0,0,0,0,0,0,0,0,0,0,0,0,0,0,0,0,0,0,0,0,0,0,0,0,0,0,0,0,0,0,0,0,0,0,0,0,0,0,0,0,0,1610612952,0,0,0,0,0,0,0,0,0,0,0,0,0,0,0,0,0,0,0,0,0,0,0,0,0,0,0,0,0,0,0,0,0,0,0,0,0,0,0,0,0,0,0,0,0,0,0,0,0,0,0,0,0,0,0,0,0,0,0,0,0,0,0,0,0,0,0,0,0,0,0,0,0,0,0,0,0,0,0,0,0,0,0,0,0,0,0,0,0,0,0,0,0,0,0,0,0,0,0,0,0,
0,0,0,0,0,0,0,0,0,1610612951,0,0,79,0,0,0,2684354795,0,0,0,1610612969,0,0,0,0,0,0,0,0,0,0,0,0,0,0,0,0,0,0,0,1610612952,0,0,0,2684354775,0,0,0,0,0,0,0,0,0,0,2684354774,0,0,0,0,0,0,0,0,0,0,0,0,0,0,0,0,0,0,0,0,0,0,0,0,0,0,0,0,0,0,0,0,0,0,2684354772,0,0,0,0,0,0,0,0,0,0,0,0,0,0,0,1610612950,0,0,0,2684354774,0,0,0,0,0,0,0,0,0,0,0,0,0,0,0,0,0,0,0,0,0,0,0,0,0,0,0,2684354774,0,0,0,0,0,0,0,0,0,0,0,0,0,0,0,32,33,34,0,0,0,0,0,0,0,0,0,0,0,0,0,0,0,0,0,0,0,0,0,0,0,0,0,0,0,0,0,0,0,0,0,0,0,0,0,0,0,0,0,1610612951,0,0,0,0,0,0,0,0,0,0,0,0,0,0,0,0,0,0,0,0,0,0,0,0,0,0,0,0,0,0,0,0,0,0,0,0,0,0,0,0,0,0,0,0,0,0,0,0,0,0,0,0,0,0,0,0,0,0,0,0,0,0,0,0,0,0,0,0,0,0,0,0,0,0,0,0,0,0,0,0,0,0,0,0,0,0,0,0,0,0,0,0,0,0,0,0,0,0,0,0,0,
0,0,0,0,0,0,0,0,0,1610612950,0,0,0,0,0,0,0,3221225687,3221225687,3221225686,0,0,0,0,0,0,0,0,0,0,0,0,0,1610612950,0,0,0,0,0,0,1610612951,0,0,0,2684354776,0,0,0,0,0,0,0,0,0,0,2684354775,0,0,0,0,0,0,0,0,0,0,0,0,0,0,0,0,0,0,0,0,0,0,0,0,0,0,0,0,0,0,0,0,0,0,2684354773,0,0,0,0,0,0,0,0,0,0,0,0,0,0,0,1610612951,0,0,0,2684354775,0,0,0,0,0,0,0,0,0,0,0,0,0,0,0,0,0,0,0,0,0,0,0,0,0,0,0,2684354775,0,0,0,0,1610612951,0,0,0,0,0,0,0,0,0,0,32,33,34,0,0,0,0,0,0,0,0,0,0,0,0,0,0,0,0,0,0,0,0,0,0,0,0,0,0,0,0,0,0,0,0,0,0,0,0,0,0,0,0,0,0,0,0,0,0,0,0,0,0,0,0,0,0,0,0,0,0,0,0,0,0,0,0,0,0,0,0,0,0,0,0,0,0,0,0,0,0,0,0,0,0,0,0,0,0,0,0,0,0,0,0,0,0,0,0,0,0,0,0,0,0,0,0,0,0,0,0,0,0,0,0,0,0,0,0,0,0,0,0,0,0,0,0,0,0,0,0,0,0,0,0,0,0,0,0,0,0,0,0,0,0,0,
0,0,0,0,0,0,0,0,0,1610612950,0,0,0,0,0,0,0,0,0,0,0,0,0,0,1610612950,0,0,0,0,0,0,0,0,1610612951,0,0,0,0,0,0,1610612950,0,0,0,2684354777,0,0,0,0,0,0,0,0,0,0,2684354776,0,0,0,0,0,0,0,0,0,0,0,0,0,0,0,0,0,0,0,0,0,0,2684354776,0,0,0,0,0,0,0,0,0,0,0,0,0,0,0,0,0,0,0,0,0,0,0,0,0,0,0,1610612950,0,0,0,2684354774,0,0,0,0,0,0,0,0,0,0,0,0,0,0,0,0,0,0,0,0,0,0,0,0,0,0,0,2684354774,0,0,0,0,1610612950,0,0,0,0,0,0,0,0,0,0,48,47,49,0,0,0,0,0,0,0,0,0,0,0,0,0,0,0,0,0,0,0,0,0,0,0,0,0,0,0,0,0,0,0,0,0,0,0,0,0,0,0,0,0,0,0,0,0,0,0,0,0,0,0,0,0,0,0,0,0,0,0,0,0,0,0,0,0,0,0,0,0,0,0,0,0,0,0,0,0,0,0,0,0,0,0,0,0,0,0,0,0,0,0,0,0,0,0,0,0,0,0,0,0,0,0,0,0,0,0,0,0,0,0,0,0,0,0,0,0,0,0,0,0,0,0,0,0,0,0,0,0,0,0,0,0,0,0,0,0,0,0,0,0,0,0,
0,0,0,0,0,0,0,0,0,1610612951,0,0,0,0,0,0,0,0,0,0,0,0,0,0,1610612950,0,0,0,0,0,0,0,0,1610612950,0,0,0,0,0,0,0,0,0,0,0,0,0,0,0,0,0,0,0,0,0,2684354774,0,0,0,0,0,0,0,0,1610612951,0,0,0,0,0,0,0,0,0,0,0,0,0,2684354774,0,0,0,0,0,0,0,0,0,0,0,0,0,0,0,0,0,0,0,0,0,0,0,0,0,0,0,1610612951,0,0,0,2684354775,0,0,0,0,0,0,0,0,0,0,0,0,0,0,0,0,0,0,0,0,0,0,0,0,0,0,0,2684354775,0,0,0,0,1610612951,0,0,0,0,0,0,0,0,0,0,0,0,0,0,0,0,0,0,0,0,0,0,0,0,0,0,0,0,0,0,0,0,0,0,0,0,0,0,0,0,0,0,0,0,0,0,0,0,0,0,0,0,0,0,0,0,0,0,0,0,0,0,0,0,0,0,0,0,0,0,0,0,0,0,0,0,0,0,0,0,0,0,0,0,0,0,0,0,0,0,0,0,0,0,0,0,0,0,0,0,0,0,0,0,0,0,0,0,0,0,0,0,0,0,0,0,0,0,0,0,0,0,0,0,0,0,0,0,0,0,0,0,0,0,0,0,0,0,0,0,0,0,0,0,0,0,0,0,0,0,0,0,0,0,0,0,
0,0,0,0,0,0,0,0,0,1610612950,0,0,0,0,0,0,0,0,0,0,0,0,0,0,0,0,0,0,0,0,0,0,0,1610612951,0,0,0,0,0,0,0,0,0,0,0,0,0,0,2684354793,0,0,0,0,0,0,2684354774,0,0,0,0,0,0,0,0,1610612951,0,0,0,0,0,0,0,0,0,0,0,0,0,2684354775,0,0,0,0,0,0,0,0,0,0,0,0,0,0,0,0,0,0,0,0,0,0,0,0,0,0,0,1610612950,0,0,0,2684354774,0,0,0,0,0,0,0,0,0,0,0,0,0,0,0,0,0,0,0,0,0,0,0,0,0,0,0,2684354774,0,0,0,0,1610612950,0,0,0,0,0,0,0,0,0,0,0,0,0,0,0,0,0,0,0,0,0,0,0,0,0,0,0,0,0,0,0,0,0,0,0,0,0,0,0,0,0,0,0,0,0,0,0,0,0,0,0,0,0,0,0,0,0,0,0,0,0,0,0,0,0,0,0,0,0,0,0,0,0,0,0,0,0,0,0,0,0,0,0,0,0,0,0,0,0,0,0,0,0,0,0,0,0,0,0,0,0,0,0,0,0,0,0,0,0,0,0,0,0,0,0,0,0,0,0,0,0,0,0,0,0,0,0,0,0,0,0,0,0,0,0,0,0,0,0,0,0,0,0,0,0,0,0,0,0,0,0,0,0,0,0,0,
0,0,0,0,0,0,0,0,0,1610612951,0,0,0,0,0,0,0,0,0,0,0,0,0,0,0,0,0,0,0,0,0,0,0,1610612950,0,0,0,0,0,0,0,0,0,0,0,0,0,0,2684354794,0,0,0,0,0,0,2684354775,0,0,0,0,0,0,0,0,0,0,0,0,0,0,0,0,0,0,0,0,0,0,2684354774,0,0,0,0,0,0,0,0,0,0,0,0,0,0,0,0,0,0,0,0,0,0,0,0,0,0,0,1610612951,0,0,0,2684354775,0,0,0,0,0,0,0,0,0,0,0,0,0,0,0,0,0,0,0,0,0,0,0,0,0,0,0,2684354775,0,0,0,0,1610612951,0,0,0,0,0,0,0,0,0,0,0,0,0,0,0,0,0,0,0,0,0,0,0,0,0,0,0,0,0,0,0,0,0,0,0,0,0,0,0,0,0,0,0,0,0,0,0,0,0,0,0,0,0,0,0,0,0,0,0,0,0,0,0,0,0,0,0,0,0,0,0,0,0,0,0,0,0,0,0,0,0,0,0,0,0,0,0,0,0,0,0,0,0,0,0,0,0,0,0,0,0,0,0,0,0,0,0,0,0,0,0,0,0,0,0,0,0,0,0,0,0,0,0,0,0,0,0,0,0,0,0,0,0,0,0,0,0,0,0,0,0,0,0,0,0,0,0,0,0,0,0,0,0,0,0,0,
0,0,0,0,0,0,0,0,0,1610612951,0,0,0,0,0,0,0,0,0,0,0,0,0,0,0,0,0,0,0,0,0,0,0,1610612951,0,0,0,0,0,0,0,0,0,0,0,0,0,0,2684354795,0,0,0,0,0,0,2684354776,0,0,0,0,0,0,0,0,0,0,0,0,0,0,0,0,0,0,0,0,0,0,2684354775,0,0,0,0,0,0,0,0,0,0,0,0,0,0,0,0,0,0,0,0,0,0,0,0,0,0,0,1610612951,0,0,0,2684354774,0,0,0,0,0,0,0,0,0,0,0,0,0,0,0,0,0,0,0,0,0,0,0,0,0,0,0,2684354774,0,0,0,0,1610612950,0,0,0,0,0,0,0,0,0,0,0,0,0,0,0,0,0,0,0,0,0,0,0,0,0,0,0,0,0,0,0,0,0,0,0,0,0,0,0,0,0,0,0,0,0,0,0,0,0,0,0,0,0,0,0,0,0,0,0,0,0,0,0,0,0,0,0,0,0,0,0,0,0,0,0,0,0,0,0,0,0,0,0,0,0,0,0,0,0,0,0,0,0,0,0,0,0,0,0,0,0,0,0,0,0,0,0,0,0,0,0,0,0,0,0,0,0,0,0,0,0,0,0,0,0,0,0,0,0,0,0,0,0,0,0,0,0,0,0,0,0,0,0,0,0,0,0,0,0,0,0,0,0,0,0,0,
0,0,0,0,0,0,0,0,0,1610612950,0,0,0,0,0,0,0,0,0,0,0,0,0,0,0,0,0,0,0,0,0,0,0,1610612950,0,0,0,0,0,0,0,0,0,0,0,0,0,0,0,0,0,0,0,0,0,0,0,0,0,0,0,0,0,0,0,0,0,0,0,0,0,0,0,0,0,0,0,0,2684354776,0,0,0,0,0,0,0,0,0,0,0,0,0,0,0,0,0,0,0,0,0,0,0,0,0,0,0,1610612950,0,0,0,2684354775,0,0,0,0,0,0,0,0,0,0,0,0,0,0,0,0,0,0,0,0,0,0,0,0,0,0,0,2684354774,0,0,0,0,0,0,0,0,0,0,0,0,0,137,138,138,138,138,138,139,0,0,0,0,0,0,0,0,0,0,0,0,0,0,0,0,0,0,0,0,0,0,0,0,0,0,0,0,0,0,0,0,0,0,0,0,0,0,0,0,0,0,0,0,0,0,0,0,0,0,0,0,0,0,0,0,0,0,0,0,0,0,0,0,0,0,0,0,0,0,0,0,0,0,0,0,0,0,0,0,0,0,0,0,0,0,0,0,0,0,0,0,0,0,0,0,0,0,0,0,0,0,0,0,0,0,0,0,0,0,0,0,0,0,0,0,0,0,0,0,0,0,0,0,0,0,0,0,0,0,0,0,0,0,0,0,0,0,0,0,0,
0,0,0,0,0,0,214,214,214,215,0,0,0,215,215,215,215,215,215,215,215,215,215,215,215,215,215,215,215,215,215,215,215,214,214,214,215,215,215,215,215,215,215,215,215,215,215,215,215,215,215,215,215,215,215,215,215,215,215,215,215,215,215,215,215,215,215,215,215,215,215,215,215,215,215,0,0,0,215,215,215,215,215,215,215,215,215,215,215,215,215,215,215,215,0,0,0,215,215,215,215,215,215,215,215,215,215,215,215,215,215,215,215,215,215,215,215,215,215,215,215,215,215,215,215,215,215,215,215,215,215,215,215,215,215,215,215,215,214,215,215,215,215,215,215,215,215,215,215,215,0,0,0,0,0,0,0,0,0,0,0,0,0,0,0,0,0,0,0,0,0,0,0,0,0,0,0,0,0,0,0,0,0,0,0,0,0,0,0,0,0,0,0,0,0,0,0,0,0,0,0,0,0,0,0,0,0,0,0,0,0,0,0,0,0,0,0,0,0,0,0,0,0,0,0,0,0,0,0,0,0,0,0,0,0,0,0,0,0,0,0,0,0,0,0,0,0,0,0,0,0,0,0,0,0,0,0,0,0,0,0,0,0,0,0,0,0,0,0,0,0,0,0,0,0,0,0,0,0,0,0,0,0,0,0,0,0,0,0,0,0,0,0,0,0,0,0,0,0,0
</data>
 </layer>
 <layer id="7" name="Design/Skulls" width="300" height="18">
  <data encoding="csv">
0,0,0,0,0,0,0,0,0,0,0,0,0,0,0,0,0,0,0,0,0,0,0,0,0,0,0,0,0,0,0,0,0,0,0,0,0,0,0,0,0,0,0,0,0,0,0,0,0,0,0,0,0,0,0,0,0,0,0,0,0,0,0,0,0,0,0,0,0,0,0,0,0,0,0,0,0,0,0,0,0,0,0,0,0,0,0,0,0,0,0,0,0,0,0,0,0,0,0,0,0,0,0,0,0,0,0,0,0,0,0,0,0,0,0,0,0,0,0,0,0,0,0,0,0,0,0,0,0,0,0,0,0,0,0,0,0,0,0,0,0,0,0,0,0,0,0,0,0,0,0,0,0,0,0,0,0,0,0,0,0,0,0,0,0,0,0,0,0,0,0,0,0,0,0,0,0,0,0,0,0,0,0,0,0,0,0,0,0,0,0,0,0,0,0,0,0,0,0,0,0,0,0,0,0,0,0,0,0,0,0,0,0,0,0,0,0,0,0,0,0,0,0,0,0,0,0,0,0,0,0,0,0,0,0,0,0,0,0,0,0,0,0,0,0,0,0,0,0,0,0,0,0,0,0,0,0,0,0,0,0,0,0,0,0,0,0,0,0,0,0,0,0,0,0,0,0,0,0,0,0,0,0,0,0,0,0,0,0,0,0,0,0,0,0,0,0,0,0,0,
0,0,0,0,0,0,0,0,0,0,0,0,0,0,0,0,0,0,0,0,0,0,0,0,0,0,0,0,0,0,0,0,0,0,0,0,0,0,0,0,0,0,0,0,0,0,0,0,0,0,0,0,0,0,0,0,0,0,0,0,0,0,0,0,0,0,0,0,0,0,0,0,0,0,0,0,0,0,0,0,0,0,0,0,0,0,0,0,0,0,0,0,0,0,0,0,0,0,0,0,0,0,0,0,0,0,0,0,0,0,0,0,0,0,0,0,0,0,0,0,0,0,0,0,0,0,0,0,0,0,0,0,0,0,0,0,0,0,0,0,0,0,0,0,0,0,0,0,0,0,0,0,0,0,0,0,0,0,0,0,0,0,0,0,0,0,0,0,0,0,0,0,0,0,0,0,0,0,0,0,0,0,0,0,0,0,0,0,0,0,0,0,0,0,0,0,0,0,0,0,0,0,0,0,0,0,0,0,0,0,0,0,0,0,0,0,0,0,0,0,0,0,0,0,0,0,0,0,0,0,0,0,0,0,0,0,0,0,0,0,0,0,0,0,0,0,0,0,0,0,0,0,0,0,0,0,0,0,0,0,0,0,0,0,0,0,0,0,0,0,0,0,0,0,0,0,0,0,0,0,0,0,0,0,0,0,0,0,0,0,0,0,0,0,0,0,0,0,0,0,
0,0,0,0,0,0,0,0,0,0,0,0,0,0,0,0,0,0,0,0,0,0,0,0,0,0,0,0,0,0,0,0,0,0,0,0,0,0,0,0,0,0,0,0,0,0,0,0,0,0,0,0,0,0,0,0,0,0,0,0,0,0,0,0,0,0,0,0,0,0,0,0,0,0,0,0,0,0,0,0,0,0,0,0,0,0,0,0,0,0,0,0,0,0,0,0,0,0,0,0,0,0,0,0,0,0,0,0,0,0,0,0,0,0,0,0,0,0,0,0,0,0,0,0,0,0,0,0,0,0,0,0,0,0,0,0,0,0,0,0,0,0,0,0,0,0,0,0,0,0,0,0,0,0,0,0,0,0,0,0,0,0,0,0,0,0,0,0,0,0,0,0,0,0,0,0,0,0,0,0,0,0,0,0,0,0,0,0,0,0,0,0,0,0,0,0,0,0,0,0,0,0,0,0,0,0,0,0,0,0,0,0,0,0,0,0,0,0,0,0,0,0,0,0,0,0,0,0,0,0,0,0,0,0,0,0,0,0,0,0,0,0,0,0,0,0,0,0,0,0,0,0,0,0,0,0,0,0,0,0,0,0,0,0,0,0,0,0,0,0,0,0,0,0,0,0,0,0,0,0,0,0,0,0,0,0,0,0,0,0,0,0,0,0,0,0,0,0,0,0,
0,0,0,0,0,0,189,0,0,0,0,0,0,0,0,0,0,0,0,0,0,0,0,0,0,0,0,0,0,0,0,0,0,0,0,0,0,189,0,0,0,0,0,0,0,0,0,0,0,0,0,0,0,0,189,0,0,0,0,0,0,0,0,0,0,0,0,0,189,0,0,0,0,0,0,189,0,183,0,0,0,0,0,0,0,0,0,0,0,0,0,0,0,0,0,0,0,0,0,0,221,222,223,224,0,0,0,0,0,0,0,0,0,0,0,0,0,0,0,0,0,0,0,0,0,0,0,0,0,0,0,221,222,223,224,0,0,0,0,0,0,0,0,0,0,0,0,0,0,0,0,0,0,0,0,0,0,0,0,0,0,0,0,0,0,0,0,0,0,0,0,0,0,0,0,0,0,0,0,0,0,0,0,0,0,0,0,0,0,0,189,0,0,0,0,0,0,0,0,0,0,0,0,0,0,0,0,0,0,0,0,0,0,0,0,0,0,0,0,0,0,0,0,0,0,0,0,0,0,0,0,0,0,0,0,0,0,0,0,0,0,0,0,0,0,0,0,0,0,0,0,0,0,0,0,0,0,0,0,0,0,0,0,0,0,0,0,0,0,0,0,0,0,0,0,0,0,0,0,0,0,0,0,0,0,0,0,0,0,0,0,0,0,0,0,0,0,0,0,0,
0,0,0,0,0,0,204,0,0,0,0,0,0,0,0,0,0,0,0,0,0,0,0,0,0,0,0,0,0,0,0,0,0,0,0,0,0,204,0,0,0,0,0,0,0,0,0,0,0,0,0,0,0,0,204,0,0,0,0,0,0,0,0,0,0,0,0,0,204,0,0,0,0,0,0,204,0,198,0,0,0,0,0,0,0,0,0,0,0,0,0,0,0,0,0,0,0,0,0,0,0,0,0,0,0,0,0,0,0,0,0,0,0,0,0,0,0,0,0,0,0,0,0,0,0,0,0,0,0,0,0,0,0,0,0,0,0,0,0,0,0,0,0,0,0,0,0,0,0,0,0,0,0,0,0,0,0,0,0,0,0,0,0,0,0,0,0,0,0,0,0,0,0,0,0,0,0,0,0,0,0,0,0,0,0,0,0,0,0,0,204,0,0,0,0,0,0,0,0,0,0,0,0,0,0,0,0,0,0,0,0,0,0,0,0,0,0,0,0,0,0,0,0,0,0,0,0,0,0,0,0,0,0,0,0,0,0,0,0,0,0,0,0,0,0,0,0,0,0,0,0,0,0,0,0,0,0,0,0,0,0,0,0,0,0,0,0,0,0,0,0,0,0,0,0,0,0,0,0,0,0,0,0,0,0,0,0,0,0,0,0,0,0,0,0,0,0,0,0,0,
0,0,0,0,0,0,0,0,0,0,0,0,0,0,0,0,0,0,0,0,0,0,0,0,0,0,0,0,0,0,0,0,0,0,0,0,0,0,0,0,0,0,0,0,0,0,0,0,0,0,0,0,0,0,0,0,0,0,0,0,0,0,0,0,0,0,0,0,0,0,0,0,0,0,0,0,0,0,0,0,0,0,0,0,0,0,0,0,0,0,0,0,0,0,0,0,0,0,0,0,0,0,0,0,0,0,0,0,0,0,0,0,0,0,0,0,0,0,0,0,0,0,0,0,0,0,0,0,0,0,0,0,0,0,0,0,0,0,0,0,0,0,0,0,0,0,0,0,0,0,0,0,0,0,0,0,0,0,0,0,0,0,0,0,0,0,0,0,0,0,0,0,0,0,0,0,0,0,0,0,0,0,0,0,0,0,0,0,0,0,0,0,0,0,0,0,0,0,0,0,0,0,0,0,0,0,0,0,0,0,0,0,0,0,0,0,0,0,0,0,0,0,0,0,0,0,0,0,0,0,0,0,0,0,0,0,0,0,0,0,0,0,0,0,0,0,0,0,0,0,0,0,0,0,0,0,0,0,0,0,0,0,0,0,0,0,0,0,0,0,0,0,0,0,0,0,0,0,0,0,0,0,0,0,0,0,0,0,0,0,0,0,0,0,0,0,0,0,0,0,
0,0,0,0,0,0,0,0,0,0,0,0,0,0,0,0,0,0,0,0,0,0,0,0,0,0,0,0,0,0,0,0,0,0,0,0,0,0,0,0,0,0,0,0,0,0,0,0,0,0,0,0,0,0,0,0,0,0,0,0,0,0,0,0,0,0,0,0,0,0,0,0,0,0,0,0,0,0,0,0,0,0,0,0,0,0,0,0,0,0,0,0,0,0,0,0,0,0,0,0,0,0,0,0,0,0,0,0,0,0,0,0,0,0,0,0,0,0,0,0,0,0,0,0,0,0,0,0,0,0,0,0,0,0,0,200,201,202,0,0,0,0,0,0,0,0,0,0,0,0,0,0,0,0,0,0,0,0,0,0,0,0,0,0,0,0,0,0,0,0,0,0,0,0,0,0,0,0,0,0,0,0,0,0,0,0,0,0,0,0,0,0,200,201,202,0,0,0,0,0,0,0,0,0,0,0,0,0,0,0,0,0,0,0,0,0,0,0,0,0,0,0,0,0,0,0,0,0,0,0,0,0,0,0,0,0,0,0,0,0,0,0,0,0,0,0,0,0,0,0,0,0,0,0,0,0,0,0,0,0,0,0,0,0,0,0,0,0,0,0,0,0,0,0,0,0,0,0,0,0,0,0,0,0,0,0,0,0,0,0,0,0,0,0,0,0,0,0,0,0,
0,0,0,0,0,0,0,0,0,0,0,0,0,0,0,0,0,0,0,0,0,0,0,0,0,0,0,0,0,0,0,0,0,0,0,0,0,0,0,0,0,0,0,0,0,0,0,0,0,0,0,0,0,0,0,0,0,0,0,0,0,0,0,0,0,0,0,0,0,0,0,0,0,0,0,0,0,0,0,0,0,0,0,0,0,0,0,0,0,0,0,0,0,0,0,0,0,0,0,0,0,0,0,0,0,0,0,0,0,0,0,0,0,0,0,0,0,0,0,0,0,0,0,0,0,0,0,0,0,0,0,0,0,0,0,0,0,0,0,0,0,0,0,0,0,0,0,0,0,0,0,0,0,0,0,0,0,0,0,0,0,0,0,0,0,0,0,0,0,0,0,0,0,0,0,0,0,0,0,0,0,0,0,0,0,0,0,0,0,0,0,0,0,0,0,0,0,0,0,0,0,0,0,0,0,0,0,0,0,0,0,0,0,0,0,0,0,0,0,0,0,0,0,0,0,0,0,0,0,0,0,0,0,0,0,0,0,0,0,0,0,0,0,0,0,0,0,0,0,0,0,0,0,0,0,0,0,0,0,0,0,0,0,0,0,0,0,0,0,0,0,0,0,0,0,0,0,0,0,0,0,0,0,0,0,0,0,0,0,0,0,0,0,0,0,0,0,0,0,0,
0,0,0,0,0,0,0,0,0,0,200,201,202,0,0,0,0,0,0,0,0,0,0,0,0,0,0,0,0,0,0,0,0,0,0,0,0,0,0,0,0,0,0,0,0,0,0,0,0,0,0,0,0,0,0,0,0,0,0,0,0,0,0,0,0,0,0,0,0,0,0,0,0,0,0,0,0,0,0,0,0,0,0,0,0,0,0,0,0,0,0,0,0,0,0,0,0,0,0,0,0,0,0,0,0,0,0,0,0,0,0,0,0,0,0,0,0,0,0,0,0,0,0,0,0,0,0,0,0,0,0,0,0,0,0,0,0,0,0,0,0,0,0,0,0,0,0,0,0,0,0,0,0,0,0,0,0,0,0,0,0,0,0,0,0,0,0,0,0,0,0,0,0,0,0,0,0,0,0,0,0,0,0,0,0,0,0,0,0,0,0,0,0,0,0,0,0,0,0,0,0,0,0,0,0,0,0,0,0,0,0,0,0,0,0,0,0,0,0,0,0,0,0,0,0,0,0,0,0,0,0,0,0,0,0,0,0,0,0,0,0,0,0,0,0,0,0,0,0,0,0,0,0,0,0,0,0,0,0,0,0,0,0,0,0,0,0,0,0,0,0,0,0,0,0,0,0,0,0,0,0,0,0,0,0,0,0,0,0,0,0,0,0,0,0,0,0,0,0,0,
0,0,0,0,0,0,0,0,0,0,0,0,0,0,0,0,0,0,0,0,0,0,0,0,0,0,0,0,0,0,0,0,0,0,0,0,0,0,0,0,0,0,0,0,0,0,0,0,0,0,0,0,0,0,0,0,0,0,182,0,0,0,0,0,0,0,0,0,0,0,0,0,0,0,0,0,0,0,0,0,0,0,0,0,0,0,0,0,0,0,0,0,0,0,0,0,0,0,0,0,0,0,0,0,0,0,0,0,0,0,0,0,0,0,0,0,0,0,0,0,0,0,0,0,0,0,0,0,0,0,0,0,0,0,0,0,0,0,0,0,0,0,0,0,0,0,0,0,0,0,0,0,0,0,0,0,0,0,0,0,0,0,0,0,0,0,0,0,0,0,0,0,0,0,0,0,0,0,0,0,0,0,0,0,0,0,0,0,0,0,0,0,0,0,0,0,0,0,0,0,0,0,0,0,0,0,0,0,0,0,0,0,0,0,0,0,0,0,0,0,0,0,0,0,0,0,0,0,0,0,0,0,0,0,0,0,0,0,0,0,0,0,0,0,0,0,0,0,0,0,0,0,0,0,0,0,0,0,0,0,0,0,0,0,0,0,0,0,0,0,0,0,0,0,0,0,0,0,0,0,0,0,0,0,0,0,0,0,0,0,0,0,0,0,0,0,0,0,0,0,
0,0,0,0,0,0,0,0,0,0,0,0,0,0,0,0,0,0,0,0,0,0,0,0,0,0,0,0,0,0,0,0,0,0,0,0,0,0,0,0,0,0,0,0,0,0,0,0,0,0,0,0,0,0,0,0,0,0,0,0,0,0,0,0,0,0,0,0,0,0,0,0,0,0,0,0,0,0,0,0,0,0,0,0,0,0,0,0,0,0,0,0,0,0,0,0,0,0,0,0,0,0,0,0,0,0,0,0,0,0,0,0,0,0,0,0,0,0,0,0,0,0,0,0,0,0,0,0,0,0,0,0,0,0,0,0,0,0,0,0,0,0,0,0,0,0,0,0,0,0,0,0,0,0,0,0,0,0,0,0,0,0,0,0,0,0,0,0,0,0,0,0,0,0,0,0,0,0,0,0,0,0,0,0,0,0,0,0,0,0,0,0,0,0,0,0,0,0,0,0,0,0,0,0,0,0,0,0,0,0,0,0,0,0,0,0,0,0,0,0,0,0,0,0,0,0,0,0,0,0,0,0,0,0,0,0,0,0,0,0,0,0,0,0,0,0,0,0,0,0,0,0,0,0,0,0,0,0,0,0,0,0,0,0,0,0,0,0,0,0,0,0,0,0,0,0,0,0,0,0,0,0,0,0,0,0,0,0,0,0,0,0,0,0,0,0,0,0,0,0,
0,0,0,0,0,0,0,0,0,0,0,0,0,0,0,0,0,0,0,0,0,0,0,0,0,0,0,0,0,0,0,0,0,0,0,0,0,0,0,0,0,0,0,0,0,0,0,0,0,0,0,0,0,0,0,0,0,0,0,0,0,0,0,0,0,0,0,0,0,0,0,0,0,0,0,0,0,0,0,0,0,0,0,0,0,0,0,0,0,0,0,0,0,0,0,0,0,0,0,0,0,0,0,0,0,0,0,0,0,0,0,0,0,0,0,0,0,0,0,0,0,0,0,0,0,0,0,0,0,0,0,0,0,0,0,0,0,0,0,0,0,0,0,0,0,0,0,0,0,0,0,0,0,0,0,0,0,0,0,0,0,0,0,0,0,0,0,0,0,0,0,0,0,0,0,0,0,0,0,0,0,0,0,0,0,0,0,0,0,0,0,0,0,0,0,0,0,0,0,0,0,0,0,0,0,0,0,0,0,0,0,0,0,0,0,0,0,0,0,0,0,0,0,0,0,0,0,0,0,0,0,0,0,0,0,0,0,0,0,0,0,0,0,0,0,0,0,0,0,0,0,0,0,0,0,0,0,0,0,0,0,0,0,0,0,0,0,0,0,0,0,0,0,0,0,0,0,0,0,0,0,0,0,0,0,0,0,0,0,0,0,0,0,0,0,0,0,0,0,0,
0,0,0,0,0,0,0,0,0,0,0,0,0,0,0,0,0,0,0,0,0,0,0,0,0,0,0,0,0,0,0,0,0,0,0,0,0,0,0,0,0,182,183,184,0,0,0,0,0,0,0,0,0,0,0,0,0,0,200,201,202,0,0,0,0,0,0,0,0,0,0,0,0,0,0,0,0,0,0,0,0,0,0,0,0,0,0,0,0,0,0,0,0,0,0,0,0,0,0,0,0,0,0,0,0,0,0,0,0,0,0,0,0,0,0,0,0,0,0,0,0,0,0,0,0,0,0,0,0,0,0,0,0,0,0,0,0,0,0,0,0,0,0,0,0,0,0,0,0,0,0,0,0,0,0,0,0,0,0,0,0,0,0,0,0,0,0,0,0,0,0,0,0,0,0,0,0,0,0,0,0,0,0,0,0,0,0,0,0,0,0,0,0,0,0,0,0,0,0,0,0,0,0,0,0,0,0,0,0,0,0,0,0,0,0,0,0,0,0,0,0,0,0,0,0,0,0,0,0,0,0,0,0,0,0,0,0,0,0,0,0,0,0,0,0,0,0,0,0,0,0,0,0,0,0,0,0,0,0,0,0,0,0,0,0,0,0,0,0,0,0,0,0,0,0,0,0,0,0,0,0,0,0,0,0,0,0,0,0,0,0,0,0,0,0,0,0,0,0,0,
0,0,0,0,0,0,0,0,0,0,0,0,0,0,0,0,0,0,0,0,0,0,0,0,0,183,184,0,0,0,0,0,0,0,0,0,0,0,0,0,0,0,0,0,0,0,0,0,0,0,0,0,0,0,0,0,0,0,0,0,0,0,0,0,0,0,0,0,0,0,0,0,0,0,0,0,0,0,0,0,0,0,0,0,0,0,0,0,0,0,0,0,0,0,0,0,0,0,0,0,0,0,0,0,0,0,0,0,0,0,0,0,0,0,0,0,0,0,0,0,0,0,0,0,0,0,0,0,0,0,0,0,0,0,0,0,0,0,0,0,0,0,0,0,0,0,0,0,0,0,0,0,0,0,0,0,0,0,0,0,0,0,0,0,0,0,0,0,0,0,0,0,0,0,0,0,0,0,0,0,0,0,0,0,0,0,0,0,0,0,0,0,0,0,0,0,0,0,0,0,0,0,0,0,0,0,0,0,0,0,0,0,0,0,0,0,0,0,0,0,0,0,0,0,0,0,0,0,0,0,0,0,0,0,0,0,0,0,0,0,0,0,0,0,0,0,0,0,0,0,0,0,0,0,0,0,0,0,0,0,0,0,0,0,0,0,0,0,0,0,0,0,0,0,0,0,0,0,0,0,0,0,0,0,0,0,0,0,0,0,0,0,0,0,0,0,0,0,0,0,
0,0,0,0,0,0,0,0,0,0,0,0,0,0,0,0,0,0,0,0,0,0,0,0,0,0,0,0,0,0,0,0,0,0,0,0,0,0,0,0,0,0,0,0,0,0,0,0,0,0,0,0,0,0,0,0,0,0,0,0,0,0,0,0,0,185,186,187,0,0,0,0,0,0,0,0,0,0,0,0,0,0,0,0,0,0,0,0,0,0,0,0,0,0,0,0,0,0,0,0,0,0,0,0,0,0,0,0,0,0,0,0,0,0,0,0,0,0,0,0,0,0,0,0,0,0,0,0,0,0,0,0,0,0,0,0,0,0,0,0,0,0,0,0,0,0,0,0,0,0,0,0,0,0,0,0,0,0,0,0,0,0,0,0,0,0,0,0,0,0,0,0,0,0,0,0,0,0,0,0,200,201,202,0,0,0,0,0,0,0,0,0,0,0,0,0,0,0,0,0,0,0,0,0,0,0,0,0,0,0,0,0,0,0,0,0,0,0,0,0,0,0,0,0,0,0,0,0,0,0,0,0,0,0,0,0,0,0,0,0,0,0,0,0,0,0,0,0,0,0,0,0,0,0,0,0,0,0,0,0,0,0,0,0,0,0,0,0,0,0,0,0,0,0,0,0,0,0,0,0,0,0,0,0,0,0,0,0,0,0,0,0,0,0,0,0,0,0,0,0,
0,0,0,0,0,0,0,0,0,0,0,0,0,0,0,185,186,187,185,186,187,0,0,0,0,0,0,0,0,0,0,0,0,0,0,0,0,0,0,200,201,202,0,0,0,0,0,0,0,0,0,0,0,0,0,0,0,0,0,0,0,0,0,0,0,0,0,0,0,0,0,0,0,0,0,0,0,0,0,0,0,0,189,0,0,0,0,0,0,0,0,0,0,0,0,0,0,0,0,0,0,0,0,0,0,0,0,0,0,0,0,0,0,0,0,0,0,0,0,0,0,0,0,0,0,0,0,0,0,0,0,0,0,0,0,0,0,0,0,0,0,0,0,0,0,0,0,0,0,0,0,0,0,0,0,0,0,0,0,0,0,0,0,0,0,0,0,0,0,0,0,0,0,0,0,0,0,0,0,0,0,0,0,0,0,0,0,0,0,0,0,0,0,0,0,0,0,0,0,0,0,0,0,0,0,0,0,0,0,0,0,0,0,0,0,0,0,0,0,0,0,0,0,0,0,0,0,0,0,0,0,0,0,0,0,0,0,0,0,0,0,0,0,0,0,0,0,0,0,0,0,0,0,0,0,0,0,0,0,0,0,0,0,0,0,0,0,0,0,0,0,0,0,0,0,0,0,0,0,0,0,0,0,0,0,0,0,0,0,0,0,0,0,0,0,0,0,0,0,0,
0,0,0,0,0,0,0,0,0,0,0,0,0,0,0,0,0,0,0,0,0,0,0,0,0,0,0,0,0,0,0,0,0,0,0,0,0,0,0,185,186,187,185,186,187,0,0,0,0,0,221,222,223,224,0,0,0,0,0,0,0,0,0,0,0,0,0,0,0,0,0,0,0,0,0,0,0,0,0,0,0,0,204,0,0,0,0,0,0,0,0,0,0,0,0,0,0,0,0,0,0,0,0,0,0,0,0,0,0,0,0,0,0,0,0,0,0,0,0,0,0,0,0,0,0,0,0,0,0,0,0,0,0,0,0,0,0,0,0,0,0,0,0,0,0,0,0,0,0,0,0,0,0,0,0,0,0,0,0,0,0,0,0,0,0,0,0,0,0,0,0,0,0,0,0,0,0,0,0,0,0,0,0,0,0,0,0,0,0,0,0,0,0,0,0,0,0,0,0,0,0,0,0,0,0,0,0,0,0,0,0,0,0,0,0,0,0,0,0,0,0,0,0,0,0,0,0,0,0,0,0,0,0,0,0,0,0,0,0,0,0,0,0,0,0,0,0,0,0,0,0,0,0,0,0,0,0,0,0,0,0,0,0,0,0,0,0,0,0,0,0,0,0,0,0,0,0,0,0,0,0,0,0,0,0,0,0,0,0,0,0,0,0,0,0,0,0,0,0,0,
0,0,0,0,0,0,0,0,0,0,0,0,0,0,0,0,0,0,0,0,0,0,0,0,0,0,0,0,0,0,0,0,0,0,0,0,0,0,0,0,0,0,0,0,0,0,0,0,0,0,0,0,0,0,0,0,0,0,0,0,0,0,0,0,0,0,0,0,0,0,0,0,0,0,0,0,0,0,0,0,0,0,0,0,0,0,0,0,0,0,0,0,0,0,0,0,0,0,0,0,0,0,0,0,0,0,0,0,0,0,0,0,0,0,0,0,0,0,0,0,0,0,0,0,0,0,0,0,0,0,0,0,0,0,0,0,0,0,0,0,0,0,0,0,0,0,0,0,0,0,0,0,0,0,0,0,0,0,0,0,0,0,0,0,0,0,0,0,0,0,0,0,0,0,0,0,0,0,0,0,0,0,0,0,0,0,0,0,0,0,0,0,0,0,0,0,0,0,0,0,0,0,0,0,0,0,0,0,0,0,0,0,0,0,0,0,0,0,0,0,0,0,0,0,0,0,0,0,0,0,0,0,0,0,0,0,0,0,0,0,0,0,0,0,0,0,0,0,0,0,0,0,0,0,0,0,0,0,0,0,0,0,0,0,0,0,0,0,0,0,0,0,0,0,0,0,0,0,0,0,0,0,0,0,0,0,0,0,0,0,0,0,0,0,0,0,0,0,0,0
</data>
 </layer>
 <objectgroup id="8" name="End goal">
  <object id="3" name="goal" x="4740" y="109" width="32" height="32"/>
 </objectgroup>
 <objectgroup id="6" name="spawn">
  <object id="2" name="spawn" x="17" y="152" width="16" height="32"/>
 </objectgroup>
</map>
