<?xml version="1.0" encoding="UTF-8"?>
<map version="1.10" tiledversion="1.12.1" orientation="orthogonal" renderorder="left-up" width="150" height="18" tilewidth="16" tileheight="16" infinite="0" nextlayerid="6" nextobjectid="6">
 <tileset firstgid="1" source="../Assets/Tilesets/Tiles.tsx"/>
 <layer id="1" name="Walkable tiles" width="150" height="18">
  <data encoding="csv">
0,0,0,0,0,0,0,0,0,0,0,0,0,0,0,0,0,0,0,0,0,1610612950,17,18,19,0,0,0,0,0,0,0,0,0,0,0,0,0,0,0,0,0,17,18,19,0,0,0,0,0,0,0,0,0,0,0,17,18,18,18,18,18,18,18,18,18,18,18,18,18,18,18,18,18,18,18,18,19,0,0,0,0,0,0,0,0,0,0,0,0,0,0,17,18,19,0,0,0,0,0,0,0,0,0,0,0,0,0,0,0,0,0,0,0,0,17,18,19,0,0,0,0,0,0,0,0,0,0,0,0,0,17,18,19,0,0,0,0,0,0,0,0,0,0,0,0,0,0,0,0,
0,0,0,0,0,0,0,0,0,0,0,0,0,0,0,0,0,0,0,0,0,1610612950,32,33,34,0,0,0,0,0,0,0,0,0,0,0,0,0,0,0,0,0,32,33,34,0,0,0,0,0,0,0,0,0,0,0,32,33,33,33,33,33,33,33,33,33,33,33,33,33,33,33,33,33,33,33,33,34,0,0,0,0,0,0,0,0,0,0,0,0,0,0,32,33,34,0,0,0,0,0,0,0,0,0,0,0,0,0,0,0,0,0,0,0,0,32,33,34,0,0,0,0,0,0,0,0,0,0,0,0,0,32,33,34,0,0,0,0,0,0,0,0,0,0,0,0,0,0,0,0,
0,0,0,0,0,0,0,0,0,0,0,0,0,0,0,0,0,0,0,0,0,1610612950,32,33,34,0,0,0,0,0,0,0,0,0,0,0,0,158,0,0,0,0,32,33,34,0,0,0,0,0,0,0,0,0,0,0,32,33,34,47,47,47,47,47,47,47,47,47,47,47,47,47,47,47,47,47,33,34,0,0,0,0,0,0,0,0,0,0,0,0,0,0,32,33,34,0,0,0,0,0,0,0,0,0,0,0,0,0,0,0,0,0,0,0,0,32,33,34,0,0,0,0,0,0,0,0,0,0,0,0,0,32,33,34,0,0,0,0,0,0,0,0,0,0,0,0,0,0,0,0,
0,0,0,0,0,0,0,0,0,0,0,0,0,0,17,18,19,0,0,0,0,1610612950,32,33,34,0,0,0,0,0,0,0,0,0,0,0,17,18,19,0,0,2684354793,32,33,34,0,0,0,0,0,0,0,0,0,0,0,32,33,34,3221225686,3221225686,3221225686,3221225686,0,0,0,0,0,0,0,0,0,0,0,0,32,33,34,0,0,0,17,18,18,18,18,18,18,18,19,0,0,32,33,34,0,0,0,0,0,0,0,0,77,79,0,0,0,0,0,0,0,0,0,0,32,33,34,0,0,0,0,0,0,0,0,0,0,0,0,0,32,33,34,0,0,0,0,0,0,0,0,0,0,0,0,0,0,0,0,
0,0,0,0,0,0,0,0,0,0,0,0,0,0,32,33,34,2684354774,0,0,0,1610612950,32,33,34,0,0,0,0,0,0,0,0,0,0,0,32,33,34,0,0,2684354794,32,33,34,0,0,0,0,0,0,0,0,0,0,0,32,33,34,0,0,0,0,0,0,0,0,0,0,0,0,0,0,0,0,32,33,34,137,138,139,32,47,47,47,47,28,28,29,34,0,0,32,33,34,0,0,0,0,0,0,0,0,107,109,0,0,0,0,0,0,0,0,0,0,32,33,34,0,0,0,0,0,0,0,0,0,0,0,0,0,32,33,34,0,0,0,0,0,0,0,0,0,0,0,0,0,0,0,0,
0,0,0,0,0,0,0,0,0,0,0,0,0,0,32,33,34,2684354774,0,0,0,1610612950,32,33,34,0,0,0,0,0,0,0,0,0,0,0,32,33,34,0,0,2684354795,32,33,34,0,0,17,18,18,18,18,19,0,0,0,32,33,34,0,0,0,0,0,0,0,0,0,0,0,0,0,0,0,0,32,33,34,0,0,0,0,0,0,0,32,43,43,44,34,0,0,32,33,34,0,0,0,0,0,0,0,0,0,0,0,0,0,0,0,77,79,0,0,0,32,33,34,0,0,0,0,0,0,0,0,0,77,79,0,0,32,33,34,0,0,0,0,0,0,0,0,0,0,0,0,0,0,0,0,
0,0,0,0,0,0,0,0,0,0,0,0,0,0,32,33,34,2684354774,0,0,0,1610612950,32,33,34,0,0,0,0,0,1610612950,17,18,19,0,0,32,33,34,0,0,0,32,33,34,0,0,32,33,33,33,33,34,0,0,0,32,33,34,0,0,0,0,0,0,0,0,0,0,0,0,0,0,0,0,32,33,34,0,0,0,0,0,0,0,32,28,29,59,34,0,0,32,33,34,0,0,77,79,0,0,0,0,0,0,0,214,214,214,0,107,109,0,0,2684354793,32,33,34,1610612971,0,0,0,0,0,0,0,0,107,109,0,0,32,33,34,0,0,0,0,0,0,0,0,0,0,0,0,0,0,0,0,
0,0,0,0,0,0,0,0,0,0,0,0,0,0,32,33,34,2684354774,0,0,0,1610612950,32,33,34,0,0,0,0,0,1610612950,32,33,34,0,0,32,33,34,0,0,0,48,47,49,137,139,32,33,47,48,47,49,0,0,0,32,33,34,0,0,0,0,0,0,0,214,214,214,0,0,0,0,0,0,32,33,34,0,0,0,0,0,0,0,32,43,28,29,34,0,0,32,33,34,0,0,107,109,0,0,0,0,0,0,0,17,18,19,0,0,0,0,0,2684354794,32,33,34,1610612970,0,0,0,0,0,0,0,0,0,0,0,0,32,33,34,0,0,0,0,0,0,0,0,0,0,0,0,0,0,0,0,
0,0,0,0,0,0,0,0,0,77,79,0,0,0,32,33,34,2684354774,0,0,0,1610612950,48,47,49,0,152,153,154,0,1610612950,48,47,49,0,0,32,33,34,0,0,0,0,0,0,0,0,32,33,34,0,0,0,0,0,0,32,33,34,0,0,0,0,17,18,18,18,18,18,18,18,19,2684354774,0,0,32,33,34,0,0,0,0,0,0,0,32,58,43,44,34,0,0,32,33,34,0,0,0,0,0,0,0,0,0,0,0,32,33,34,0,0,0,0,0,2684354795,48,47,49,1610612969,0,0,0,0,0,77,79,0,0,0,0,0,32,33,34,0,0,0,0,0,0,0,0,0,0,0,0,0,0,0,0,
0,0,0,0,0,0,0,0,0,107,109,0,0,0,32,33,34,2684354774,0,0,0,0,233,234,235,0,0,0,0,0,0,0,0,0,0,0,32,33,34,0,0,0,0,0,0,0,0,32,33,34,0,0,0,0,0,0,32,33,34,0,0,0,0,32,33,33,33,33,33,33,33,34,2684354774,0,0,32,33,34,17,19,1610612971,0,0,0,2684354793,32,43,58,59,34,0,0,32,33,34,0,0,0,0,0,0,0,77,79,0,0,32,33,34,0,0,0,0,0,0,233,234,235,0,0,0,0,0,0,107,109,0,0,0,0,0,32,33,34,0,0,0,0,0,0,0,0,0,0,77,78,78,78,78,79,
0,0,0,0,0,0,0,0,0,0,0,0,0,0,32,33,34,2684354774,0,0,0,0,0,0,0,0,0,0,0,0,0,0,0,0,0,0,32,33,34,0,0,0,0,0,0,0,0,32,33,34,0,0,0,0,0,0,32,33,34,137,138,138,139,32,33,47,47,47,47,47,47,49,2684354775,0,0,32,33,34,32,34,1610612970,0,0,0,2684354794,32,58,59,58,34,0,0,32,33,34,0,0,0,0,0,0,0,107,109,0,0,32,33,34,0,0,0,0,0,0,0,0,0,0,0,0,0,0,0,0,0,0,0,0,0,0,32,33,34,0,0,0,0,0,1610612950,77,79,0,0,92,93,93,93,93,94,
0,0,0,0,0,0,0,0,0,0,0,0,0,0,32,33,34,2684354774,0,0,0,0,0,0,0,0,0,0,0,0,0,0,0,0,0,0,32,33,34,2684354774,0,0,0,0,0,0,0,32,33,34,0,0,0,0,0,0,32,33,34,0,0,0,0,32,33,34,2684354774,0,0,0,0,0,0,0,0,32,33,34,48,49,1610612969,0,0,0,2684354795,48,47,47,73,34,0,0,48,47,49,0,0,0,0,0,0,0,0,0,0,0,32,33,34,0,0,0,0,0,0,0,0,0,0,0,0,0,0,0,0,0,0,0,0,0,0,48,47,49,0,0,0,0,0,1610612951,107,109,0,0,92,93,93,93,93,94,
17,18,18,18,18,19,0,0,0,0,0,0,0,0,32,33,34,2684354774,0,0,0,0,0,0,0,0,0,0,0,0,0,0,0,0,0,0,32,33,34,2684354774,0,0,0,0,137,138,139,32,33,34,0,0,0,3221225707,3221225706,3221225705,32,33,34,152,0,0,0,32,33,34,2684354775,0,0,0,0,0,0,0,0,32,17,82,0,0,0,137,138,139,0,0,0,32,69,34,0,0,0,0,0,0,0,0,0,0,0,0,0,0,0,0,32,33,34,0,0,0,0,0,0,0,0,0,0,0,0,77,79,0,0,0,0,0,0,0,0,0,0,0,0,0,0,0,0,0,0,0,0,0,92,93,93,93,93,94,
32,33,33,33,33,34,0,0,0,0,0,0,0,0,32,33,34,2684354774,152,153,154,0,0,0,0,0,152,153,154,0,0,0,0,0,0,0,32,33,34,2684354774,0,0,0,0,0,0,0,32,33,34,0,0,0,17,18,19,19,19,19,0,0,0,0,32,33,34,2684354774,0,0,48,47,47,47,47,47,47,82,0,0,0,0,0,0,0,0,0,0,32,84,34,0,0,0,0,0,0,0,0,77,79,0,0,0,0,0,0,32,33,34,0,0,0,0,0,0,0,0,0,0,0,0,107,109,0,0,0,0,0,0,0,0,0,0,0,0,0,0,0,0,0,0,0,0,0,92,93,93,93,93,94,
32,33,33,33,33,34,0,0,0,0,0,0,0,0,32,33,34,2684354774,0,0,0,0,0,0,0,0,0,0,0,0,0,0,0,0,0,0,32,33,34,2684354774,0,0,0,0,0,0,0,32,33,34,0,0,0,0,0,0,0,0,0,0,0,0,0,32,33,34,2684354774,0,0,0,0,0,0,0,0,0,0,0,0,0,0,0,0,0,0,0,0,32,99,34,0,0,0,0,0,0,0,0,107,109,0,0,0,0,0,0,32,33,34,0,0,0,0,0,0,137,138,139,0,0,0,0,0,0,0,0,0,0,0,0,0,0,0,0,0,0,0,77,79,0,0,0,0,0,92,93,93,93,93,94,
32,33,33,33,33,34,0,0,0,0,0,0,0,0,32,33,34,2684354774,0,0,0,0,0,0,0,0,0,0,0,0,0,0,0,0,0,0,32,33,34,2684354774,0,0,0,0,0,0,0,32,33,34,0,0,0,0,0,0,0,0,0,0,0,0,0,32,33,34,2684354775,0,0,0,0,0,0,0,0,0,0,0,0,0,0,0,0,0,0,0,0,32,58,34,0,0,0,0,0,0,0,0,0,0,0,0,0,0,0,0,32,33,34,0,0,0,0,0,0,0,0,0,0,0,0,0,0,0,0,0,0,0,0,0,0,0,0,0,0,0,0,107,109,0,0,0,0,0,92,93,93,93,93,94,
32,33,33,33,33,34,0,0,0,0,0,0,0,0,32,33,34,2684354774,0,0,0,0,0,0,0,0,0,0,0,0,0,0,0,0,0,0,32,33,34,2684354774,0,0,0,0,0,0,0,32,33,34,17,18,18,18,18,18,18,18,18,18,18,18,18,48,47,49,0,137,138,138,138,138,138,138,138,138,138,138,139,0,0,77,78,79,0,0,0,32,73,34,0,0,137,138,139,0,0,0,0,0,0,0,0,0,0,0,32,33,34,0,0,0,0,0,0,0,0,0,0,0,0,0,0,0,0,0,0,0,0,0,0,137,138,139,0,0,0,0,0,0,0,0,0,0,92,93,93,93,93,94,
48,47,47,47,47,49,0,0,0,0,0,0,0,0,48,47,49,2684354774,0,0,0,0,0,0,0,0,0,0,0,0,0,0,0,0,0,0,48,47,49,0,0,0,0,0,0,0,0,48,47,49,0,0,0,0,0,0,0,0,0,0,0,0,0,0,0,0,0,0,0,0,0,0,0,0,0,0,0,0,0,0,0,0,0,0,0,0,0,48,47,49,0,0,0,0,0,0,0,0,0,0,0,0,0,0,0,0,48,47,49,0,0,0,0,0,0,0,0,0,0,0,0,0,0,0,0,0,0,0,0,0,0,0,0,0,0,0,0,0,0,0,0,0,0,0,107,108,108,108,108,109
</data>
 </layer>
 <layer id="4" name="deadly" width="150" height="18">
  <data encoding="csv">
0,0,0,0,0,0,0,0,0,0,0,0,0,0,0,0,0,0,0,0,0,0,0,0,0,0,0,0,0,0,0,0,0,0,0,0,0,0,0,0,0,0,0,0,0,0,0,0,0,0,0,0,0,0,0,0,0,0,0,0,0,0,0,0,0,0,0,0,0,0,0,0,0,0,0,0,0,0,0,0,0,0,0,0,0,0,0,0,0,0,0,0,0,0,0,0,0,0,0,0,0,0,0,0,0,0,0,0,0,0,0,0,0,0,0,0,0,0,0,0,0,0,0,0,0,0,0,0,0,0,0,0,0,0,0,0,0,0,0,0,0,0,0,0,0,0,0,0,0,0,
0,0,0,0,0,0,0,0,0,0,0,0,0,0,0,0,0,0,0,0,0,0,0,0,0,0,0,0,0,0,0,0,0,0,0,0,0,0,0,0,0,0,0,0,0,0,0,0,0,0,0,0,0,0,0,0,0,0,0,0,0,0,0,0,0,0,0,0,0,0,0,0,0,0,0,0,0,0,0,0,0,0,0,0,0,0,0,0,0,0,0,0,0,0,0,0,0,0,0,0,0,0,0,0,0,0,0,0,0,0,0,0,0,0,0,0,0,0,0,0,0,0,0,0,0,0,0,0,0,0,0,0,0,0,0,0,0,0,0,0,0,0,0,0,0,0,0,0,0,0,
0,0,0,0,0,0,0,0,0,0,0,0,0,0,0,0,0,0,0,0,0,0,0,0,0,0,0,0,0,0,0,0,0,0,0,0,0,0,0,0,0,0,0,0,0,0,0,0,0,0,0,0,0,0,0,0,0,0,0,0,0,0,0,0,0,0,0,0,0,0,0,0,0,0,0,0,0,0,0,0,0,0,0,0,0,0,0,0,0,0,0,0,0,0,0,0,0,0,0,0,0,0,0,0,0,0,0,0,0,0,0,0,0,0,0,0,0,0,0,0,0,0,0,0,0,0,0,0,0,0,0,0,0,0,0,0,0,0,0,0,0,0,0,0,0,0,0,0,0,0,
0,0,0,0,0,0,0,0,0,0,0,0,0,0,0,0,0,0,0,0,0,0,0,0,0,0,0,0,0,0,0,0,0,0,0,0,0,0,0,0,0,0,0,0,0,0,0,0,0,0,0,0,0,0,0,0,0,0,0,0,0,0,0,0,0,0,0,0,0,0,0,0,0,0,0,0,0,0,0,0,0,0,0,0,0,0,0,0,0,0,0,0,0,0,0,0,0,0,0,0,0,0,0,0,0,0,0,0,0,0,0,0,0,0,0,0,0,0,0,0,0,0,0,0,0,0,0,0,0,0,0,0,0,0,0,0,0,0,0,0,0,0,0,0,0,0,0,0,0,0,
0,0,0,0,0,0,0,0,0,0,0,0,0,1610612950,0,0,0,0,0,0,0,0,0,0,0,0,0,0,0,0,0,0,0,0,0,0,0,0,0,0,0,0,0,0,0,0,0,0,0,0,0,0,0,0,0,0,0,0,0,0,0,0,0,0,0,0,0,0,0,0,0,0,0,0,0,0,0,0,0,0,0,0,0,0,0,0,0,0,0,0,0,0,0,0,0,0,0,0,0,0,0,0,0,0,0,0,0,0,0,0,0,0,0,0,0,0,0,0,0,0,0,0,0,0,0,0,0,0,0,0,0,0,0,0,0,0,0,0,0,0,0,0,0,0,0,0,0,0,0,0,
0,0,0,0,0,0,0,0,0,0,0,0,0,1610612950,0,0,0,0,0,0,0,0,0,0,0,0,0,0,0,0,0,0,0,0,0,0,0,0,0,0,0,0,0,0,0,0,0,0,0,0,0,0,0,0,0,0,0,0,0,0,0,0,0,0,0,0,0,0,0,0,0,0,0,0,0,0,0,0,0,0,0,0,0,0,0,0,0,0,0,0,0,0,0,0,0,0,0,0,0,0,0,0,0,0,0,0,0,0,0,0,0,0,0,0,0,0,0,0,0,0,0,0,0,0,0,0,0,0,0,0,0,0,0,0,0,0,0,0,0,0,0,0,0,0,0,0,0,0,0,0,
0,0,0,0,0,0,0,0,0,0,0,0,0,1610612950,0,0,0,0,0,0,0,0,0,0,0,0,0,0,0,0,0,0,0,0,0,0,0,0,0,0,0,0,0,0,0,0,0,0,0,0,0,0,0,0,0,0,0,0,0,0,0,0,0,0,0,0,0,0,0,0,0,0,0,0,0,0,0,0,0,0,0,0,0,0,0,0,0,0,0,0,0,0,0,0,0,0,0,0,0,0,0,0,0,0,0,0,0,0,0,0,0,0,0,0,0,0,0,0,0,0,0,0,0,0,0,0,0,0,0,0,0,0,0,0,0,0,0,0,0,0,0,0,0,0,0,0,0,0,0,0,
0,0,0,0,0,0,0,0,0,0,0,0,0,1610612950,0,0,0,0,0,0,0,0,0,0,0,0,0,0,0,0,0,0,0,0,0,0,0,0,0,0,0,0,0,0,0,0,0,0,0,0,0,0,0,0,0,0,0,0,0,0,0,0,0,0,0,0,0,0,0,0,0,0,0,0,0,0,0,0,0,0,0,0,0,0,0,0,0,0,0,0,0,0,0,0,0,0,0,0,0,0,0,0,0,0,0,0,0,0,0,0,0,0,0,0,0,0,0,0,0,0,0,0,0,0,0,0,0,0,0,0,0,0,0,0,0,0,0,0,0,0,0,0,0,0,0,0,0,0,0,0,
0,0,0,0,0,0,0,0,1610612950,0,0,0,0,1610612950,0,0,0,0,0,0,0,0,0,0,0,0,0,0,0,0,0,0,0,0,0,0,0,0,0,0,0,0,0,0,0,0,0,0,0,0,0,0,0,0,0,0,0,0,0,0,0,0,0,0,0,0,0,0,0,0,0,0,0,0,0,0,0,0,0,0,0,0,0,0,0,0,0,0,0,0,0,0,0,0,0,0,0,0,0,0,0,0,0,0,0,0,0,0,0,0,0,0,0,0,0,0,0,0,0,0,0,0,0,0,0,0,0,0,0,0,0,0,0,0,0,0,0,0,0,0,0,0,0,0,0,0,0,0,0,0,
0,0,0,0,0,0,0,0,1610612950,0,0,0,0,1610612950,0,0,0,0,0,0,0,0,0,0,0,0,0,0,0,0,0,0,0,0,0,0,0,0,0,0,0,0,0,0,0,0,0,0,0,0,0,0,0,0,0,0,0,0,0,0,0,0,0,0,0,0,0,0,0,0,0,0,0,0,0,0,0,0,0,0,0,0,0,0,0,0,0,0,0,0,0,0,0,0,0,0,0,0,0,0,0,0,0,0,0,0,0,0,0,0,0,0,0,0,0,0,0,0,0,0,0,0,0,0,0,0,0,0,0,0,0,0,0,0,0,0,0,0,0,0,0,0,0,0,0,0,0,0,0,0,
0,0,0,0,0,0,0,0,0,0,0,0,0,1610612950,0,0,0,0,0,0,0,0,0,0,0,0,0,0,0,0,0,0,0,0,0,0,0,0,0,0,0,0,0,0,0,0,0,0,0,0,0,0,0,0,0,0,0,0,0,0,0,0,0,0,0,0,0,0,0,0,0,0,0,0,0,0,0,0,0,0,0,0,0,0,0,0,0,0,0,0,0,0,0,0,0,0,0,0,0,0,0,0,0,0,0,0,0,0,0,0,0,0,0,0,0,0,0,0,0,0,0,0,0,0,0,0,0,0,0,0,0,0,0,0,0,0,0,0,0,0,0,0,0,0,0,0,0,0,0,0,
0,0,0,0,0,0,0,0,0,0,0,0,0,1610612950,0,0,0,0,0,0,0,0,0,0,0,0,0,0,0,0,0,0,0,0,0,0,0,0,0,0,0,0,0,0,0,0,0,0,0,0,0,0,0,0,0,0,0,0,0,0,0,0,0,0,0,0,0,0,0,0,0,0,0,0,0,0,0,0,0,0,0,0,0,0,0,0,0,0,0,0,0,0,0,0,0,0,0,0,0,0,0,0,0,0,0,0,0,0,0,0,0,0,0,0,0,0,0,0,0,0,0,0,0,0,0,0,0,0,0,0,0,0,0,0,0,0,0,0,0,0,0,0,0,0,0,0,0,0,0,0,
0,0,0,0,0,0,0,0,0,0,0,0,0,1610612950,0,0,0,0,0,0,0,0,0,0,0,0,0,0,0,0,0,0,0,0,0,0,0,0,0,0,0,0,0,0,0,0,0,0,0,0,0,0,0,0,0,0,0,0,0,0,0,0,0,0,0,0,0,0,0,0,0,0,0,0,0,0,0,0,0,0,0,0,0,0,0,0,0,0,0,0,0,0,0,0,0,0,0,0,0,0,0,0,0,0,0,0,0,0,0,0,0,0,0,0,0,0,0,0,0,0,0,0,0,0,0,0,0,0,0,0,0,0,0,0,0,0,0,0,0,0,0,0,0,0,0,0,0,0,0,0,
0,0,0,0,0,0,0,0,0,0,0,0,0,1610612950,0,0,0,0,0,0,0,0,0,0,0,0,0,0,0,0,0,0,0,0,0,0,0,0,0,0,0,0,0,0,0,0,0,0,0,0,0,0,0,0,0,0,0,0,0,0,0,0,0,0,0,0,0,0,0,0,0,0,0,0,0,0,0,0,0,0,0,0,0,0,0,0,0,0,0,0,0,0,0,0,0,0,0,0,0,0,0,0,0,0,0,0,0,0,0,0,0,0,0,0,0,0,0,0,0,0,0,0,0,0,0,0,0,0,0,0,0,0,0,0,0,0,0,0,0,0,0,0,0,0,0,0,0,0,0,0,
0,0,0,0,0,0,0,0,0,0,0,0,0,1610612950,0,0,0,0,0,0,0,0,0,0,0,0,0,0,0,0,0,0,0,0,0,0,0,0,0,0,0,0,0,0,0,0,0,0,0,0,0,0,0,0,0,0,0,0,0,0,0,0,0,0,0,0,0,0,0,0,0,0,0,0,0,0,0,0,0,0,0,0,0,0,0,0,0,0,0,0,0,0,0,0,0,0,0,0,0,0,0,0,0,0,0,0,0,0,0,0,0,0,0,0,0,0,0,0,0,0,0,0,0,0,0,0,0,0,0,0,0,0,0,0,0,0,0,0,0,0,0,0,0,0,0,0,0,0,0,0,
0,0,0,0,0,0,0,0,0,0,0,0,0,1610612950,0,0,0,0,0,0,0,0,0,0,0,0,0,0,0,0,0,0,0,0,0,0,0,0,0,0,0,0,0,0,0,0,0,0,0,0,0,0,0,0,0,0,0,0,0,0,0,0,0,0,0,0,0,0,0,0,0,0,0,0,0,0,0,0,0,0,0,0,0,0,0,0,0,0,0,0,0,0,0,0,0,0,0,0,0,0,0,0,0,0,0,0,0,0,0,0,0,0,0,0,0,0,0,0,0,0,0,0,0,0,0,0,0,0,0,0,0,0,0,0,0,0,0,0,0,0,0,0,0,0,0,0,0,0,0,0,
0,0,0,0,0,0,0,0,0,0,0,0,0,1610612950,0,0,0,0,0,0,0,0,0,0,0,0,0,0,0,0,0,0,0,0,0,0,0,0,0,0,0,0,0,0,0,0,0,0,0,0,0,0,0,0,0,0,0,0,0,0,0,0,0,0,0,0,0,0,0,0,0,0,0,0,0,0,0,0,0,0,0,0,0,0,0,0,0,0,0,0,0,0,0,0,0,0,0,0,0,0,0,0,0,0,0,0,0,0,0,0,0,0,0,0,0,0,0,0,0,0,0,0,0,0,0,0,0,0,0,0,0,0,0,0,0,0,0,0,0,0,0,0,0,0,0,0,0,0,0,0,
0,0,0,0,0,0,215,214,214,214,214,214,214,214,214,214,214,214,214,214,214,214,214,214,214,214,214,214,214,214,214,214,214,214,214,214,214,214,214,214,214,214,214,214,214,214,214,214,214,214,214,214,214,214,214,214,214,214,214,214,214,214,214,214,214,214,214,214,214,214,214,214,214,214,214,214,214,214,214,214,214,214,214,214,214,214,214,214,214,214,214,214,214,214,214,214,214,214,214,214,214,214,214,214,214,214,214,214,214,214,214,214,214,214,214,214,214,214,214,214,214,214,214,214,214,214,214,214,214,214,214,214,214,214,214,214,214,214,214,214,214,214,214,214,214,214,214,214,214,214
</data>
 </layer>
 <objectgroup id="5" name="spawn and goal">
  <object id="3" name="spawn" x="14" y="152" width="16" height="32"/>
  <object id="4" x="592" y="11" width="16" height="32"/>
  <object id="5" name="goal" x="2336.67" y="103.333" width="32" height="32"/>
 </objectgroup>
</map>
