<?xml version="1.0" encoding="UTF-8"?>
<map version="1.10" tiledversion="1.12.1" orientation="orthogonal" renderorder="left-up" width="300" height="18" tilewidth="16" tileheight="16" infinite="0" nextlayerid="4" nextobjectid="4">
 <tileset firstgid="1" source="../Assets/Tilesets/Level 1.tsx"/>
 <tileset firstgid="111" source="../Assets/Tilesets/Tiles.tsx"/>
 <layer id="1" name="Tile Layer 1" width="300" height="18">
  <data encoding="csv">
0,0,0,0,0,0,0,0,0,0,0,0,0,0,0,0,0,0,0,0,0,0,0,2684354606,3221225519,1610612784,0,0,0,0,0,0,0,0,0,0,0,0,0,0,0,0,0,0,0,0,0,0,0,0,0,0,2684354606,3221225519,3221225518,0,0,0,0,0,0,0,0,0,0,0,3221225520,3221225519,3221225518,0,0,0,0,0,0,0,0,0,0,0,0,0,0,0,0,0,0,0,0,0,0,0,0,0,0,0,0,0,0,0,0,0,0,0,0,0,0,0,0,0,0,0,0,0,0,0,0,0,0,0,0,0,0,0,0,0,0,0,0,0,0,0,0,0,0,0,0,0,0,0,0,0,0,0,0,0,0,0,0,0,0,0,0,0,0,0,0,0,0,0,0,0,0,0,0,0,0,0,4,2684354884,0,0,0,0,0,0,0,0,0,0,0,0,0,0,0,0,0,3221225520,3221225519,3221225518,0,0,0,0,0,0,0,0,0,0,0,0,0,0,0,0,0,0,0,3221225531,3221225530,3221225530,3221225529,0,0,0,0,0,0,0,0,0,0,0,0,0,0,0,0,57,58,59,0,0,0,0,0,0,0,3221225520,3221225519,3221225518,0,0,0,0,0,0,0,0,0,0,0,0,0,0,0,0,0,0,0,0,0,0,0,0,0,0,0,0,0,0,0,0,0,0,0,0,0,0,0,0,0,0,0,0,0,0,0,0,0,0,0,0,0,0,0,0,0,0,
0,0,0,0,0,0,0,0,0,0,0,0,0,0,0,0,0,0,0,0,0,0,0,23,14,27,0,0,0,0,0,0,0,0,0,0,0,0,0,0,0,0,0,0,0,0,0,0,0,0,0,0,3221225499,14,3221225495,0,0,0,0,0,0,0,0,0,0,0,3221225499,14,3221225495,0,0,0,0,0,0,0,0,0,0,0,0,0,0,0,0,0,0,0,0,0,0,0,0,0,0,0,0,0,0,0,0,0,0,0,0,0,0,0,0,0,0,0,0,0,0,0,0,0,0,0,0,0,0,0,0,0,0,0,0,0,0,0,0,0,0,0,0,0,0,0,0,0,0,0,0,0,0,0,0,0,0,0,0,0,0,0,0,0,0,0,0,0,0,0,0,0,0,0,27,2684354885,0,0,0,0,0,0,0,0,0,0,0,0,0,0,0,0,0,23,3221225508,27,0,0,0,0,0,0,0,0,0,0,0,0,0,0,0,0,0,0,0,3221225796,3221225798,3221225797,3221225796,0,0,0,0,0,0,0,0,0,0,0,0,0,0,0,0,3221225531,3221225530,3221225529,0,0,0,0,0,0,0,3221225499,3221225508,3221225495,0,0,0,0,0,0,0,0,0,0,0,0,0,0,0,0,0,0,0,0,0,0,0,0,0,0,0,0,0,0,0,0,0,0,0,0,0,0,0,0,0,0,0,0,0,0,0,0,0,0,0,0,0,0,0,0,0,0,
0,0,0,0,0,0,0,0,0,0,0,0,0,0,0,0,0,0,0,0,0,0,0,23,14,27,0,0,0,0,0,0,0,0,0,0,0,0,0,0,0,0,0,0,0,0,0,0,0,0,0,0,3221225499,14,3221225495,0,0,0,0,0,0,0,0,0,0,0,3221225499,14,3221225495,0,0,0,0,0,0,0,0,0,0,0,0,0,0,0,0,0,0,0,0,0,0,0,0,0,0,0,0,0,0,0,0,0,0,0,0,0,0,0,0,0,0,0,0,0,0,0,0,0,0,0,0,0,0,0,0,0,0,0,0,0,0,0,0,0,0,0,0,0,0,0,0,247,248,249,2,3,4,0,0,0,0,0,0,0,0,0,0,0,0,0,0,0,0,0,0,232,233,234,27,2684354886,0,0,0,0,0,0,0,0,0,0,0,0,0,0,0,0,0,23,3221225497,27,0,0,0,0,0,0,0,0,0,0,0,0,0,0,0,0,0,0,0,0,0,0,0,0,0,0,0,0,0,0,0,0,0,0,0,0,0,0,0,343,344,345,0,0,0,0,0,0,0,3221225499,3221225497,3221225495,0,0,0,0,0,0,0,0,0,0,0,0,0,0,0,0,0,0,0,0,0,0,0,0,0,0,0,0,0,0,0,0,0,0,0,0,0,0,0,0,0,0,0,0,0,0,0,0,0,0,0,0,0,0,0,0,0,0,
0,0,0,0,0,0,0,0,0,0,0,0,0,0,0,0,0,0,0,0,0,0,0,23,14,27,0,0,0,0,0,0,0,0,0,2,3,4,0,0,0,0,0,0,0,0,0,0,0,0,0,0,3221225499,14,3221225495,0,0,0,0,0,0,0,0,0,0,0,3221225499,25,3221225495,0,0,0,0,0,0,0,0,0,0,0,0,0,0,0,0,0,0,0,0,0,0,0,0,0,0,0,0,0,0,0,0,0,0,0,0,0,0,0,0,0,0,0,0,0,0,0,0,0,0,0,0,0,0,0,0,0,0,0,0,0,0,0,0,0,0,0,0,0,0,0,0,0,0,0,23,14,27,0,0,0,0,0,0,0,0,0,0,0,0,0,0,0,0,1610613062,2,247,248,249,27,2684354887,0,0,0,0,0,0,0,0,0,0,0,0,0,0,0,0,0,23,3221225486,27,0,0,0,0,0,0,0,0,0,0,0,0,0,0,0,0,0,0,0,0,0,0,0,0,0,0,0,0,0,0,0,0,0,0,0,0,0,0,0,0,0,0,0,0,0,0,0,0,0,3221225499,3221225486,3221225495,0,0,0,0,0,0,0,0,0,0,0,0,0,0,0,0,0,0,0,0,0,0,0,0,0,0,0,0,0,0,0,0,0,0,0,0,0,0,0,0,0,0,0,0,0,0,0,0,0,0,0,0,0,0,0,0,0,0,
0,0,0,0,0,0,0,0,0,0,0,0,0,0,0,0,0,0,0,0,0,0,0,23,14,27,0,0,0,0,0,0,0,0,0,23,14,27,0,0,0,0,0,0,0,0,0,0,0,0,0,0,3221225499,25,3221225495,0,0,0,0,0,0,0,0,0,0,0,3221225499,36,3221225495,0,0,0,0,0,0,0,0,0,0,0,0,0,0,0,0,0,0,0,0,0,0,0,0,325,0,0,325,0,0,325,0,0,325,0,0,0,0,0,0,0,0,0,0,0,0,0,0,0,0,0,0,0,0,0,0,0,0,0,0,0,0,0,0,0,0,0,0,0,0,0,0,0,0,0,23,25,27,0,0,0,0,0,0,0,0,0,0,0,0,0,0,0,0,1610613061,23,0,0,0,27,2684354884,0,0,0,0,0,0,0,0,0,0,0,0,0,0,0,0,0,23,25,27,0,0,0,0,0,0,0,0,0,0,0,0,0,0,0,0,0,0,0,0,0,0,0,0,0,0,0,0,0,0,0,0,0,0,0,0,0,0,0,0,0,0,0,0,0,0,0,0,0,3221225499,25,3221225495,0,0,0,0,0,0,0,0,0,0,0,0,0,0,0,0,0,0,0,0,0,0,0,0,0,0,0,0,0,0,0,0,0,0,0,0,0,0,0,0,0,0,0,0,0,0,0,0,0,0,0,0,0,0,0,0,0,0,
0,0,0,0,0,0,0,0,0,0,0,0,0,0,0,0,0,2,3,4,0,0,0,23,14,27,0,0,0,0,0,0,0,0,0,23,14,27,0,0,0,0,0,0,0,0,0,0,0,0,0,0,3221225499,36,3221225495,0,0,0,0,0,0,0,0,0,0,0,3221225476,3221225475,3221225474,0,0,0,0,0,0,0,0,0,0,0,0,0,0,0,0,0,0,0,0,0,0,2,3,3,3,3,3,3,3,3,3,3,3,3,3,4,0,0,0,0,2,3,4,0,0,346,347,348,0,0,2,3,4,0,0,0,0,0,0,0,0,0,0,0,0,0,0,0,0,0,0,0,0,0,23,26,27,0,0,0,0,0,0,0,0,0,0,0,0,0,0,0,0,1610613061,23,0,0,0,27,2684354885,0,0,0,0,0,0,0,0,0,0,0,1610613060,57,59,0,0,0,23,25,27,0,0,0,0,0,0,0,0,0,0,0,0,0,0,1610613062,57,58,59,0,0,0,0,1610613062,57,58,59,0,0,0,0,0,0,0,0,0,0,0,0,0,0,0,0,0,0,0,0,0,0,0,3221225499,36,3221225495,0,0,0,0,0,0,0,0,0,0,0,0,0,0,0,0,0,0,0,0,0,0,0,0,0,0,0,0,0,0,0,0,0,0,0,0,0,0,0,0,0,0,0,0,0,0,0,0,0,0,0,0,0,0,0,0,0,0,
0,0,0,0,0,0,0,0,0,0,0,0,0,0,0,0,0,23,14,27,0,0,0,23,14,27,0,0,0,0,2,3,4,0,0,23,14,27,0,0,0,0,0,0,0,0,0,0,0,0,0,0,3221225476,3221225475,3221225474,0,0,0,0,0,0,0,325,0,0,0,343,344,345,0,0,0,0,0,0,0,1610613061,2,3,4,0,0,0,0,0,0,0,0,0,1610613084,12,13,25,25,25,25,25,25,25,25,25,25,25,25,25,15,16,1610613081,0,0,0,0,0,0,0,2,3,4,0,0,0,0,0,0,0,0,0,0,0,0,0,0,0,0,0,0,0,0,0,0,0,0,0,0,23,36,27,0,0,0,0,0,0,0,324,325,326,0,0,0,0,0,0,1610613060,23,0,0,0,27,2684354883,0,0,0,0,0,0,0,0,0,0,0,0,101,103,0,0,0,23,3221225508,27,0,0,0,0,0,0,0,0,0,0,0,0,0,0,0,0,0,0,0,0,0,0,0,0,0,0,0,0,0,0,0,0,0,0,0,57,58,59,0,0,0,0,0,57,58,59,0,0,0,3221225499,14,3221225495,0,0,0,0,0,0,0,0,0,0,0,0,0,0,0,0,1610613062,1610612794,0,0,57,58,59,0,0,0,0,0,0,0,0,0,0,0,0,0,0,0,0,0,0,0,0,0,0,0,0,0,0,0,0,0,0,0,0,0,0,0,
0,0,0,0,0,0,0,0,0,0,0,0,0,0,0,0,0,23,14,27,0,0,0,23,14,27,0,0,0,0,0,0,0,0,0,23,14,27,0,0,0,0,0,0,0,0,0,0,0,0,0,0,3221225797,3221225797,3221225796,0,0,0,0,0,2,3,4,0,0,0,0,0,0,0,0,0,0,0,0,0,1610613063,23,14,27,0,0,0,0,0,0,0,0,0,1610613083,23,24,25,26,24,25,26,24,25,26,24,25,25,25,25,26,27,1610613080,0,0,0,0,0,0,0,0,0,0,0,0,0,0,0,0,0,0,0,0,0,0,0,0,0,0,0,0,0,0,0,0,1610613061,2,3,4,13,36,27,0,0,0,0,0,0,0,57,58,59,0,0,0,0,0,0,1610613059,23,0,0,0,27,2684354883,0,0,0,0,0,0,0,0,0,0,0,0,0,0,0,0,0,23,3221225497,27,0,0,0,0,0,0,0,0,0,57,58,59,0,0,0,0,0,0,0,0,0,0,0,0,0,0,0,0,0,0,0,0,0,0,0,101,102,103,0,0,0,0,0,101,102,103,0,0,0,3221225499,3221225497,3221225495,0,0,0,0,0,0,0,0,0,0,0,0,0,0,0,0,1610613061,1610612793,0,0,101,102,103,0,0,0,0,0,0,0,0,0,0,0,0,0,0,0,0,0,0,0,0,0,0,0,0,0,0,0,0,0,0,0,0,0,0,0,
0,0,0,0,0,0,0,0,0,0,0,0,0,0,0,0,0,23,14,27,0,0,0,23,14,27,0,0,0,0,0,0,0,0,0,23,14,27,0,0,0,0,0,0,0,0,0,0,0,325,0,0,0,0,0,0,0,0,0,0,46,47,48,0,0,0,0,0,0,0,0,0,0,0,0,0,1610613061,23,14,27,0,0,0,0,0,0,0,0,0,1610613082,23,24,24,36,14,36,14,14,14,36,36,25,14,25,14,14,27,1610613079,0,0,0,0,0,0,0,0,0,0,0,0,0,0,0,0,0,0,0,0,0,0,0,0,0,0,0,0,0,0,0,0,1610613060,23,25,26,24,36,27,0,0,57,58,59,0,0,0,0,0,0,0,57,58,59,0,1610613062,23,0,0,0,27,2684354884,0,0,0,0,0,0,0,0,0,0,0,0,0,0,0,0,0,23,3221225486,27,0,0,0,0,0,0,0,0,0,0,0,0,0,0,0,0,0,0,0,0,0,0,0,0,0,0,0,0,0,0,0,0,0,0,0,0,0,0,0,0,0,0,0,0,0,0,0,0,0,3221225499,3221225486,3221225495,0,0,0,0,0,0,0,0,0,0,0,0,57,58,59,0,0,0,0,0,0,0,0,0,0,0,0,0,0,2684354903,1610612794,2684354618,0,0,0,0,0,0,0,0,0,0,0,0,0,1610613061,57,58,59,0,0,0,2,3,3,3,3,4,
0,0,0,0,0,0,0,0,0,0,2,3,4,0,0,0,0,23,14,27,0,0,0,23,14,27,0,0,0,0,0,0,0,0,0,23,14,27,0,0,0,0,0,0,0,0,0,2,3,4,0,0,0,0,0,0,0,0,0,0,0,0,0,0,0,0,0,0,0,0,0,0,0,325,0,0,1610613060,23,25,27,0,0,0,0,0,0,0,0,0,0,34,47,47,47,47,47,47,47,47,47,47,47,47,47,47,47,38,0,0,0,0,0,0,0,0,0,0,0,0,0,0,0,0,0,0,2,3,4,0,0,0,0,0,0,0,0,0,0,0,0,0,34,47,47,47,47,48,0,0,68,69,81,0,0,0,0,0,0,0,79,80,81,0,0,0,0,0,0,0,0,0,0,0,0,0,0,0,1610613060,57,59,0,0,0,0,0,0,0,3221225476,3221225475,3221225474,0,0,0,0,0,0,0,0,0,0,0,0,0,0,0,0,0,0,0,0,0,0,0,0,0,0,0,0,0,0,0,0,0,0,0,0,0,0,0,0,0,0,0,0,0,0,0,0,0,3221225476,3221225475,3221225474,0,0,0,0,0,0,0,0,1610613062,1610612794,0,0,101,102,103,0,0,0,0,0,0,0,0,0,0,0,0,0,0,2684354904,1610612794,2684354618,0,0,0,0,0,0,0,0,0,0,0,0,0,0,101,102,103,0,0,0,23,14,25,14,14,27,
0,0,2,3,4,0,0,0,0,0,0,0,0,0,0,0,0,23,14,27,0,0,0,23,14,27,0,2,3,4,0,0,0,0,0,23,14,27,0,0,0,0,0,0,0,0,0,46,47,48,0,0,0,0,0,0,0,0,325,0,0,0,0,0,0,0,0,0,0,0,0,2,3,4,0,0,1610613063,23,14,27,0,0,0,0,2,3,4,0,0,0,0,0,0,0,0,0,0,0,0,0,0,0,0,0,0,0,0,0,0,0,0,0,0,0,0,0,0,0,0,0,0,0,0,0,0,46,47,48,0,0,0,0,0,0,0,0,0,0,0,0,0,0,0,0,0,0,0,0,0,101,102,103,0,0,0,0,0,0,0,101,102,103,0,0,0,0,0,0,0,0,0,0,0,0,0,0,0,0,101,103,0,0,0,0,0,0,0,3221225798,3221225797,3221225796,0,0,0,0,0,0,0,0,0,0,0,0,0,0,0,0,0,0,0,0,0,0,0,0,0,0,0,0,0,57,58,59,0,0,0,0,0,0,0,0,0,0,0,0,0,0,0,0,0,0,0,0,0,0,0,0,0,0,0,0,1610613061,1610612793,0,0,0,0,0,0,0,0,0,0,0,0,0,0,57,58,59,0,0,2684354905,1610612794,2684354618,0,0,0,0,0,0,0,0,0,0,0,0,0,0,0,0,0,0,0,0,23,25,26,24,25,27,
0,12,13,14,15,16,0,0,0,0,0,0,0,0,0,0,0,23,14,27,0,0,0,3221225476,3221225475,3221225474,0,0,0,0,0,0,0,0,0,23,14,27,0,0,0,0,0,0,0,0,0,0,0,0,0,0,0,0,0,0,2,3,4,0,0,0,0,0,0,0,0,0,0,0,0,46,47,48,0,0,1610613063,23,25,27,0,0,0,12,13,14,15,16,0,0,0,0,0,0,0,0,0,0,0,0,0,0,0,0,0,0,0,0,0,0,0,0,0,0,0,0,0,0,0,0,0,0,0,0,0,0,0,0,0,0,0,0,0,0,0,0,57,58,59,0,0,0,0,0,0,0,0,0,0,0,0,0,0,0,0,0,0,0,0,0,0,0,0,0,0,0,0,0,0,0,0,0,0,0,0,0,0,0,0,0,0,0,0,0,0,0,0,0,0,0,0,0,0,0,0,57,59,0,0,0,0,0,0,0,0,0,0,0,0,0,0,0,0,0,0,0,0,0,0,101,102,103,0,0,0,0,0,0,0,0,0,0,0,0,0,0,0,0,0,0,0,0,0,0,0,0,57,58,59,0,0,0,0,0,0,0,0,0,0,0,0,0,0,0,0,0,101,102,103,0,0,0,0,0,0,0,0,0,0,0,1610613061,57,58,59,0,0,0,0,0,0,0,0,0,0,23,36,36,36,36,27,
0,23,24,25,26,27,0,0,0,0,0,0,0,0,0,0,0,23,14,27,0,0,0,0,0,0,0,0,0,0,0,0,0,0,0,23,14,27,0,2,3,3,3,4,0,0,0,0,0,0,0,0,0,0,0,0,46,47,48,0,0,0,0,0,0,0,325,0,0,0,0,0,299,0,0,0,1610613063,23,14,27,0,0,0,23,24,25,26,27,0,0,0,0,0,0,0,0,0,0,0,0,0,0,0,0,0,0,0,0,0,0,0,0,0,0,0,0,0,0,0,0,0,0,0,0,0,0,0,0,0,0,0,0,0,0,1610613063,67,68,68,68,71,0,0,0,0,0,0,0,0,0,0,0,0,0,0,0,0,0,0,0,0,0,0,0,0,0,0,0,0,0,0,0,0,0,0,0,0,0,0,0,0,0,0,0,0,0,0,0,0,0,0,0,0,0,0,0,101,103,0,0,0,0,0,0,0,0,0,0,0,0,0,0,0,0,0,0,0,0,0,0,0,0,0,0,0,0,0,0,0,0,0,0,0,0,0,0,0,0,0,0,0,0,0,0,0,0,0,101,102,103,0,0,0,0,0,0,0,0,0,0,0,0,0,0,0,0,0,0,0,0,0,0,0,0,0,0,0,0,0,0,0,0,101,102,103,0,0,0,0,0,0,0,0,0,0,23,25,25,36,25,27,
0,34,35,36,37,38,0,0,0,0,0,0,0,0,0,0,0,23,14,27,0,0,0,0,0,0,0,0,0,0,0,0,0,0,0,23,14,27,12,13,14,25,36,15,16,0,0,0,0,0,0,0,0,325,0,0,0,0,0,0,0,0,0,0,2,3,4,0,0,0,0,0,314,0,0,0,1610613063,23,25,27,0,0,0,34,35,36,37,38,0,0,0,0,0,0,0,0,0,0,0,0,0,0,0,0,0,0,0,0,0,0,2,3,4,0,0,324,325,326,0,0,2,3,4,0,0,0,0,0,0,0,0,0,0,0,0,78,79,79,79,82,0,0,0,0,0,0,0,0,0,0,0,0,0,0,0,0,0,0,0,0,0,0,0,0,0,57,58,59,0,0,0,0,0,57,58,59,0,0,0,0,0,0,0,0,0,0,0,0,0,0,0,0,0,0,0,0,0,0,0,0,0,0,0,0,0,0,0,0,0,0,0,0,0,0,0,0,0,0,0,0,0,0,0,0,0,0,0,0,0,0,0,0,0,0,0,0,0,0,0,0,0,0,0,0,0,0,0,0,0,0,0,0,0,0,0,0,0,0,0,0,0,0,0,0,0,0,0,0,0,0,0,0,0,0,324,0,0,0,0,0,0,0,0,0,0,0,0,0,0,0,0,0,0,0,23,36,25,14,36,27,
0,0,46,47,48,0,0,0,0,0,0,0,0,0,0,0,0,23,14,27,0,0,0,0,0,0,0,0,0,0,2,3,4,0,0,23,14,27,23,24,25,25,24,36,27,0,0,0,0,0,0,2,3,4,0,0,0,0,0,0,0,0,0,0,46,47,48,0,0,0,0,0,0,0,0,0,1610613061,23,14,27,0,0,0,0,46,47,48,0,0,0,0,0,0,0,0,0,0,0,0,0,0,0,0,0,0,0,0,0,0,0,0,0,0,0,0,2,3,4,0,0,0,0,0,0,0,0,0,0,0,0,57,58,59,0,0,89,90,90,90,93,0,0,0,0,0,0,0,0,0,0,0,0,0,0,0,0,0,0,0,0,0,0,0,0,0,101,102,103,0,0,0,0,0,101,102,103,0,0,0,0,0,0,0,0,0,0,0,0,0,0,0,0,0,0,0,0,0,0,0,325,0,0,0,0,0,0,0,0,0,324,324,324,324,0,0,0,0,0,0,0,0,0,0,0,0,0,0,0,0,0,0,0,0,0,0,0,0,0,0,0,0,0,0,0,0,0,0,0,0,0,0,0,0,0,0,0,0,0,0,0,0,0,0,0,0,0,0,0,0,0,0,0,0,0,57,58,59,0,0,0,0,0,0,0,0,0,0,0,0,0,0,0,0,0,23,14,25,25,14,27,
0,0,0,0,0,0,0,0,0,0,0,0,0,0,0,0,0,23,25,27,0,0,0,0,0,0,0,0,0,0,0,0,0,0,0,23,25,27,23,36,36,14,36,26,27,0,0,0,0,0,0,46,47,48,0,0,0,0,0,0,0,0,0,0,0,0,0,0,0,0,0,0,0,0,0,0,1610613061,23,25,27,0,0,0,0,0,0,0,0,0,0,0,0,0,325,0,0,0,0,0,0,325,0,0,0,0,0,0,325,0,0,0,0,0,0,0,0,0,0,0,0,0,0,0,0,0,0,0,0,0,0,101,102,103,0,0,0,101,102,103,0,0,0,0,0,0,0,0,0,0,0,0,0,0,0,0,0,0,0,0,0,0,0,0,0,0,0,0,0,0,346,347,348,0,0,0,0,0,0,0,0,0,0,0,0,0,247,248,248,248,249,0,0,0,0,0,0,0,0,0,57,58,59,0,0,0,1610613062,57,58,58,58,58,58,58,58,58,59,0,0,0,0,0,0,0,0,0,0,0,0,0,0,0,0,0,0,0,0,57,58,58,58,58,58,58,58,59,0,0,0,0,0,0,0,0,0,0,0,0,0,0,0,0,0,0,0,0,0,0,0,0,0,0,0,0,0,101,102,103,0,0,0,0,0,0,0,0,0,0,0,0,0,0,0,0,0,23,25,26,24,25,27,
0,0,0,0,0,0,0,0,0,0,0,0,0,0,0,0,0,23,36,27,0,0,0,2,3,4,0,0,0,0,0,0,0,0,0,23,36,27,34,35,36,36,36,37,38,0,0,0,0,0,0,0,0,0,0,0,0,0,0,0,0,0,0,0,0,0,0,0,0,0,0,0,0,0,0,0,1610613063,23,36,27,0,0,0,0,0,0,0,0,0,0,0,2,3,4,0,0,0,0,2,3,4,0,0,0,0,2,3,4,0,0,0,0,0,0,0,0,0,0,0,0,0,0,0,0,0,0,0,0,0,0,0,0,0,0,0,0,0,0,0,0,0,0,0,0,0,0,0,0,0,0,0,0,0,0,0,0,0,0,0,0,0,0,0,0,0,0,0,0,0,57,58,59,0,0,0,0,0,0,0,0,0,0,0,0,0,0,0,0,0,0,0,0,0,0,0,0,0,0,0,0,0,0,0,0,0,0,0,0,0,0,0,0,0,0,0,0,0,0,0,0,0,0,0,0,0,0,0,0,0,0,0,0,0,0,0,0,0,0,0,0,0,0,0,0,0,0,0,0,0,0,0,0,0,0,0,0,0,0,0,0,0,0,0,0,0,0,0,0,0,0,0,0,0,0,0,0,0,0,0,0,0,0,0,0,0,0,0,0,0,0,0,0,0,0,23,36,14,36,36,27,
322,323,324,325,326,327,322,323,324,325,326,322,323,324,325,326,327,34,47,38,322,323,324,325,326,327,322,323,324,322,323,324,325,326,327,46,47,48,0,46,47,47,47,48,322,323,324,325,326,327,322,323,324,325,326,327,322,324,326,327,327,327,327,324,327,326,324,324,325,326,327,326,324,326,324,326,326,46,47,48,322,323,324,325,326,327,322,323,324,325,326,327,322,322,323,324,325,326,327,322,323,324,325,326,327,322,323,324,325,326,322,323,324,325,326,327,323,322,326,323,326,323,326,326,326,325,325,322,325,322,322,326,326,322,324,326,325,324,326,324,326,325,322,322,323,326,324,323,324,326,327,324,326,325,324,323,322,326,323,326,325,327,327,326,323,327,323,325,327,324,327,327,324,323,325,327,324,324,326,324,327,322,323,325,326,326,326,323,327,323,323,326,327,327,322,326,322,323,322,324,322,324,322,327,324,326,323,324,325,324,325,322,327,322,323,325,323,322,323,325,324,325,325,324,323,325,325,327,322,327,327,323,326,323,325,322,325,323,323,324,325,324,327,326,322,327,327,327,323,323,327,326,324,327,327,325,327,326,327,322,325,323,327,325,327,327,326,322,323,323,324,324,322,327,324,322,326,323,322,324,322,323,322,324,324,322,326,324,324,325,322,326,326,324,46,47,47,47,47,48
</data>
 </layer>
 <objectgroup id="2" name="spawn">
  <object id="1" name="spawn" x="46" y="116" width="16" height="32"/>
 </objectgroup>
 <objectgroup id="3" name="goal">
  <object id="2" name="goal" x="4749" y="91" width="32" height="32"/>
 </objectgroup>
</map>
